P3
# Gemini PDA boot logo (user artwork, 2026-10-05); 192x192, <=224 colours
192 192
255
0 0 0  0 0 0  0 0 0  0 0 0  0 0 0  0 0 0
0 0 0  0 0 0  0 0 0  0 0 0  0 0 0  0 0 0
0 0 0  0 0 0  0 0 0  0 0 0  0 0 0  0 0 0
0 0 0  0 0 0  0 0 0  0 0 0  0 0 0  0 0 0
0 0 0  0 0 0  0 0 0  0 0 0  0 0 0  0 0 0
0 0 0  0 0 0  0 0 0  0 0 0  0 0 0  0 0 0
0 0 0  0 0 0  0 0 0  0 0 0  0 0 0  0 0 0
0 0 0  0 0 0  0 0 0  0 0 0  0 0 0  0 0 0
0 0 0  0 0 0  0 0 0  0 0 0  0 0 0  0 0 0
0 0 0  0 0 0  0 0 0  0 0 0  0 0 0  0 0 0
0 0 0  0 0 0  0 0 0  0 0 0  0 0 0  0 0 0
0 0 0  0 0 0  0 0 0  0 0 0  0 0 0  0 0 0
0 0 0  0 0 0  0 0 0  0 0 0  0 0 0  0 0 0
0 0 0  0 0 0  0 0 0  0 0 0  0 0 0  0 0 0
0 0 0  0 0 0  0 0 0  0 0 0  0 0 0  0 0 0
0 0 0  0 0 0  0 0 0  0 0 0  0 0 0  0 0 0
0 0 0  0 0 0  0 0 0  0 0 0  0 0 0  0 0 0
0 0 0  0 0 0  0 0 0  0 0 0  0 0 0  0 0 0
0 0 0  0 0 0  0 0 0  0 0 0  0 0 0  0 0 0
0 0 0  0 0 0  0 0 0  0 0 0  0 0 0  0 0 0
0 0 0  0 0 0  0 0 0  0 0 0  0 0 0  0 0 0
0 0 0  0 0 0  0 0 0  0 0 0  0 0 0  0 0 0
0 0 0  0 0 0  0 0 0  0 0 0  0 0 0  0 0 0
0 0 0  0 0 0  0 0 0  0 0 0  0 0 0  0 0 0
0 0 0  0 0 0  0 0 0  0 0 0  0 0 0  0 0 0
0 0 0  0 0 0  0 0 0  0 0 0  0 0 0  0 0 0
0 0 0  0 0 0  0 0 0  0 0 0  0 0 0  0 0 0
0 0 0  0 0 0  0 0 0  0 0 0  0 0 0  0 0 0
0 0 0  0 0 0  0 0 0  0 0 0  0 0 0  0 0 0
0 0 0  0 0 0  0 0 0  0 0 0  0 0 0  0 0 0
0 0 0  0 0 0  0 0 0  0 0 0  0 0 0  0 0 0
0 0 0  0 0 0  0 0 0  0 0 0  0 0 0  0 0 0
0 0 0  0 0 0  0 0 0  0 0 0  0 0 0  0 0 0
0 0 0  0 0 0  0 0 0  0 0 0  0 0 0  0 0 0
0 0 0  0 0 0  0 0 0  0 0 0  0 0 0  0 0 0
0 0 0  0 0 0  0 0 0  0 0 0  0 0 0  0 0 0
0 0 0  0 0 0  0 0 0  0 0 0  0 0 0  0 0 0
0 0 0  0 0 0  0 0 0  0 0 0  0 0 0  0 0 0
0 0 0  0 0 0  0 0 0  0 0 0  0 0 0  0 0 0
0 0 0  0 0 0  0 0 0  0 0 0  0 0 0  0 0 0
0 0 0  0 0 0  0 0 0  0 0 0  0 0 0  0 0 0
0 0 0  0 0 0  0 0 0  0 0 0  0 0 0  0 0 0
0 0 0  0 0 0  0 0 0  0 0 0  0 0 0  0 0 0
0 0 0  0 0 0  0 0 0  0 0 0  0 0 0  0 0 0
0 0 0  0 0 0  0 0 0  0 0 0  0 0 0  0 0 0
0 0 0  0 0 0  0 0 0  0 0 0  0 0 0  0 0 0
0 0 0  0 0 0  0 0 0  0 0 0  0 0 0  0 0 0
0 0 0  0 0 0  0 0 0  0 0 0  0 0 0  0 0 0
0 0 0  0 0 0  0 0 0  0 0 0  0 0 0  0 0 0
0 0 0  0 0 0  0 0 0  0 0 0  0 0 0  0 0 0
0 0 0  0 0 0  0 0 0  0 0 0  0 0 0  0 0 0
0 0 0  0 0 0  0 0 0  0 0 0  0 0 0  0 0 0
0 0 0  0 0 0  0 0 0  0 0 0  0 0 0  0 0 0
0 0 0  0 0 0  0 0 0  0 0 0  0 0 0  0 0 0
0 0 0  0 0 0  0 0 0  0 0 0  0 0 0  0 0 0
0 0 0  0 0 0  0 0 0  0 0 0  0 0 0  0 0 0
0 0 0  0 0 0  0 0 0  0 0 0  0 0 0  0 0 0
0 0 0  0 0 0  0 0 0  0 0 0  0 0 0  0 0 0
0 0 0  0 0 0  0 0 0  0 0 0  0 0 0  0 0 0
0 0 0  0 0 0  0 0 0  0 0 0  0 0 0  0 0 0
0 0 0  0 0 0  0 0 0  0 0 0  0 0 0  0 0 0
0 0 0  0 0 0  0 0 0  0 0 0  0 0 0  0 0 0
0 0 0  0 0 0  0 0 0  0 0 0  0 0 0  0 0 0
0 0 0  0 0 0  0 0 0  0 0 0  0 0 0  0 0 0
0 0 0  0 0 0  0 0 0  0 0 0  0 0 0  0 0 0
0 0 0  0 0 0  0 0 0  0 0 0  0 0 0  0 0 0
0 0 0  0 0 0  0 0 0  0 0 0  0 0 0  0 0 0
0 0 0  0 0 0  0 0 0  0 0 0  0 0 0  0 0 0
0 0 0  0 0 0  0 0 0  0 0 0  0 0 0  0 0 0
0 0 0  0 0 0  0 0 0  0 0 0  0 0 0  0 0 0
0 0 0  0 0 0  0 0 0  0 0 0  0 0 0  0 0 0
0 0 0  0 0 0  0 0 0  0 0 0  0 0 0  0 0 0
0 0 0  0 0 0  0 0 0  0 0 0  0 0 0  0 0 0
0 0 0  0 0 0  0 0 0  0 0 0  0 0 0  0 0 0
0 0 0  0 0 0  0 0 0  0 0 0  0 0 0  0 0 0
0 0 0  0 0 0  0 0 0  0 0 0  0 0 0  0 0 0
0 0 0  0 0 0  0 0 0  0 0 0  0 0 0  0 0 0
0 0 0  0 0 0  0 0 0  0 0 0  0 0 0  0 0 0
0 0 0  0 0 0  0 0 0  0 0 0  0 0 0  0 0 0
0 0 0  0 0 0  0 0 0  0 0 0  0 0 0  0 0 0
0 0 0  0 0 0  0 0 0  0 0 0  0 0 0  0 0 0
0 0 0  0 0 0  0 0 0  0 0 0  0 0 0  0 0 0
0 0 0  0 0 0  0 0 0  0 0 0  0 0 0  0 0 0
0 0 0  0 0 0  0 0 0  0 0 0  0 0 0  0 0 0
0 0 0  0 0 0  0 0 0  0 0 0  0 0 0  0 0 0
0 0 0  0 0 0  0 0 0  0 0 0  0 0 0  0 0 0
0 0 0  0 0 0  0 0 0  0 0 0  0 0 0  0 0 0
0 0 0  0 0 0  0 0 0  0 0 0  0 0 0  0 0 0
0 0 0  0 0 0  0 0 0  0 0 0  0 0 0  0 0 0
0 0 0  0 0 0  0 0 0  0 0 0  0 0 0  0 0 0
0 0 0  0 0 0  0 0 0  0 0 0  0 0 0  0 0 0
0 0 0  0 0 0  0 0 0  0 0 0  0 0 0  0 0 0
0 0 0  0 0 0  0 0 0  0 0 0  0 0 0  0 0 0
0 0 0  0 0 0  0 0 0  0 0 0  0 0 0  0 0 0
0 0 0  0 0 0  0 0 0  0 0 0  0 0 0  0 0 0
0 0 0  0 0 0  0 0 0  0 0 0  0 0 0  0 0 0
0 0 0  0 0 0  0 0 0  0 0 0  0 0 0  0 0 0
0 0 0  0 0 0  0 0 0  0 0 0  0 0 0  0 0 0
0 0 0  0 0 0  0 0 0  0 0 0  0 0 0  0 0 0
0 0 0  0 0 0  0 0 0  0 0 0  0 0 0  0 0 0
0 0 0  0 0 0  0 0 0  0 0 0  0 0 0  0 0 0
0 0 0  0 0 0  0 0 0  0 0 0  0 0 0  0 0 0
0 0 0  0 0 0  0 0 0  0 0 0  0 0 0  0 0 0
0 0 0  0 0 0  0 0 0  0 0 0  0 0 0  0 0 0
0 0 0  0 0 0  0 0 0  0 0 0  0 0 0  0 0 0
0 0 0  0 0 0  0 0 0  0 0 0  0 0 0  0 0 0
0 0 0  0 0 0  0 0 0  0 0 0  0 0 0  0 0 0
0 0 0  0 0 0  0 0 0  0 0 0  0 0 0  0 0 0
0 0 0  0 0 0  0 0 0  0 0 0  0 0 0  0 0 0
0 0 0  0 0 0  0 0 0  0 0 0  0 0 0  0 0 0
0 0 0  0 0 0  0 0 0  0 0 0  0 0 0  0 0 0
0 0 0  0 0 0  0 0 0  0 0 0  0 0 0  0 0 0
0 0 0  0 0 0  0 0 0  0 0 0  0 0 0  0 0 0
0 0 0  0 0 0  0 0 0  0 0 0  0 0 0  0 0 0
0 0 0  0 0 0  0 0 0  0 0 0  0 0 0  0 0 0
0 0 0  0 0 0  0 0 0  0 0 0  0 0 0  0 0 0
0 0 0  0 0 0  0 0 0  0 0 0  0 0 0  0 0 0
0 0 0  0 0 0  0 0 0  0 0 0  0 0 0  0 0 0
0 0 0  0 0 0  0 0 0  0 0 0  0 0 0  0 0 0
0 0 0  0 0 0  0 0 0  0 0 0  0 0 0  0 0 0
0 0 0  0 0 0  0 0 0  0 0 0  0 0 0  0 0 0
0 0 0  0 0 0  0 0 0  0 0 0  0 0 0  0 0 0
0 0 0  0 0 0  0 0 0  0 0 0  0 0 0  0 0 0
0 0 0  0 0 0  0 0 0  0 0 0  0 0 0  0 0 0
0 0 0  0 0 0  0 0 0  0 0 0  0 0 0  0 0 0
0 0 0  0 0 0  0 0 0  0 0 0  0 0 0  0 0 0
0 0 0  0 0 0  0 0 0  0 0 0  0 0 0  0 0 0
0 0 0  0 0 0  0 0 0  0 0 0  0 0 0  0 0 0
0 0 0  0 0 0  0 0 0  0 0 0  0 0 0  0 0 0
0 0 0  0 0 0  0 0 0  0 0 0  0 0 0  0 0 0
0 0 0  0 0 0  0 0 0  0 0 0  0 0 0  0 0 0
0 0 0  0 0 0  0 0 0  0 0 0  0 0 0  0 0 0
0 0 0  0 0 0  0 0 0  0 0 0  0 0 0  0 0 0
0 0 0  0 0 0  0 0 0  0 0 0  0 0 0  0 0 0
0 0 0  0 0 0  0 0 0  0 0 0  0 0 0  0 0 0
0 0 0  0 0 0  0 0 0  0 0 0  0 0 0  0 0 0
0 0 0  0 0 0  0 0 0  0 0 0  0 0 0  0 0 0
0 0 0  0 0 0  0 0 0  0 0 0  0 0 0  0 0 0
0 0 0  0 0 0  0 0 0  0 0 0  0 0 0  0 0 0
0 0 0  0 0 0  0 0 0  0 0 0  0 0 0  0 0 0
0 0 0  0 0 0  0 0 0  0 0 0  0 0 0  0 0 0
0 0 0  0 0 0  0 0 0  0 0 0  0 0 0  0 0 0
0 0 0  0 0 0  0 0 0  0 0 0  0 0 0  0 0 0
0 0 0  0 0 0  0 0 0  0 0 0  0 0 0  0 0 0
0 0 0  0 0 0  0 0 0  0 0 0  0 0 0  0 0 0
0 0 0  0 0 0  0 0 0  0 0 0  0 0 0  0 0 0
0 0 0  0 0 0  0 0 0  0 0 0  0 0 0  0 0 0
0 0 0  0 0 0  0 0 0  0 0 0  0 0 0  0 0 0
0 0 0  0 0 0  0 0 0  0 0 0  0 0 0  0 0 0
0 0 0  0 0 0  0 0 0  0 0 0  0 0 0  0 0 0
0 0 0  0 0 0  0 0 0  0 0 0  0 0 0  0 0 0
0 0 0  0 0 0  0 0 0  0 0 0  0 0 0  0 0 0
0 0 0  0 0 0  0 0 0  0 0 0  0 0 0  0 0 0
0 0 0  0 0 0  0 0 0  0 0 0  0 0 0  0 0 0
0 0 0  0 0 0  0 0 0  0 0 0  0 0 0  0 0 0
0 0 0  0 0 0  0 0 0  0 0 0  0 0 0  0 0 0
0 0 0  0 0 0  0 0 0  0 0 0  0 0 0  0 0 0
0 0 0  0 0 0  0 0 0  0 0 0  0 0 0  0 0 0
0 0 0  0 0 0  0 0 0  0 0 0  0 0 0  0 0 0
0 0 0  0 0 0  0 0 0  0 0 0  0 0 0  0 0 0
0 0 0  0 0 0  0 0 0  0 0 0  0 0 0  0 0 0
0 0 0  0 0 0  0 0 0  0 0 0  0 0 0  0 0 0
0 0 0  0 0 0  0 0 0  0 0 0  0 0 0  0 0 0
0 0 0  0 0 0  0 0 0  0 0 0  0 0 0  0 0 0
0 0 0  0 0 0  0 0 0  0 0 0  0 0 0  0 0 0
0 0 0  0 0 0  0 0 0  0 0 0  0 0 0  0 0 0
0 0 0  0 0 0  0 0 0  0 0 0  0 0 0  0 0 0
0 0 0  0 0 0  0 0 0  0 0 0  0 0 0  0 0 0
0 0 0  0 0 0  0 0 0  0 0 0  0 0 0  0 0 0
0 0 0  0 0 0  0 0 0  0 0 0  0 0 0  0 0 0
0 0 0  0 0 0  0 0 0  0 0 0  0 0 0  0 0 0
0 0 0  0 0 0  0 0 0  0 0 0  0 0 0  0 0 0
0 0 0  0 0 0  0 0 0  0 0 0  0 0 0  0 0 0
0 0 0  0 0 0  0 0 0  0 0 0  0 0 0  0 0 0
0 0 0  0 0 0  0 0 0  0 0 0  0 0 0  0 0 0
0 0 0  0 0 0  0 0 0  0 0 0  0 0 0  0 0 0
0 0 0  0 0 0  0 0 0  0 0 0  0 0 0  0 0 0
0 0 0  0 0 0  0 0 0  0 0 0  0 0 0  0 0 0
0 0 0  0 0 0  0 0 0  0 0 0  0 0 0  0 0 0
0 0 0  0 0 0  0 0 0  0 0 0  0 0 0  0 0 0
0 0 0  0 0 0  0 0 0  0 0 0  0 0 0  0 0 0
0 0 0  0 0 0  0 0 0  0 0 0  0 0 0  0 0 0
0 0 0  0 0 0  0 0 0  0 0 0  0 0 0  0 0 0
0 0 0  0 0 0  0 0 0  0 0 0  0 0 0  0 0 0
0 0 0  0 0 0  0 0 0  0 0 0  0 0 0  0 0 0
0 0 0  0 0 0  0 0 0  0 0 0  0 0 0  0 0 0
0 0 0  0 0 0  0 0 0  0 0 0  0 0 0  0 0 0
0 0 0  0 0 0  0 0 0  0 0 0  0 0 0  0 0 0
0 0 0  0 0 0  0 0 0  0 0 0  0 0 0  0 0 0
0 0 0  0 0 0  0 0 0  0 0 0  0 0 0  0 0 0
0 0 0  0 0 0  0 0 0  0 0 0  0 0 0  0 0 0
0 0 0  0 0 0  0 0 0  0 0 0  0 0 0  0 0 0
0 0 0  0 0 0  0 0 0  0 0 0  0 0 0  0 0 0
0 0 0  0 0 0  0 0 0  0 0 0  0 0 0  0 0 0
0 0 0  0 0 0  0 0 0  0 0 0  0 0 0  0 0 0
0 0 0  0 0 0  0 0 0  0 0 0  0 0 0  0 0 0
0 0 0  0 0 0  0 0 0  0 0 0  0 0 0  0 0 0
0 0 0  0 0 0  0 0 0  0 0 0  0 0 0  0 0 0
0 0 0  0 0 0  0 0 0  0 0 0  8 8 2  20 22 57
44 47 99  44 47 99  58 59 115  63 67 125  66 74 136  69 77 138
74 85 151  74 85 151  73 89 157  73 89 157  74 85 151  74 85 151
75 94 162  73 89 157  73 89 157  73 89 157  74 85 151  75 94 162
77 91 160  74 85 151  73 89 157  73 89 157  71 92 161  73 89 157
74 87 154  73 89 157  73 89 157  71 92 161  73 89 157  71 92 161
75 94 162  74 85 151  74 85 151  73 89 157  73 89 157  71 92 161
81 107 178  69 77 138  73 89 157  94 117 188  75 94 162  69 77 138
145 166 222  112 124 189  74 87 154  97 109 177  112 124 189  79 103 173
67 107 179  70 100 171  67 102 173  67 102 173  67 102 173  67 102 173
67 102 173  74 109 181  67 102 173  65 105 177  71 92 161  71 96 166
67 102 173  68 110 182  67 102 173  67 102 173  65 105 177  65 105 177
67 102 173  65 105 177  65 105 177  67 102 173  67 102 173  67 102 173
67 107 179  68 110 182  67 102 173  67 102 173  65 105 177  65 105 177
68 110 182  72 118 190  65 105 177  65 105 177  68 110 182  65 105 177
77 125 197  65 105 177  65 105 177  71 114 186  65 105 177  65 105 177
68 110 182  71 114 186  68 110 182  72 118 190  65 105 177  67 102 173
68 110 182  72 118 190  65 105 177  68 110 182  68 110 182  71 114 186
67 102 173  66 74 136  64 72 132  58 59 115  58 59 115  6 46 75
4 5 35  0 0 0  0 0 0  0 0 0  0 0 0  0 0 0
0 0 0  0 0 0  0 0 0  0 0 0  0 0 0  0 0 0
0 0 0  0 0 0  0 0 0  0 0 0  0 0 0  0 0 0
0 0 0  0 0 0  0 0 0  0 0 0  0 0 0  0 0 0
0 0 0  0 0 0  0 0 0  0 0 0  0 0 0  0 0 0
0 0 0  0 0 0  0 0 0  0 0 0  0 0 0  0 0 0
0 0 0  0 0 0  0 0 0  0 0 0  0 0 0  0 0 0
0 0 0  0 0 0  0 0 0  0 0 0  0 0 0  0 0 0
0 0 0  0 0 0  0 0 0  0 0 0  0 0 0  0 0 0
0 0 0  0 0 0  0 0 0  0 0 0  0 0 0  0 0 0
0 0 0  0 0 0  0 0 0  0 0 0  0 0 0  0 0 0
0 0 0  0 0 0  0 0 0  0 0 0  0 0 0  0 0 0
0 0 0  0 0 0  0 0 0  0 0 0  0 0 0  0 0 0
0 0 0  22 23 28  44 47 99  64 72 132  74 87 154  74 87 154
81 94 163  66 74 136  66 74 136  74 85 151  73 89 157  74 85 151
74 87 154  71 92 161  74 87 154  69 77 138  73 89 157  73 89 157
74 85 151  71 92 161  73 89 157  74 85 151  71 92 161  71 92 161
73 89 157  79 98 168  74 87 154  71 92 161  74 85 151  74 85 151
71 92 161  79 98 168  66 74 136  94 114 184  84 101 172  74 85 151
71 92 161  73 89 157  71 92 161  73 89 157  79 98 168  75 94 162
74 85 151  73 89 157  71 92 161  71 92 161  79 98 168  76 88 155
81 94 163  71 92 161  71 92 161  71 96 166  109 131 201  81 107 178
67 102 173  71 96 166  91 121 192  67 102 173  71 92 161  67 102 173
71 96 166  71 96 166  67 102 173  67 102 173  67 102 173  65 105 177
67 102 173  67 102 173  71 92 161  67 102 173  65 105 177  67 102 173
67 102 173  67 102 173  67 102 173  67 102 173  67 102 173  65 105 177
67 102 173  74 112 184  65 105 177  65 105 177  68 110 182  65 105 177
67 102 173  77 125 197  65 105 177  68 110 182  65 105 177  68 110 182
65 105 177  65 105 177  72 118 190  68 110 182  71 114 186  68 110 182
65 105 177  65 105 177  72 118 190  65 105 177  65 105 177  65 105 177
74 121 193  112 143 215  65 105 177  71 114 186  74 121 193  68 110 182
71 114 186  71 114 186  105 139 211  72 118 190  72 118 190  71 114 186
72 118 190  67 102 173  44 47 99  22 23 28  0 0 0  0 0 0
0 0 0  0 0 0  0 0 0  0 0 0  0 0 0  0 0 0
0 0 0  0 0 0  0 0 0  0 0 0  0 0 0  0 0 0
0 0 0  0 0 0  0 0 0  0 0 0  0 0 0  0 0 0
0 0 0  0 0 0  0 0 0  0 0 0  0 0 0  0 0 0
0 0 0  0 0 0  0 0 0  0 0 0  0 0 0  0 0 0
0 0 0  0 0 0  0 0 0  0 0 0  0 0 0  0 0 0
0 0 0  0 0 0  0 0 0  0 0 0  0 0 0  0 0 0
0 0 0  0 0 0  0 0 0  0 0 0  0 0 0  0 0 0
0 0 0  0 0 0  0 0 0  0 0 0  0 0 0  0 0 0
0 0 0  0 0 0  0 0 0  0 0 0  0 0 0  0 0 0
0 0 0  0 0 0  0 0 0  0 0 0  0 0 0  0 0 0
0 0 0  0 0 0  0 0 0  0 0 0  8 8 2  58 56 66
66 74 136  66 74 136  74 85 151  74 87 154  69 77 138  73 81 142
81 94 163  66 74 136  87 105 175  84 97 167  69 77 138  74 85 151
69 77 138  75 94 162  74 85 151  74 85 151  74 87 154  75 94 162
73 89 157  75 94 162  73 89 157  73 89 157  71 92 161  71 92 161
73 89 157  74 85 151  71 92 161  73 89 157  73 89 157  74 87 154
73 89 157  71 92 161  71 92 161  73 89 157  73 89 157  73 89 157
81 107 178  71 92 161  71 92 161  73 89 157  75 94 162  71 92 161
71 96 166  79 98 168  75 94 162  87 105 175  71 96 166  71 92 161
75 94 162  71 92 161  70 100 171  83 111 183  71 96 166  74 107 178
74 107 178  71 92 161  119 147 214  78 113 185  67 102 173  78 113 185
67 102 173  67 107 179  67 102 173  65 105 177  65 105 177  84 121 193
67 102 173  68 110 182  71 92 161  65 105 177  67 102 173  71 92 161
65 105 177  67 102 173  65 105 177  67 102 173  65 105 177  67 102 173
67 107 179  67 102 173  65 105 177  65 105 177  68 110 182  65 105 177
68 110 182  68 110 182  65 105 177  65 105 177  68 110 182  67 102 173
65 105 177  65 105 177  65 105 177  68 110 182  71 114 186  67 107 179
68 110 182  68 110 182  65 105 177  74 121 193  71 114 186  65 105 177
68 110 182  68 110 182  68 110 182  68 110 182  72 118 190  73 124 196
73 124 196  68 110 182  71 114 186  72 118 190  72 118 190  71 114 186
73 124 196  73 124 196  72 118 190  71 114 186  67 102 173  16 52 97
8 8 2  0 0 0  0 0 0  0 0 0  0 0 0  0 0 0
0 0 0  0 0 0  0 0 0  0 0 0  0 0 0  0 0 0
0 0 0  0 0 0  0 0 0  0 0 0  0 0 0  0 0 0
0 0 0  0 0 0  0 0 0  0 0 0  0 0 0  0 0 0
0 0 0  0 0 0  0 0 0  0 0 0  0 0 0  0 0 0
0 0 0  0 0 0  0 0 0  0 0 0  0 0 0  0 0 0
0 0 0  0 0 0  0 0 0  0 0 0  0 0 0  0 0 0
0 0 0  0 0 0  0 0 0  0 0 0  0 0 0  0 0 0
0 0 0  0 0 0  0 0 0  0 0 0  0 0 0  0 0 0
0 0 0  0 0 0  0 0 0  0 0 0  0 0 0  0 0 0
0 0 0  0 0 0  0 0 0  0 0 0  0 0 0  0 0 0
0 0 0  0 0 0  3 3 3  20 22 57  64 72 132  69 77 138
73 81 142  74 85 151  75 94 162  92 103 172  74 85 151  73 89 157
74 85 151  74 85 151  87 100 170  73 81 142  69 77 138  75 94 162
74 87 154  74 85 151  69 77 138  73 89 157  69 77 138  74 85 151
74 85 151  74 87 154  73 89 157  73 89 157  74 87 154  73 89 157
79 98 168  74 87 154  71 92 161  74 85 151  73 89 157  74 87 154
71 92 161  73 89 157  71 92 161  71 92 161  71 92 161  73 89 157
71 96 166  73 89 157  73 89 157  71 92 161  75 94 162  71 92 161
71 92 161  71 92 161  79 103 173  79 98 168  71 92 161  71 96 166
71 96 166  74 103 175  74 103 175  71 92 161  74 107 178  74 107 178
67 102 173  71 96 166  70 100 171  83 111 183  67 102 173  67 102 173
67 102 173  67 107 179  65 105 177  65 105 177  67 102 173  67 102 173
67 102 173  71 96 166  65 105 177  67 102 173  65 105 177  67 102 173
67 107 179  65 105 177  67 102 173  67 102 173  65 105 177  67 102 173
65 105 177  67 102 173  68 110 182  65 105 177  65 105 177  65 105 177
74 121 193  67 107 179  65 105 177  65 105 177  77 125 197  86 130 201
74 121 193  68 110 182  72 118 190  65 105 177  67 107 179  65 105 177
72 118 190  68 110 182  65 105 177  68 110 182  65 105 177  65 105 177
71 114 186  68 110 182  68 110 182  71 114 186  65 105 177  68 110 182
68 110 182  72 118 190  71 114 186  105 139 211  86 130 201  68 110 182
68 110 182  72 118 190  72 118 190  68 110 182  72 118 190  68 110 182
65 105 177  16 52 97  3 3 3  0 0 0  0 0 0  0 0 0
0 0 0  0 0 0  0 0 0  0 0 0  0 0 0  0 0 0
0 0 0  0 0 0  0 0 0  0 0 0  0 0 0  0 0 0
0 0 0  0 0 0  0 0 0  0 0 0  0 0 0  0 0 0
0 0 0  0 0 0  0 0 0  0 0 0  0 0 0  0 0 0
0 0 0  0 0 0  0 0 0  0 0 0  0 0 0  0 0 0
0 0 0  0 0 0  0 0 0  0 0 0  0 0 0  0 0 0
0 0 0  0 0 0  0 0 0  0 0 0  0 0 0  0 0 0
0 0 0  0 0 0  0 0 0  0 0 0  0 0 0  0 0 0
0 0 0  0 0 0  0 0 0  0 0 0  0 0 0  0 0 0
0 0 0  0 0 0  0 0 0  0 0 0  0 0 0  0 0 0
0 0 0  22 23 28  60 62 119  74 87 154  76 88 155  74 87 154
74 85 151  69 77 138  74 85 151  74 85 151  85 98 163  74 85 151
74 85 151  77 91 160  74 87 154  73 89 157  77 91 160  73 89 157
85 98 163  97 109 177  74 87 154  74 85 151  74 85 151  75 94 162
84 97 167  73 89 157  74 87 154  73 89 157  71 92 161  71 92 161
81 94 163  84 97 167  73 89 157  74 85 151  73 89 157  74 87 154
73 89 157  73 89 157  73 89 157  71 92 161  74 85 151  73 89 157
73 89 157  74 85 151  75 94 162  74 87 154  79 98 168  79 98 168
71 92 161  71 96 166  71 92 161  71 96 166  70 100 171  79 103 173
79 103 173  71 92 161  81 107 178  71 96 166  74 107 178  74 107 178
67 102 173  67 102 173  67 102 173  70 100 171  67 102 173  67 107 179
67 102 173  71 92 161  67 102 173  68 110 182  67 102 173  67 102 173
67 102 173  67 102 173  68 110 182  65 105 177  65 105 177  67 102 173
65 105 177  67 102 173  71 96 166  67 102 173  65 105 177  67 107 179
65 105 177  67 102 173  67 107 179  65 105 177  68 110 182  67 107 179
67 107 179  65 105 177  71 114 186  65 105 177  67 107 179  65 105 177
71 114 186  65 105 177  65 105 177  65 105 177  65 105 177  68 110 182
72 118 190  71 114 186  65 105 177  68 110 182  72 118 190  72 118 190
65 105 177  74 121 193  71 114 186  68 110 182  71 114 186  84 115 186
86 130 201  73 124 196  72 118 190  73 124 196  77 125 197  71 114 186
73 124 196  72 118 190  73 124 196  68 110 182  73 124 196  68 110 182
72 118 190  72 118 190  71 92 161  22 23 28  0 0 0  0 0 0
0 0 0  0 0 0  0 0 0  0 0 0  0 0 0  0 0 0
0 0 0  0 0 0  0 0 0  0 0 0  0 0 0  0 0 0
0 0 0  0 0 0  0 0 0  0 0 0  0 0 0  0 0 0
0 0 0  0 0 0  0 0 0  0 0 0  0 0 0  0 0 0
0 0 0  0 0 0  0 0 0  0 0 0  0 0 0  0 0 0
0 0 0  0 0 0  0 0 0  0 0 0  0 0 0  0 0 0
0 0 0  0 0 0  0 0 0  0 0 0  0 0 0  0 0 0
0 0 0  0 0 0  0 0 0  0 0 0  0 0 0  0 0 0
0 0 0  0 0 0  0 0 0  0 0 0  0 0 0  0 0 0
0 0 0  0 0 0  0 0 0  0 0 0  0 0 0  0 0 0
20 22 57  76 88 155  66 74 136  74 85 151  74 85 151  74 85 151
74 85 151  69 77 138  81 94 163  73 81 142  74 87 154  74 87 154
73 81 142  74 85 151  77 91 160  74 87 154  74 87 154  69 77 138
69 77 138  77 91 160  69 77 138  74 85 151  74 87 154  74 85 151
73 89 157  74 85 151  74 85 151  73 89 157  71 92 161  74 85 151
73 89 157  77 91 160  73 89 157  71 92 161  71 92 161  74 87 154
79 98 168  73 89 157  75 94 162  74 87 154  102 124 194  74 85 151
84 101 172  79 98 168  71 92 161  71 92 161  79 98 168  74 87 154
75 94 162  71 92 161  79 103 173  71 96 166  71 92 161  71 96 166
71 96 166  70 100 171  70 100 171  70 100 171  67 102 173  67 102 173
67 107 179  65 105 177  74 107 178  67 102 173  65 105 177  68 110 182
67 102 173  67 107 179  67 102 173  71 92 161  67 102 173  67 102 173
67 102 173  67 102 173  65 105 177  67 102 173  65 105 177  65 105 177
68 110 182  71 92 161  78 119 191  71 114 186  67 102 173  65 105 177
67 102 173  65 105 177  65 105 177  67 107 179  67 102 173  65 105 177
67 107 179  65 105 177  65 105 177  65 105 177  65 105 177  68 110 182
68 110 182  65 105 177  78 119 191  68 110 182  72 118 190  71 114 186
65 105 177  67 107 179  68 110 182  68 110 182  72 118 190  68 110 182
71 114 186  72 118 190  67 107 179  68 110 182  77 125 197  97 135 206
90 128 199  74 103 175  74 107 178  68 110 182  73 124 196  72 118 190
82 127 199  68 110 182  65 105 177  65 105 177  72 118 190  77 125 197
73 124 196  72 118 190  73 124 196  71 114 186  16 52 97  0 0 0
0 0 0  0 0 0  0 0 0  0 0 0  0 0 0  0 0 0
0 0 0  0 0 0  0 0 0  0 0 0  0 0 0  0 0 0
0 0 0  0 0 0  0 0 0  0 0 0  0 0 0  0 0 0
0 0 0  0 0 0  0 0 0  0 0 0  0 0 0  0 0 0
0 0 0  0 0 0  0 0 0  0 0 0  0 0 0  0 0 0
0 0 0  0 0 0  0 0 0  0 0 0  0 0 0  0 0 0
0 0 0  0 0 0  0 0 0  0 0 0  0 0 0  0 0 0
0 0 0  0 0 0  0 0 0  0 0 0  0 0 0  0 0 0
0 0 0  0 0 0  0 0 0  0 0 0  0 0 0  0 0 0
0 0 0  0 0 0  0 0 0  0 0 0  3 3 3  55 56 109
69 77 138  74 85 151  73 89 157  76 88 155  74 85 151  69 77 138
74 85 151  112 124 189  97 109 177  76 88 155  74 85 151  76 88 155
74 85 151  69 77 138  73 89 157  74 85 151  77 91 160  76 88 155
84 101 172  73 89 157  73 81 142  87 105 175  74 85 151  73 89 157
73 89 157  84 101 172  73 89 157  84 97 167  74 87 154  79 98 168
73 89 157  74 85 151  73 89 157  71 92 161  74 85 151  79 98 168
79 98 168  71 92 161  74 87 154  71 92 161  109 131 201  71 92 161
71 92 161  79 98 168  73 89 157  71 92 161  75 94 162  73 89 157
73 89 157  71 92 161  81 107 178  71 96 166  73 89 157  71 96 166
74 107 178  83 111 183  71 96 166  74 103 175  74 109 181  70 100 171
74 103 175  67 102 173  67 102 173  71 96 166  67 102 173  68 110 182
71 92 161  72 118 190  67 107 179  65 105 177  65 105 177  67 102 173
65 105 177  67 102 173  67 102 173  65 105 177  67 102 173  68 110 182
67 102 173  65 105 177  67 102 173  65 105 177  65 105 177  67 102 173
65 105 177  65 105 177  65 105 177  65 105 177  65 105 177  65 105 177
65 105 177  65 105 177  65 105 177  65 105 177  68 110 182  71 114 186
71 114 186  68 110 182  68 110 182  65 105 177  68 110 182  65 105 177
68 110 182  71 114 186  71 114 186  71 114 186  68 110 182  65 105 177
72 118 190  68 110 182  68 110 182  71 114 186  80 126 197  74 112 184
86 110 181  193 197 226  102 118 186  67 107 179  73 124 196  73 124 196
71 114 186  74 109 181  105 139 211  73 124 196  72 118 190  72 118 190
72 118 190  73 124 196  82 127 199  72 118 190  72 118 190  64 72 132
3 3 3  0 0 0  0 0 0  0 0 0  0 0 0  0 0 0
0 0 0  0 0 0  0 0 0  0 0 0  0 0 0  0 0 0
0 0 0  0 0 0  0 0 0  0 0 0  0 0 0  0 0 0
0 0 0  0 0 0  0 0 0  0 0 0  0 0 0  0 0 0
0 0 0  0 0 0  0 0 0  0 0 0  0 0 0  0 0 0
0 0 0  0 0 0  0 0 0  0 0 0  0 0 0  0 0 0
0 0 0  0 0 0  0 0 0  0 0 0  0 0 0  0 0 0
0 0 0  0 0 0  0 0 0  0 0 0  0 0 0  0 0 0
0 0 0  0 0 0  0 0 0  0 0 0  0 0 0  0 0 0
0 0 0  0 0 0  0 0 0  3 3 3  64 72 132  73 89 157
74 85 151  74 85 151  76 88 155  73 81 142  77 91 160  74 87 154
73 81 142  69 77 138  66 74 136  73 81 142  74 85 151  81 94 163
92 100 166  83 93 156  73 89 157  74 85 151  74 87 154  77 91 160
74 85 151  74 87 154  74 87 154  74 87 154  74 85 151  87 100 170
84 97 167  73 89 157  73 89 157  73 89 157  73 89 157  73 89 157
73 89 157  73 89 157  74 87 154  73 89 157  74 87 154  73 89 157
71 92 161  73 89 157  71 96 166  74 87 154  73 89 157  75 94 162
71 92 161  71 96 166  75 94 162  75 94 162  75 94 162  74 87 154
112 124 189  71 92 161  74 85 151  79 103 173  79 103 173  71 92 161
79 103 173  71 92 161  74 103 175  70 100 171  74 103 175  74 107 178
74 107 178  67 107 179  71 96 166  96 127 198  74 107 178  67 102 173
67 107 179  67 102 173  67 102 173  67 102 173  65 105 177  65 105 177
67 102 173  67 107 179  65 105 177  67 102 173  65 105 177  65 105 177
67 102 173  67 107 179  67 102 173  65 105 177  65 105 177  67 107 179
67 102 173  65 105 177  65 105 177  65 105 177  65 105 177  65 105 177
68 110 182  65 105 177  65 105 177  65 105 177  72 118 190  65 105 177
68 110 182  65 105 177  68 110 182  68 110 182  65 105 177  91 132 204
74 112 184  72 118 190  67 107 179  71 114 186  65 105 177  72 118 190
68 110 182  68 110 182  84 121 193  74 107 178  77 125 197  77 125 197
91 121 192  249 249 249  112 124 189  78 119 191  77 125 197  73 124 196
71 114 186  97 135 206  105 139 211  65 105 177  74 121 193  72 118 190
73 124 196  73 124 196  74 121 193  73 124 196  91 132 204  73 124 196
67 102 173  8 8 2  0 0 0  0 0 0  0 0 0  0 0 0
0 0 0  0 0 0  0 0 0  0 0 0  0 0 0  0 0 0
0 0 0  0 0 0  0 0 0  0 0 0  0 0 0  0 0 0
0 0 0  0 0 0  0 0 0  0 0 0  0 0 0  0 0 0
0 0 0  0 0 0  0 0 0  0 0 0  0 0 0  0 0 0
0 0 0  0 0 0  0 0 0  0 0 0  0 0 0  0 0 0
0 0 0  0 0 0  0 0 0  0 0 0  0 0 0  0 0 0
0 0 0  0 0 0  0 0 0  0 0 0  0 0 0  0 0 0
0 0 0  0 0 0  0 0 0  0 0 0  0 0 0  0 0 0
0 0 0  0 0 0  8 8 2  63 67 125  74 87 154  74 85 151
74 85 151  73 81 142  74 85 151  74 85 151  66 74 136  77 91 160
74 85 151  74 85 151  74 85 151  81 94 163  74 85 151  74 85 151
76 88 155  74 85 151  74 87 154  74 87 154  74 85 151  74 85 151
77 91 160  98 113 182  73 89 157  77 91 160  83 93 156  76 88 155
77 91 160  77 91 160  74 87 154  75 94 162  73 89 157  75 94 162
81 94 163  73 89 157  71 92 161  75 94 162  84 101 172  73 89 157
79 98 168  71 92 161  87 105 175  79 98 168  71 96 166  73 89 157
71 92 161  73 89 157  73 89 157  71 92 161  75 94 162  73 89 157
101 120 189  75 94 162  71 96 166  71 96 166  79 103 173  71 92 161
81 107 178  70 100 171  74 103 175  83 111 183  67 102 173  71 92 161
71 96 166  70 100 171  70 100 171  67 102 173  67 107 179  86 124 195
67 102 173  74 109 181  67 107 179  65 105 177  68 110 182  67 102 173
65 105 177  67 102 173  65 105 177  67 102 173  65 105 177  67 102 173
67 102 173  65 105 177  65 105 177  67 102 173  65 105 177  68 110 182
67 102 173  65 105 177  65 105 177  65 105 177  68 110 182  65 105 177
65 105 177  65 105 177  65 105 177  72 118 190  68 110 182  68 110 182
72 118 190  65 105 177  68 110 182  68 110 182  74 109 181  84 121 193
86 124 195  67 107 179  72 118 190  68 110 182  71 114 186  78 119 191
74 121 193  72 118 190  105 139 211  71 114 186  77 125 197  82 127 199
78 113 185  81 107 178  93 124 195  68 110 182  73 124 196  73 124 196
72 118 190  78 119 191  72 118 190  72 118 190  77 125 197  68 110 182
73 124 196  73 124 196  72 118 190  77 125 197  72 118 190  73 124 196
72 118 190  67 102 173  4 5 35  0 0 0  0 0 0  0 0 0
0 0 0  0 0 0  0 0 0  0 0 0  0 0 0  0 0 0
0 0 0  0 0 0  0 0 0  0 0 0  0 0 0  0 0 0
0 0 0  0 0 0  0 0 0  0 0 0  0 0 0  0 0 0
0 0 0  0 0 0  0 0 0  0 0 0  0 0 0  0 0 0
0 0 0  0 0 0  0 0 0  0 0 0  0 0 0  0 0 0
0 0 0  0 0 0  0 0 0  0 0 0  0 0 0  0 0 0
0 0 0  0 0 0  0 0 0  0 0 0  0 0 0  0 0 0
0 0 0  0 0 0  0 0 0  0 0 0  0 0 0  0 0 0
0 0 0  3 3 3  63 67 125  76 88 155  66 74 136  74 85 151
74 85 151  74 85 151  74 85 151  74 87 154  81 94 163  74 85 151
83 93 156  76 88 155  74 85 151  81 94 163  74 85 151  77 91 160
77 91 160  73 89 157  69 77 138  76 88 155  74 85 151  74 87 154
83 93 156  85 98 163  73 81 142  77 91 160  84 97 167  74 85 151
87 105 175  71 92 161  73 89 157  73 89 157  73 89 157  73 81 142
73 89 157  74 85 151  73 89 157  73 89 157  71 92 161  73 89 157
71 92 161  71 92 161  71 96 166  73 89 157  71 96 166  79 103 173
74 87 154  71 96 166  75 94 162  71 92 161  79 98 168  73 89 157
74 85 151  71 92 161  71 96 166  71 96 166  71 96 166  71 92 161
70 100 171  71 96 166  71 96 166  74 103 175  74 103 175  67 102 173
74 112 184  119 147 214  74 109 181  65 105 177  67 107 179  71 96 166
74 107 178  93 124 195  67 102 173  67 102 173  68 110 182  67 107 179
67 102 173  65 105 177  67 107 179  67 102 173  67 102 173  65 105 177
68 110 182  65 105 177  67 102 173  65 105 177  65 105 177  65 105 177
65 105 177  67 102 173  68 110 182  67 102 173  65 105 177  67 107 179
68 110 182  65 105 177  71 114 186  67 107 179  65 105 177  71 114 186
65 105 177  65 105 177  74 112 184  84 121 193  125 154 219  71 114 186
68 110 182  74 107 178  78 119 191  68 110 182  77 125 197  78 119 191
74 112 184  65 105 177  78 119 191  72 118 190  72 118 190  72 118 190
78 119 191  77 125 197  73 124 196  72 118 190  73 124 196  72 118 190
77 125 197  73 124 196  71 114 186  77 125 197  77 125 197  73 124 196
72 118 190  72 118 190  73 124 196  73 124 196  72 118 190  68 110 182
73 124 196  68 110 182  71 96 166  3 3 3  0 0 0  0 0 0
0 0 0  0 0 0  0 0 0  0 0 0  0 0 0  0 0 0
0 0 0  0 0 0  0 0 0  0 0 0  0 0 0  0 0 0
0 0 0  0 0 0  0 0 0  0 0 0  0 0 0  0 0 0
0 0 0  0 0 0  0 0 0  0 0 0  0 0 0  0 0 0
0 0 0  0 0 0  0 0 0  0 0 0  0 0 0  0 0 0
0 0 0  0 0 0  0 0 0  0 0 0  0 0 0  0 0 0
0 0 0  0 0 0  0 0 0  0 0 0  0 0 0  0 0 0
0 0 0  0 0 0  0 0 0  0 0 0  0 0 0  0 0 0
1 1 1  60 62 119  73 81 142  74 85 151  83 93 156  77 91 160
69 77 138  74 85 151  85 98 163  74 85 151  83 93 156  74 85 151
69 77 138  87 100 170  74 85 151  74 85 151  73 81 142  87 100 170
74 87 154  74 87 154  77 91 160  102 118 186  92 100 166  87 100 170
85 98 163  74 85 151  74 87 154  77 91 160  92 103 172  76 88 155
74 87 154  77 91 160  74 87 154  87 100 170  85 98 163  81 94 163
73 89 157  73 89 157  81 94 163  71 92 161  71 92 161  71 92 161
73 89 157  79 98 168  71 96 166  71 92 161  75 94 162  79 98 168
75 94 162  71 92 161  71 92 161  71 92 161  71 92 161  71 96 166
71 92 161  71 96 166  71 92 161  71 92 161  71 92 161  70 100 171
71 92 161  71 96 166  74 103 175  70 100 171  71 92 161  67 102 173
67 102 173  89 118 189  74 107 178  67 102 173  67 102 173  65 105 177
67 107 179  74 109 181  67 102 173  68 110 182  78 119 191  68 110 182
67 102 173  65 105 177  67 102 173  65 105 177  67 102 173  65 105 177
67 102 173  71 114 186  68 110 182  68 110 182  65 105 177  65 105 177
65 105 177  65 105 177  97 135 206  67 102 173  67 102 173  80 126 197
68 110 182  67 107 179  71 114 186  80 126 197  68 110 182  68 110 182
68 110 182  68 110 182  67 107 179  74 112 184  90 128 199  72 118 190
78 113 185  119 147 214  86 110 181  67 102 173  74 121 193  72 118 190
74 109 181  68 110 182  65 105 177  72 118 190  84 121 193  78 119 191
74 121 193  97 135 206  73 124 196  72 118 190  71 114 186  74 121 193
77 125 197  74 121 193  91 132 204  73 124 196  77 125 197  71 114 186
72 118 190  97 135 206  77 125 197  72 118 190  73 124 196  72 118 190
72 118 190  74 121 193  68 110 182  66 74 136  1 1 1  0 0 0
0 0 0  0 0 0  0 0 0  0 0 0  0 0 0  0 0 0
0 0 0  0 0 0  0 0 0  0 0 0  0 0 0  0 0 0
0 0 0  0 0 0  0 0 0  0 0 0  0 0 0  0 0 0
0 0 0  0 0 0  0 0 0  0 0 0  0 0 0  0 0 0
0 0 0  0 0 0  0 0 0  0 0 0  0 0 0  0 0 0
0 0 0  0 0 0  0 0 0  0 0 0  0 0 0  0 0 0
0 0 0  0 0 0  0 0 0  0 0 0  0 0 0  0 0 0
0 0 0  0 0 0  0 0 0  0 0 0  0 0 0  0 0 0
44 47 99  81 94 163  69 77 138  73 81 142  85 98 163  85 98 163
73 81 142  74 85 151  74 87 154  74 85 151  69 77 138  74 87 154
74 85 151  85 98 163  76 88 155  83 93 156  84 97 167  76 88 155
74 85 151  75 94 162  77 91 160  96 104 172  112 124 189  83 93 156
74 87 154  81 94 163  71 92 161  74 85 151  84 101 172  84 97 167
74 85 151  84 97 167  77 91 160  85 98 163  81 94 163  73 89 157
74 87 154  77 91 160  73 89 157  79 98 168  84 101 172  75 94 162
79 98 168  75 94 162  71 96 166  71 92 161  71 92 161  71 92 161
71 92 161  71 96 166  71 92 161  71 92 161  71 92 161  71 92 161
71 92 161  79 103 173  71 96 166  74 103 175  74 103 175  70 100 171
70 100 171  71 92 161  74 103 175  70 100 171  101 131 202  74 103 175
71 96 166  67 102 173  67 102 173  74 107 178  74 109 181  65 105 177
67 102 173  67 107 179  74 109 181  68 110 182  68 110 182  67 107 179
65 105 177  65 105 177  65 105 177  65 105 177  65 105 177  68 110 182
67 102 173  67 107 179  65 105 177  67 102 173  65 105 177  68 110 182
65 105 177  65 105 177  67 102 173  67 107 179  65 105 177  68 110 182
67 107 179  71 114 186  65 105 177  67 102 173  71 114 186  72 118 190
65 105 177  84 121 193  78 113 185  86 130 201  74 112 184  72 118 190
84 115 186  112 124 189  125 133 195  78 113 185  73 124 196  71 114 186
86 124 195  73 124 196  78 119 191  68 110 182  82 127 199  82 127 199
71 114 186  86 124 195  74 112 184  73 124 196  74 121 193  73 124 196
74 121 193  72 118 190  91 132 204  72 118 190  77 125 197  73 124 196
73 124 196  73 124 196  72 118 190  73 124 196  73 124 196  77 125 197
77 125 197  72 118 190  72 118 190  73 124 196  47 49 101  0 0 0
0 0 0  0 0 0  0 0 0  0 0 0  0 0 0  0 0 0
0 0 0  0 0 0  0 0 0  0 0 0  0 0 0  0 0 0
0 0 0  0 0 0  0 0 0  0 0 0  0 0 0  0 0 0
0 0 0  0 0 0  0 0 0  0 0 0  0 0 0  0 0 0
0 0 0  0 0 0  0 0 0  0 0 0  0 0 0  0 0 0
0 0 0  0 0 0  0 0 0  0 0 0  0 0 0  0 0 0
0 0 0  0 0 0  0 0 0  0 0 0  0 0 0  0 0 0
0 0 0  0 0 0  0 0 0  0 0 0  0 0 0  20 21 46
73 81 142  76 88 155  73 81 142  73 81 142  74 87 154  74 85 151
74 85 151  82 91 153  81 88 149  74 85 151  73 81 142  74 85 151
73 81 142  74 85 151  90 96 161  97 109 177  74 85 151  74 87 154
81 94 163  90 108 178  77 91 160  74 85 151  83 93 156  97 109 177
73 81 142  87 100 170  77 91 160  74 85 151  77 91 160  74 85 151
74 87 154  77 91 160  74 87 154  73 89 157  74 87 154  74 85 151
77 91 160  74 85 151  87 100 170  74 87 154  75 94 162  71 92 161
71 92 161  79 98 168  71 92 161  79 103 173  71 92 161  71 96 166
71 96 166  81 107 178  71 92 161  71 96 166  71 96 166  79 98 168
71 96 166  70 100 171  71 92 161  71 96 166  71 96 166  71 96 166
74 107 178  70 100 171  67 102 173  67 102 173  67 107 179  67 102 173
67 102 173  78 119 191  74 103 175  67 102 173  84 115 186  67 102 173
74 112 184  78 119 191  68 110 182  74 112 184  67 102 173  68 110 182
65 105 177  68 110 182  68 110 182  65 105 177  67 102 173  67 102 173
74 109 181  67 107 179  65 105 177  72 118 190  65 105 177  68 110 182
65 105 177  65 105 177  71 114 186  65 105 177  67 107 179  65 105 177
65 105 177  67 107 179  68 110 182  71 114 186  67 107 179  71 114 186
65 105 177  68 110 182  72 118 190  67 107 179  74 112 184  86 124 195
86 124 195  78 119 191  90 128 199  67 107 179  78 119 191  78 119 191
78 119 191  74 121 193  72 118 190  78 119 191  78 119 191  72 118 190
77 125 197  72 118 190  77 125 197  68 110 182  86 130 201  86 130 201
72 118 190  105 139 211  74 121 193  72 118 190  82 127 199  77 125 197
73 124 196  82 127 199  72 118 190  72 118 190  73 124 196  71 114 186
73 124 196  73 124 196  73 124 196  77 125 197  74 121 193  20 22 57
0 0 0  0 0 0  0 0 0  0 0 0  0 0 0  0 0 0
0 0 0  0 0 0  0 0 0  0 0 0  0 0 0  0 0 0
0 0 0  0 0 0  0 0 0  0 0 0  0 0 0  0 0 0
0 0 0  0 0 0  0 0 0  0 0 0  0 0 0  0 0 0
0 0 0  0 0 0  0 0 0  0 0 0  0 0 0  0 0 0
0 0 0  0 0 0  0 0 0  0 0 0  0 0 0  0 0 0
0 0 0  0 0 0  0 0 0  0 0 0  0 0 0  0 0 0
0 0 0  0 0 0  0 0 0  0 0 0  8 8 2  74 85 151
73 81 142  66 74 136  73 81 142  74 85 151  74 85 151  66 74 136
74 85 151  73 81 142  69 77 138  83 93 156  73 81 142  74 85 151
88 94 157  69 77 138  74 85 151  69 77 138  76 88 155  81 94 163
81 94 163  69 77 138  73 81 142  84 97 167  93 106 175  129 151 212
73 81 142  74 85 151  73 89 157  77 91 160  77 91 160  77 91 160
77 91 160  74 85 151  84 97 167  79 98 168  81 94 163  73 89 157
75 94 162  73 89 157  79 98 168  73 89 157  74 85 151  87 105 175
79 98 168  73 89 157  71 92 161  73 89 157  73 89 157  71 92 161
71 96 166  71 92 161  71 96 166  71 92 161  71 92 161  81 107 178
71 92 161  79 103 173  71 96 166  70 100 171  70 100 171  71 96 166
67 102 173  74 103 175  71 96 166  74 103 175  74 107 178  65 105 177
67 102 173  67 102 173  67 102 173  67 102 173  68 110 182  65 105 177
67 107 179  67 102 173  67 102 173  67 102 173  65 105 177  67 107 179
65 105 177  65 105 177  65 105 177  68 110 182  68 110 182  65 105 177
67 102 173  71 114 186  65 105 177  65 105 177  67 107 179  67 107 179
65 105 177  65 105 177  65 105 177  67 102 173  65 105 177  65 105 177
68 110 182  78 119 191  68 110 182  65 105 177  71 114 186  71 114 186
74 121 193  68 110 182  72 118 190  78 119 191  78 113 185  84 121 193
86 124 195  68 110 182  68 110 182  74 112 184  71 114 186  72 118 190
72 118 190  71 114 186  68 110 182  78 119 191  74 121 193  71 114 186
71 114 186  72 118 190  74 121 193  73 124 196  72 118 190  77 125 197
74 121 193  91 132 204  71 114 186  77 125 197  73 124 196  72 118 190
82 127 199  72 118 190  72 118 190  73 124 196  72 118 190  86 130 201
73 124 196  72 118 190  73 124 196  72 118 190  77 125 197  72 118 190
4 5 35  0 0 0  0 0 0  0 0 0  0 0 0  0 0 0
0 0 0  0 0 0  0 0 0  0 0 0  0 0 0  0 0 0
0 0 0  0 0 0  0 0 0  0 0 0  0 0 0  0 0 0
0 0 0  0 0 0  0 0 0  0 0 0  0 0 0  0 0 0
0 0 0  0 0 0  0 0 0  0 0 0  0 0 0  0 0 0
0 0 0  0 0 0  0 0 0  0 0 0  0 0 0  0 0 0
0 0 0  0 0 0  0 0 0  0 0 0  0 0 0  0 0 0
0 0 0  0 0 0  0 0 0  0 0 0  44 47 99  74 85 151
73 81 142  74 87 154  74 85 151  69 77 138  76 88 155  74 85 151
74 85 151  73 81 142  82 91 153  78 86 147  74 85 151  83 93 156
77 83 144  83 93 156  74 85 151  74 85 151  93 106 175  85 98 163
73 89 157  98 113 182  87 100 170  84 97 167  87 100 170  73 81 142
77 91 160  77 91 160  73 81 142  74 87 154  74 87 154  77 91 160
77 91 160  76 88 155  74 87 154  73 89 157  74 87 154  74 85 151
73 89 157  71 92 161  71 92 161  79 103 173  73 89 157  73 89 157
75 94 162  73 89 157  79 103 173  79 98 168  71 92 161  71 92 161
79 98 168  79 98 168  71 96 166  84 101 172  71 96 166  71 96 166
71 92 161  70 100 171  71 96 166  71 92 161  70 100 171  74 107 178
71 92 161  67 102 173  71 92 161  74 103 175  74 109 181  65 105 177
74 109 181  78 119 191  67 102 173  67 102 173  68 110 182  65 105 177
67 107 179  67 102 173  86 124 195  67 107 179  68 110 182  67 102 173
74 112 184  78 119 191  72 118 190  65 105 177  68 110 182  67 102 173
65 105 177  65 105 177  65 105 177  67 107 179  71 114 186  65 105 177
68 110 182  65 105 177  65 105 177  78 119 191  68 110 182  65 105 177
65 105 177  68 110 182  68 110 182  67 107 179  112 143 215  71 114 186
71 114 186  84 121 193  78 119 191  78 119 191  78 113 185  93 124 195
89 118 189  90 128 199  78 113 185  71 114 186  84 121 193  78 119 191
68 110 182  78 119 191  78 119 191  78 119 191  71 114 186  74 121 193
80 126 197  86 130 201  74 121 193  77 125 197  72 118 190  73 124 196
73 124 196  72 118 190  80 126 197  77 125 197  73 124 196  72 118 190
72 118 190  77 125 197  72 118 190  77 125 197  71 114 186  72 118 190
73 124 196  72 118 190  77 125 197  68 110 182  72 118 190  82 127 199
60 62 119  0 0 0  0 0 0  0 0 0  0 0 0  0 0 0
0 0 0  0 0 0  0 0 0  0 0 0  0 0 0  0 0 0
0 0 0  0 0 0  0 0 0  0 0 0  0 0 0  0 0 0
0 0 0  0 0 0  0 0 0  0 0 0  0 0 0  0 0 0
0 0 0  0 0 0  0 0 0  0 0 0  0 0 0  0 0 0
0 0 0  0 0 0  0 0 0  0 0 0  0 0 0  0 0 0
0 0 0  0 0 0  0 0 0  0 0 0  0 0 0  0 0 0
0 0 0  0 0 0  0 0 0  20 21 46  73 89 157  73 81 142
73 81 142  74 85 151  69 77 138  73 81 142  76 88 155  74 85 151
74 85 151  73 81 142  77 83 144  74 85 151  74 85 151  77 83 144
82 91 153  74 85 151  73 81 142  112 124 189  81 94 163  74 85 151
93 106 175  98 113 182  85 98 163  69 77 138  81 94 163  76 88 155
77 91 160  81 94 163  81 94 163  81 94 163  74 85 151  74 85 151
73 89 157  77 91 160  74 85 151  74 87 154  74 87 154  73 89 157
74 87 154  97 109 177  74 85 151  73 89 157  84 101 172  71 92 161
73 89 157  71 92 161  71 92 161  71 92 161  70 100 171  71 96 166
70 100 171  74 85 151  114 140 208  91 111 182  71 92 161  71 92 161
67 102 173  74 109 181  70 100 171  74 103 175  70 100 171  81 107 178
71 96 166  81 107 178  74 103 175  70 100 171  67 102 173  71 96 166
74 109 181  67 107 179  78 113 185  67 102 173  67 107 179  67 102 173
65 105 177  68 110 182  67 102 173  65 105 177  65 105 177  65 105 177
65 105 177  65 105 177  68 110 182  68 110 182  71 114 186  67 107 179
68 110 182  65 105 177  68 110 182  67 102 173  65 105 177  67 102 173
65 105 177  68 110 182  65 105 177  67 107 179  84 121 193  67 102 173
68 110 182  68 110 182  68 110 182  65 105 177  68 110 182  71 114 186
71 114 186  72 118 190  68 110 182  84 121 193  78 119 191  96 127 198
93 124 195  78 119 191  84 121 193  78 119 191  78 119 191  72 118 190
78 119 191  91 132 204  78 119 191  68 110 182  77 125 197  68 110 182
77 125 197  82 127 199  71 114 186  77 125 197  73 124 196  73 124 196
73 124 196  105 139 211  135 161 220  72 118 190  73 124 196  73 124 196
82 127 199  72 118 190  73 124 196  73 124 196  82 127 199  91 132 204
68 110 182  77 125 197  77 125 197  77 125 197  72 118 190  72 118 190
74 121 193  20 21 46  0 0 0  0 0 0  0 0 0  0 0 0
0 0 0  0 0 0  0 0 0  0 0 0  0 0 0  0 0 0
0 0 0  0 0 0  0 0 0  0 0 0  0 0 0  0 0 0
0 0 0  0 0 0  0 0 0  0 0 0  0 0 0  0 0 0
0 0 0  0 0 0  0 0 0  0 0 0  0 0 0  0 0 0
0 0 0  0 0 0  0 0 0  0 0 0  0 0 0  0 0 0
0 0 0  0 0 0  0 0 0  0 0 0  0 0 0  0 0 0
0 0 0  0 0 0  0 0 0  60 62 119  74 85 151  76 88 155
74 85 151  73 81 142  77 91 160  77 83 144  74 85 151  76 88 155
78 86 147  81 88 149  90 96 161  82 91 153  81 88 149  81 88 149
88 94 157  81 88 149  97 109 177  92 103 172  74 87 154  93 106 175
74 85 151  69 77 138  74 85 151  87 100 170  77 91 160  74 85 151
77 91 160  74 85 151  81 94 163  74 85 151  85 98 163  77 91 160
77 91 160  74 87 154  76 88 155  74 87 154  77 91 160  73 89 157
82 91 153  85 98 163  83 93 156  74 87 154  84 101 172  75 94 162
75 94 162  79 98 168  71 92 161  71 96 166  73 89 157  71 92 161
71 96 166  71 92 161  71 96 166  73 89 157  70 100 171  70 100 171
67 102 173  67 107 179  74 103 175  93 124 195  74 103 175  112 136 203
96 127 198  71 96 166  67 107 179  67 102 173  74 109 181  74 107 178
90 128 199  78 113 185  67 102 173  70 100 171  97 135 206  74 112 184
67 102 173  65 105 177  65 105 177  67 107 179  67 102 173  67 107 179
71 114 186  68 110 182  65 105 177  67 102 173  67 107 179  67 102 173
67 102 173  67 107 179  71 114 186  65 105 177  68 110 182  68 110 182
71 114 186  74 112 184  65 105 177  71 114 186  67 107 179  86 124 195
78 119 191  68 110 182  71 114 186  74 112 184  78 119 191  71 114 186
84 121 193  72 118 190  86 124 195  84 121 193  74 109 181  91 121 192
90 128 199  78 119 191  78 119 191  86 124 195  78 119 191  72 118 190
78 119 191  80 126 197  71 114 186  84 121 193  80 126 197  91 132 204
80 126 197  65 105 177  82 127 199  80 126 197  77 125 197  82 127 199
73 124 196  73 124 196  82 127 199  73 124 196  73 124 196  73 124 196
73 124 196  73 124 196  72 118 190  77 125 197  91 132 204  105 139 211
65 105 177  73 124 196  73 124 196  72 118 190  73 124 196  72 118 190
73 124 196  69 77 138  0 0 0  0 0 0  0 0 0  0 0 0
0 0 0  0 0 0  0 0 0  0 0 0  0 0 0  0 0 0
0 0 0  0 0 0  0 0 0  0 0 0  0 0 0  0 0 0
0 0 0  0 0 0  0 0 0  0 0 0  0 0 0  0 0 0
0 0 0  0 0 0  0 0 0  0 0 0  0 0 0  0 0 0
0 0 0  0 0 0  0 0 0  0 0 0  0 0 0  0 0 0
0 0 0  0 0 0  0 0 0  0 0 0  0 0 0  0 0 0
0 0 0  0 0 0  20 21 46  66 74 136  74 85 151  69 77 138
74 85 151  73 81 142  74 85 151  82 91 153  74 85 151  73 81 142
82 91 153  77 83 144  87 89 150  81 88 149  73 81 142  112 124 189
88 94 157  73 81 142  74 85 151  81 94 163  81 94 163  76 88 155
87 105 175  87 100 170  87 100 170  85 98 163  74 85 151  77 91 160
74 87 154  74 85 151  74 87 154  69 77 138  81 94 163  73 81 142
74 87 154  76 88 155  81 94 163  74 85 151  81 94 163  74 85 151
77 91 160  75 94 162  84 101 172  79 98 168  73 89 157  71 92 161
79 98 168  71 96 166  71 92 161  79 98 168  81 107 178  71 92 161
74 103 175  71 96 166  70 100 171  89 118 189  70 100 171  74 107 178
71 96 166  71 92 161  71 92 161  70 100 171  70 100 171  74 103 175
71 92 161  67 102 173  67 102 173  68 110 182  67 102 173  67 102 173
74 103 175  78 113 185  67 102 173  74 109 181  74 109 181  67 107 179
65 105 177  65 105 177  78 119 191  74 112 184  65 105 177  68 110 182
68 110 182  65 105 177  68 110 182  72 118 190  71 114 186  67 107 179
90 128 199  67 102 173  74 112 184  67 107 179  65 105 177  67 107 179
78 113 185  74 112 184  84 121 193  68 110 182  68 110 182  68 110 182
71 114 186  71 114 186  72 118 190  74 112 184  71 114 186  68 110 182
78 119 191  78 119 191  78 119 191  86 124 195  91 121 192  84 115 186
105 139 211  84 121 193  78 119 191  84 121 193  78 119 191  78 119 191
77 125 197  72 118 190  71 114 186  80 126 197  72 118 190  78 119 191
72 118 190  97 135 206  82 127 199  73 124 196  86 130 201  73 124 196
91 132 204  77 125 197  72 118 190  105 139 211  73 124 196  73 124 196
82 127 199  73 124 196  73 124 196  72 118 190  72 118 190  82 127 199
73 124 196  72 118 190  82 127 199  74 121 193  73 124 196  82 127 199
72 118 190  71 114 186  20 21 46  0 0 0  0 0 0  0 0 0
0 0 0  0 0 0  0 0 0  0 0 0  0 0 0  0 0 0
0 0 0  0 0 0  0 0 0  0 0 0  0 0 0  0 0 0
0 0 0  0 0 0  0 0 0  0 0 0  0 0 0  0 0 0
0 0 0  0 0 0  0 0 0  0 0 0  0 0 0  0 0 0
0 0 0  0 0 0  0 0 0  0 0 0  0 0 0  0 0 0
0 0 0  0 0 0  0 0 0  0 0 0  0 0 0  0 0 0
0 0 0  0 0 0  60 62 119  69 77 138  73 81 142  74 85 151
74 87 154  74 87 154  74 85 151  74 85 151  77 83 144  77 83 144
83 93 156  81 88 149  73 81 142  88 94 157  88 94 157  88 94 157
81 88 149  85 98 163  76 88 155  85 98 163  85 98 163  77 91 160
93 110 180  77 91 160  76 88 155  74 87 154  74 87 154  74 87 154
74 87 154  74 85 151  76 88 155  74 87 154  74 85 151  74 85 151
73 89 157  77 91 160  74 87 154  73 89 157  75 94 162  76 88 155
71 92 161  79 103 173  79 98 168  75 94 162  71 92 161  75 94 162
75 94 162  71 96 166  71 92 161  98 121 191  86 110 181  71 96 166
71 96 166  71 96 166  74 107 178  74 107 178  71 96 166  67 102 173
71 96 166  71 96 166  119 147 214  84 115 186  71 96 166  96 127 198
67 102 173  67 107 179  67 107 179  68 110 182  67 102 173  67 107 179
74 107 178  71 114 186  67 107 179  67 107 179  67 102 173  65 105 177
74 109 181  67 102 173  67 102 173  67 102 173  74 112 184  78 119 191
74 112 184  65 105 177  65 105 177  74 112 184  67 107 179  74 112 184
74 112 184  65 105 177  65 105 177  68 110 182  74 112 184  84 121 193
67 102 173  67 102 173  86 124 195  78 119 191  74 109 181  74 112 184
68 110 182  68 110 182  71 114 186  84 121 193  71 114 186  78 119 191
84 115 186  78 119 191  84 121 193  86 124 195  84 115 186  114 140 208
112 143 215  78 119 191  78 119 191  86 124 195  90 128 199  80 126 197
72 118 190  71 114 186  82 127 199  77 125 197  80 126 197  82 127 199
80 126 197  97 135 206  74 121 193  72 118 190  91 132 204  71 114 186
91 132 204  86 130 201  73 124 196  86 130 201  73 124 196  72 118 190
86 130 201  73 124 196  73 124 196  91 132 204  77 125 197  74 121 193
73 124 196  73 124 196  72 118 190  77 125 197  82 127 199  82 127 199
74 121 193  73 124 196  71 92 161  0 0 0  0 0 0  0 0 0
0 0 0  0 0 0  0 0 0  0 0 0  0 0 0  0 0 0
0 0 0  0 0 0  0 0 0  0 0 0  0 0 0  0 0 0
0 0 0  0 0 0  0 0 0  0 0 0  0 0 0  0 0 0
0 0 0  0 0 0  0 0 0  0 0 0  0 0 0  0 0 0
0 0 0  0 0 0  0 0 0  0 0 0  0 0 0  0 0 0
0 0 0  0 0 0  0 0 0  0 0 0  0 0 0  0 0 0
0 0 0  8 8 2  73 81 142  74 87 154  74 85 151  69 77 138
66 74 136  73 81 142  74 85 151  77 91 160  77 83 144  81 88 149
73 81 142  87 89 150  77 83 144  87 89 150  112 103 172  77 83 144
85 98 163  85 98 163  82 91 153  78 86 147  100 115 184  85 98 163
74 85 151  83 93 156  87 100 170  74 85 151  77 91 160  77 91 160
75 94 162  77 91 160  76 88 155  73 89 157  74 85 151  74 87 154
77 91 160  74 87 154  74 85 151  81 94 163  74 85 151  92 103 172
81 88 149  69 77 138  69 77 138  74 85 151  71 92 161  71 92 161
75 94 162  71 96 166  71 92 161  71 92 161  71 96 166  71 96 166
71 96 166  67 102 173  67 102 173  70 100 171  67 102 173  70 100 171
74 103 175  71 96 166  74 107 178  67 102 173  71 96 166  67 102 173
65 105 177  67 107 179  68 110 182  67 107 179  68 110 182  74 112 184
67 107 179  65 105 177  67 107 179  74 112 184  65 105 177  71 114 186
86 124 195  65 105 177  74 112 184  65 105 177  68 110 182  74 109 181
67 107 179  68 110 182  68 110 182  71 114 186  68 110 182  67 107 179
65 105 177  78 119 191  74 109 181  78 113 185  67 102 173  68 110 182
90 128 199  65 105 177  74 109 181  78 113 185  74 109 181  84 121 193
71 114 186  78 113 185  68 110 182  78 113 185  74 112 184  84 121 193
78 113 185  84 115 186  86 124 195  84 121 193  91 121 192  105 128 199
112 136 203  84 115 186  91 132 204  86 124 195  78 119 191  78 119 191
74 121 193  86 124 195  78 119 191  77 125 197  72 118 190  86 130 201
97 135 206  74 121 193  82 127 199  82 127 199  72 118 190  82 127 199
86 130 201  71 114 186  77 125 197  73 124 196  82 127 199  112 143 215
97 135 206  67 107 179  97 135 206  97 135 206  72 118 190  73 124 196
77 125 197  77 125 197  82 127 199  77 125 197  74 121 193  72 118 190
82 127 199  77 125 197  73 124 196  8 8 2  0 0 0  0 0 0
0 0 0  0 0 0  0 0 0  0 0 0  0 0 0  0 0 0
0 0 0  0 0 0  0 0 0  0 0 0  0 0 0  0 0 0
0 0 0  0 0 0  0 0 0  0 0 0  0 0 0  0 0 0
0 0 0  0 0 0  0 0 0  0 0 0  0 0 0  0 0 0
0 0 0  0 0 0  0 0 0  0 0 0  0 0 0  0 0 0
0 0 0  0 0 0  0 0 0  0 0 0  0 0 0  0 0 0
0 0 0  44 47 99  66 74 136  74 85 151  73 81 142  76 88 155
73 81 142  69 77 138  74 85 151  73 81 142  74 85 151  81 94 163
82 84 141  69 68 124  87 79 137  69 77 138  77 91 160  74 87 154
74 85 151  74 85 151  76 88 155  74 85 151  92 103 172  73 81 142
76 88 155  93 106 175  74 87 154  74 87 154  77 91 160  74 85 151
74 87 154  73 89 157  74 87 154  73 81 142  77 91 160  77 91 160
74 85 151  76 88 155  85 98 163  76 88 155  85 98 163  67 107 179
75 76 131  227 227 230  158 135 187  64 72 132  74 107 178  79 103 173
74 87 154  71 92 161  71 96 166  71 96 166  71 96 166  71 96 166
84 115 186  67 102 173  70 100 171  67 102 173  67 102 173  67 102 173
67 102 173  74 107 178  71 96 166  74 107 178  74 107 178  74 112 184
78 113 185  65 105 177  65 105 177  71 114 186  65 105 177  67 102 173
71 114 186  78 113 185  67 107 179  67 102 173  78 113 185  65 105 177
74 109 181  65 105 177  71 114 186  71 114 186  68 110 182  74 109 181
67 102 173  78 113 185  71 114 186  67 107 179  65 105 177  74 112 184
67 102 173  78 113 185  67 107 179  86 124 195  78 113 185  78 113 185
74 109 181  67 107 179  65 105 177  89 118 189  84 115 186  74 112 184
71 114 186  78 119 191  72 118 190  84 121 193  84 121 193  78 113 185
89 118 189  84 115 186  90 128 199  84 121 193  91 121 192  109 131 201
114 140 208  93 124 195  105 139 211  78 119 191  84 121 193  84 121 193
78 119 191  82 127 199  68 110 182  112 143 215  105 139 211  72 118 190
82 127 199  74 121 193  72 118 190  82 127 199  80 126 197  82 127 199
73 124 196  73 124 196  97 135 206  82 127 199  77 125 197  86 130 201
97 135 206  86 130 201  125 154 219  72 118 190  73 124 196  82 127 199
86 130 201  73 124 196  77 125 197  72 118 190  72 118 190  74 121 193
73 124 196  73 124 196  72 118 190  16 52 97  0 0 0  0 0 0
0 0 0  0 0 0  0 0 0  0 0 0  0 0 0  0 0 0
0 0 0  0 0 0  0 0 0  0 0 0  0 0 0  0 0 0
0 0 0  0 0 0  0 0 0  0 0 0  0 0 0  0 0 0
0 0 0  0 0 0  0 0 0  0 0 0  0 0 0  0 0 0
0 0 0  0 0 0  0 0 0  0 0 0  0 0 0  0 0 0
0 0 0  0 0 0  0 0 0  0 0 0  0 0 0  0 0 0
0 0 0  60 62 119  74 85 151  73 81 142  73 81 142  73 81 142
74 85 151  74 87 154  74 85 151  66 74 136  84 97 167  74 85 151
87 79 137  165 158 197  158 135 187  75 76 131  74 85 151  74 87 154
76 88 155  74 85 151  84 97 167  73 81 142  73 81 142  77 91 160
74 85 151  74 85 151  84 97 167  74 85 151  77 91 160  76 88 155
76 88 155  81 94 163  73 81 142  73 89 157  76 88 155  76 88 155
85 98 163  73 81 142  97 109 177  74 85 151  81 94 163  74 103 175
79 79 133  158 135 187  158 135 187  74 85 151  71 92 161  79 103 173
73 89 157  71 92 161  70 100 171  71 92 161  71 96 166  71 92 161
70 100 171  67 102 173  70 100 171  70 100 171  74 103 175  67 102 173
65 105 177  74 109 181  67 102 173  74 109 181  74 107 178  67 102 173
78 113 185  74 112 184  68 110 182  68 110 182  65 105 177  74 109 181
71 114 186  74 112 184  67 102 173  78 113 185  78 119 191  65 105 177
68 110 182  65 105 177  67 102 173  67 107 179  74 112 184  68 110 182
67 107 179  80 126 197  68 110 182  68 110 182  67 107 179  74 112 184
74 109 181  65 105 177  74 112 184  74 107 178  74 109 181  74 107 178
84 121 193  86 124 195  67 107 179  78 113 185  78 113 185  78 113 185
74 112 184  68 110 182  74 112 184  84 121 193  84 121 193  93 124 195
101 131 202  78 113 185  96 127 198  97 135 206  89 118 189  105 128 199
119 147 214  96 127 198  86 124 195  84 121 193  86 124 195  91 132 204
82 127 199  77 125 197  91 132 204  97 135 206  71 114 186  86 130 201
86 130 201  73 124 196  86 130 201  74 121 193  91 132 204  86 130 201
73 124 196  82 127 199  77 125 197  82 127 199  86 130 201  82 127 199
86 130 201  77 125 197  86 130 201  91 132 204  72 118 190  82 127 199
78 119 191  86 130 201  77 125 197  73 124 196  77 125 197  73 124 196
73 124 196  73 124 196  77 125 197  71 92 161  0 0 0  0 0 0
0 0 0  0 0 0  0 0 0  0 0 0  0 0 0  0 0 0
0 0 0  0 0 0  0 0 0  0 0 0  0 0 0  0 0 0
0 0 0  0 0 0  0 0 0  0 0 0  0 0 0  0 0 0
0 0 0  0 0 0  0 0 0  0 0 0  0 0 0  0 0 0
0 0 0  0 0 0  0 0 0  0 0 0  0 0 0  0 0 0
0 0 0  0 0 0  0 0 0  0 0 0  0 0 0  0 0 0
3 3 3  63 67 125  84 97 167  76 88 155  69 77 138  69 77 138
74 85 151  69 77 138  74 85 151  112 124 189  76 88 155  76 88 155
93 89 151  115 94 159  124 103 171  78 86 147  74 85 151  83 93 156
74 85 151  74 85 151  73 81 142  74 87 154  77 91 160  73 81 142
74 87 154  74 87 154  76 88 155  77 91 160  81 94 163  77 91 160
73 89 157  77 91 160  74 87 154  74 87 154  77 91 160  74 85 151
76 88 155  77 91 160  73 81 142  74 87 154  73 89 157  71 96 166
82 91 153  69 77 138  69 77 138  73 89 157  71 96 166  71 92 161
73 89 157  74 85 151  71 92 161  71 96 166  71 96 166  74 103 175
70 100 171  71 96 166  81 107 178  67 102 173  67 102 173  67 107 179
67 102 173  67 102 173  74 109 181  67 102 173  71 114 186  78 113 185
65 105 177  65 105 177  65 105 177  71 114 186  68 110 182  78 113 185
65 105 177  78 113 185  74 112 184  78 119 191  68 110 182  68 110 182
68 110 182  74 109 181  74 109 181  74 112 184  71 114 186  65 105 177
74 109 181  68 110 182  67 107 179  65 105 177  74 109 181  78 113 185
74 107 178  74 112 184  67 107 179  84 115 186  74 103 175  74 109 181
74 107 178  74 109 181  74 112 184  74 112 184  78 113 185  91 132 204
78 113 185  78 119 191  90 128 199  96 127 198  84 115 186  84 121 193
112 143 215  96 127 198  89 118 189  101 131 202  88 113 184  114 140 208
119 147 214  101 131 202  96 127 198  86 124 195  105 139 211  86 124 195
80 126 197  86 130 201  86 124 195  84 121 193  86 130 201  72 118 190
86 130 201  77 125 197  82 127 199  73 124 196  73 124 196  86 130 201
77 125 197  77 125 197  72 118 190  82 127 199  86 130 201  77 125 197
82 127 199  91 132 204  82 127 199  105 139 211  82 127 199  77 125 197
86 130 201  73 124 196  72 118 190  77 125 197  73 124 196  86 130 201
77 125 197  73 124 196  82 127 199  72 118 190  3 3 3  0 0 0
0 0 0  0 0 0  0 0 0  0 0 0  0 0 0  0 0 0
0 0 0  0 0 0  0 0 0  0 0 0  0 0 0  0 0 0
0 0 0  0 0 0  0 0 0  0 0 0  0 0 0  0 0 0
0 0 0  0 0 0  0 0 0  0 0 0  0 0 0  0 0 0
0 0 0  0 0 0  0 0 0  0 0 0  0 0 0  0 0 0
0 0 0  0 0 0  0 0 0  0 0 0  0 0 0  0 0 0
20 21 46  66 74 136  91 100 170  76 88 155  76 88 155  83 93 156
74 85 151  83 93 156  69 77 138  78 86 147  69 77 138  78 86 147
90 96 161  75 76 131  75 80 135  73 81 142  74 85 151  74 87 154
69 77 138  74 85 151  74 85 151  74 87 154  74 85 151  73 81 142
83 93 156  81 94 163  77 91 160  76 88 155  73 81 142  74 87 154
76 88 155  74 87 154  74 85 151  74 85 151  77 91 160  73 89 157
74 87 154  75 94 162  81 94 163  81 94 163  74 87 154  84 97 167
71 92 161  70 100 171  71 96 166  71 92 161  75 94 162  71 92 161
71 92 161  71 92 161  84 115 186  70 100 171  71 96 166  70 100 171
74 103 175  74 107 178  67 102 173  74 107 178  74 109 181  67 102 173
74 103 175  67 102 173  67 102 173  74 107 178  74 112 184  68 110 182
71 114 186  68 110 182  65 105 177  74 112 184  67 107 179  68 110 182
67 102 173  78 113 185  67 102 173  65 105 177  68 110 182  68 110 182
74 109 181  78 113 185  84 121 193  65 105 177  78 113 185  65 105 177
84 121 193  78 113 185  65 105 177  74 109 181  84 121 193  74 107 178
84 115 186  74 112 184  67 102 173  86 124 195  84 121 193  74 109 181
74 112 184  81 107 178  78 113 185  78 113 185  74 112 184  84 121 193
78 119 191  86 124 195  78 119 191  84 121 193  86 124 195  86 124 195
89 118 189  98 121 191  93 124 195  105 139 211  98 121 191  125 133 195
119 147 214  105 128 199  105 139 211  96 127 198  96 127 198  90 128 199
80 126 197  82 127 199  82 127 199  91 132 204  105 139 211  82 127 199
74 121 193  82 127 199  97 135 206  77 125 197  74 121 193  72 118 190
77 125 197  105 139 211  77 125 197  91 132 204  86 130 201  86 130 201
86 130 201  82 127 199  73 124 196  73 124 196  86 130 201  74 121 193
77 125 197  71 114 186  91 132 204  91 132 204  72 118 190  105 139 211
74 121 193  82 127 199  82 127 199  86 130 201  20 22 57  0 0 0
0 0 0  0 0 0  0 0 0  0 0 0  0 0 0  0 0 0
0 0 0  0 0 0  0 0 0  0 0 0  0 0 0  0 0 0
0 0 0  0 0 0  0 0 0  0 0 0  0 0 0  0 0 0
0 0 0  0 0 0  0 0 0  0 0 0  0 0 0  0 0 0
0 0 0  0 0 0  0 0 0  0 0 0  0 0 0  0 0 0
0 0 0  0 0 0  0 0 0  0 0 0  0 0 0  0 0 0
50 25 62  90 96 161  66 74 136  69 77 138  69 77 138  74 87 154
74 85 151  69 77 138  74 85 151  96 104 172  66 74 136  95 99 164
112 124 189  77 83 144  74 85 151  81 88 149  74 87 154  74 85 151
74 85 151  76 88 155  76 88 155  74 85 151  74 87 154  83 93 156
88 94 157  74 85 151  85 98 163  74 85 151  74 85 151  77 91 160
76 88 155  74 85 151  93 106 175  81 94 163  74 85 151  77 91 160
74 87 154  73 89 157  73 89 157  73 89 157  74 87 154  74 87 154
71 92 161  71 92 161  71 96 166  79 98 168  75 94 162  79 98 168
71 92 161  71 92 161  74 103 175  70 100 171  71 92 161  70 100 171
67 102 173  70 100 171  74 103 175  65 105 177  67 102 173  67 102 173
67 107 179  65 105 177  67 102 173  84 121 193  67 107 179  67 102 173
67 102 173  84 121 193  78 119 191  65 105 177  68 110 182  74 109 181
78 113 185  78 113 185  68 110 182  78 119 191  74 109 181  74 112 184
74 112 184  67 107 179  67 107 179  78 119 191  74 112 184  68 110 182
74 112 184  78 119 191  65 105 177  90 128 199  96 127 198  86 124 195
86 124 195  74 112 184  74 109 181  74 109 181  84 115 186  74 109 181
93 124 195  91 121 192  74 109 181  78 113 185  84 121 193  84 121 193
78 119 191  78 119 191  78 119 191  96 127 198  90 128 199  96 127 198
91 121 192  93 124 195  105 139 211  101 131 202  102 124 194  129 151 212
129 151 212  105 128 199  97 135 206  105 139 211  96 127 198  90 128 199
91 132 204  82 127 199  91 132 204  91 132 204  74 121 193  82 127 199
97 135 206  86 130 201  72 118 190  80 126 197  86 130 201  91 132 204
82 127 199  82 127 199  71 114 186  77 125 197  82 127 199  74 121 193
86 130 201  77 125 197  73 124 196  72 118 190  77 125 197  77 125 197
82 127 199  77 125 197  77 125 197  86 130 201  74 121 193  97 135 206
86 130 201  86 130 201  73 124 196  105 139 211  44 47 99  0 0 0
0 0 0  0 0 0  0 0 0  0 0 0  0 0 0  0 0 0
0 0 0  0 0 0  0 0 0  0 0 0  0 0 0  0 0 0
0 0 0  0 0 0  0 0 0  0 0 0  0 0 0  0 0 0
0 0 0  0 0 0  0 0 0  0 0 0  0 0 0  0 0 0
0 0 0  0 0 0  0 0 0  0 0 0  0 0 0  0 0 0
0 0 0  0 0 0  0 0 0  0 0 0  0 0 0  0 0 0
44 47 99  78 86 147  90 96 161  73 81 142  76 88 155  74 85 151
76 88 155  74 85 151  74 85 151  77 91 160  73 81 142  73 81 142
78 86 147  77 83 144  69 77 138  74 85 151  73 81 142  74 85 151
74 85 151  73 81 142  74 85 151  74 85 151  73 81 142  74 85 151
74 85 151  66 74 136  85 98 163  77 91 160  87 100 170  74 87 154
77 91 160  74 85 151  81 94 163  77 91 160  73 81 142  81 94 163
73 89 157  73 89 157  81 94 163  74 87 154  77 91 160  73 89 157
75 94 162  75 94 162  74 85 151  73 89 157  73 89 157  71 96 166
84 101 172  71 92 161  71 96 166  70 100 171  71 96 166  71 96 166
67 102 173  71 96 166  70 100 171  74 107 178  67 102 173  74 103 175
67 102 173  67 102 173  67 102 173  74 112 184  65 105 177  78 113 185
96 127 198  89 118 189  84 115 186  67 102 173  71 114 186  91 132 204
83 111 183  67 107 179  74 109 181  74 112 184  67 102 173  74 109 181
74 109 181  67 107 179  67 107 179  74 112 184  71 114 186  74 112 184
78 113 185  65 105 177  74 112 184  78 113 185  74 103 175  74 109 181
74 109 181  84 115 186  78 113 185  74 109 181  84 115 186  67 102 173
89 118 189  93 124 195  86 124 195  84 115 186  84 115 186  84 121 193
97 135 206  84 121 193  86 130 201  96 127 198  90 128 199  93 124 195
106 133 204  105 128 199  101 131 202  101 131 202  112 136 203  135 146 200
135 161 220  114 140 208  112 143 215  105 139 211  101 131 202  97 135 206
97 135 206  97 135 206  86 130 201  91 132 204  91 132 204  80 126 197
86 130 201  77 125 197  97 135 206  82 127 199  91 132 204  80 126 197
73 124 196  86 130 201  82 127 199  77 125 197  77 125 197  86 130 201
77 125 197  86 130 201  72 118 190  77 125 197  82 127 199  74 121 193
82 127 199  73 124 196  73 124 196  77 125 197  82 127 199  80 126 197
86 130 201  72 118 190  82 127 199  80 126 197  63 67 125  0 0 0
0 0 0  0 0 0  0 0 0  0 0 0  0 0 0  0 0 0
0 0 0  0 0 0  0 0 0  0 0 0  0 0 0  0 0 0
0 0 0  0 0 0  0 0 0  0 0 0  0 0 0  0 0 0
0 0 0  0 0 0  0 0 0  0 0 0  0 0 0  0 0 0
0 0 0  0 0 0  0 0 0  0 0 0  0 0 0  0 0 0
0 0 0  0 0 0  0 0 0  0 0 0  0 0 0  0 0 0
58 59 115  69 77 138  77 83 144  74 85 151  74 85 151  73 81 142
77 91 160  74 85 151  69 77 138  73 81 142  83 93 156  73 81 142
81 88 149  82 91 153  73 81 142  69 77 138  74 85 151  76 88 155
74 85 151  74 85 151  74 87 154  76 88 155  74 85 151  83 93 156
85 98 163  74 85 151  74 87 154  73 81 142  81 94 163  85 98 163
77 91 160  74 87 154  74 85 151  84 97 167  76 88 155  77 91 160
77 91 160  87 100 170  73 89 157  74 87 154  81 94 163  75 94 162
92 103 172  76 88 155  74 87 154  79 98 168  79 103 173  75 94 162
79 103 173  71 96 166  71 92 161  70 100 171  71 96 166  71 92 161
109 131 201  93 124 195  67 102 173  74 103 175  70 100 171  74 109 181
71 96 166  74 109 181  67 107 179  67 102 173  84 115 186  65 105 177
78 119 191  78 113 185  74 109 181  68 110 182  72 118 190  78 119 191
74 109 181  78 113 185  84 121 193  78 119 191  78 113 185  89 118 189
84 121 193  68 110 182  78 119 191  71 114 186  67 107 179  74 112 184
74 109 181  78 113 185  78 119 191  74 109 181  74 107 178  74 109 181
84 115 186  78 113 185  74 107 178  84 115 186  84 115 186  83 111 183
89 118 189  84 115 186  84 115 186  91 121 192  84 115 186  84 115 186
86 124 195  97 135 206  97 135 206  93 124 195  90 128 199  96 127 198
93 124 195  109 131 201  101 131 202  112 143 215  112 136 203  129 151 212
145 166 222  125 154 219  105 139 211  112 143 215  119 147 214  97 135 206
97 135 206  97 135 206  91 132 204  86 130 201  105 139 211  97 135 206
91 132 204  91 132 204  86 130 201  74 121 193  72 118 190  80 126 197
86 130 201  86 130 201  86 130 201  82 127 199  125 154 219  86 130 201
86 130 201  97 135 206  82 127 199  91 132 204  74 121 193  86 130 201
82 127 199  74 121 193  86 130 201  74 121 193  145 166 222  155 173 223
67 102 173  86 130 201  77 125 197  82 127 199  71 96 166  0 0 0
0 0 0  0 0 0  0 0 0  0 0 0  0 0 0  0 0 0
0 0 0  0 0 0  0 0 0  0 0 0  0 0 0  0 0 0
0 0 0  0 0 0  0 0 0  0 0 0  0 0 0  0 0 0
0 0 0  0 0 0  0 0 0  0 0 0  0 0 0  0 0 0
0 0 0  0 0 0  0 0 0  0 0 0  0 0 0  0 0 0
0 0 0  0 0 0  0 0 0  0 0 0  0 0 0  0 0 0
64 72 132  85 98 163  82 91 153  73 81 142  74 87 154  76 88 155
69 77 138  96 104 172  73 81 142  64 72 132  85 98 163  81 94 163
73 81 142  69 77 138  73 81 142  74 85 151  77 83 144  74 85 151
73 81 142  74 85 151  69 77 138  77 91 160  81 94 163  73 81 142
74 85 151  76 88 155  76 88 155  74 85 151  81 94 163  74 87 154
69 77 138  84 97 167  81 94 163  81 94 163  74 85 151  76 88 155
73 89 157  81 94 163  73 81 142  75 94 162  74 87 154  93 106 175
90 108 178  71 96 166  71 96 166  71 92 161  79 103 173  75 94 162
70 100 171  70 100 171  81 107 178  71 96 166  71 92 161  71 96 166
70 100 171  71 96 166  65 105 177  74 103 175  67 102 173  74 109 181
70 100 171  84 115 186  81 107 178  71 96 166  74 103 175  67 107 179
71 114 186  67 107 179  74 112 184  67 107 179  67 107 179  68 110 182
68 110 182  74 107 178  78 119 191  78 113 185  78 113 185  84 121 193
78 113 185  71 114 186  67 107 179  78 119 191  67 107 179  78 119 191
78 113 185  74 112 184  68 110 182  78 119 191  93 124 195  78 113 185
74 112 184  74 112 184  78 113 185  83 111 183  93 124 195  74 109 181
89 118 189  93 124 195  81 107 178  84 115 186  89 118 189  86 124 195
86 124 195  86 124 195  84 121 193  101 131 202  112 143 215  105 139 211
101 131 202  112 136 203  105 139 211  112 143 215  114 140 208  135 161 220
155 173 223  119 147 214  105 139 211  105 139 211  112 143 215  112 143 215
91 132 204  97 135 206  105 139 211  97 135 206  105 139 211  97 135 206
97 135 206  105 139 211  80 126 197  77 125 197  80 126 197  86 130 201
77 125 197  77 125 197  77 125 197  84 121 193  91 121 192  73 124 196
82 127 199  71 114 186  77 125 197  82 127 199  72 118 190  74 121 193
97 135 206  82 127 199  86 130 201  68 110 182  96 127 198  114 140 208
74 107 178  91 132 204  82 127 199  77 125 197  68 110 182  0 0 0
0 0 0  0 0 0  0 0 0  0 0 0  0 0 0  0 0 0
0 0 0  0 0 0  0 0 0  0 0 0  0 0 0  0 0 0
0 0 0  0 0 0  0 0 0  0 0 0  0 0 0  0 0 0
0 0 0  0 0 0  0 0 0  0 0 0  0 0 0  0 0 0
0 0 0  0 0 0  0 0 0  0 0 0  0 0 0  0 0 0
0 0 0  0 0 0  0 0 0  0 0 0  0 0 0  0 0 0
60 62 119  74 85 151  83 93 156  74 85 151  73 81 142  74 85 151
74 85 151  74 85 151  88 94 157  73 81 142  74 85 151  76 88 155
69 77 138  87 89 150  96 93 156  78 86 147  74 85 151  74 85 151
76 88 155  76 88 155  82 91 153  74 85 151  81 88 149  74 85 151
74 85 151  81 94 163  73 81 142  74 85 151  74 85 151  74 85 151
81 94 163  84 97 167  74 85 151  73 89 157  71 92 161  75 94 162
81 94 163  74 87 154  77 91 160  73 89 157  84 97 167  81 94 163
73 89 157  79 98 168  71 92 161  75 94 162  73 89 157  73 89 157
70 100 171  73 89 157  71 96 166  81 107 178  71 96 166  71 96 166
71 96 166  70 100 171  84 115 186  67 102 173  71 96 166  83 111 183
67 102 173  67 102 173  74 107 178  74 107 178  81 107 178  78 113 185
78 119 191  74 112 184  78 113 185  86 124 195  84 115 186  68 110 182
74 112 184  67 107 179  78 119 191  78 119 191  84 115 186  94 117 188
93 106 175  90 108 178  74 109 181  84 115 186  83 111 183  84 115 186
74 109 181  74 103 175  84 115 186  78 113 185  78 113 185  74 109 181
74 109 181  74 107 178  74 103 175  86 110 181  96 127 198  81 107 178
91 121 192  89 118 189  93 124 195  93 124 195  84 121 193  91 121 192
93 124 195  86 124 195  84 121 193  101 131 202  112 143 215  105 139 211
114 140 208  106 133 204  105 139 211  112 143 215  129 151 212  129 151 212
168 181 224  129 151 212  125 154 219  112 143 215  112 143 215  125 154 219
105 139 211  97 135 206  97 135 206  91 132 204  97 135 206  91 132 204
91 132 204  86 130 201  82 127 199  86 130 201  86 130 201  82 127 199
82 127 199  86 130 201  86 130 201  78 119 191  78 119 191  77 125 197
86 130 201  86 130 201  82 127 199  72 118 190  72 118 190  82 127 199
78 119 191  82 127 199  91 132 204  82 127 199  90 128 199  86 130 201
82 127 199  82 127 199  73 124 196  191 188 189  154 168 212  0 0 0
0 0 0  0 0 0  0 0 0  0 0 0  0 0 0  0 0 0
0 0 0  0 0 0  0 0 0  0 0 0  0 0 0  0 0 0
0 0 0  0 0 0  0 0 0  0 0 0  0 0 0  0 0 0
0 0 0  0 0 0  0 0 0  0 0 0  0 0 0  0 0 0
0 0 0  0 0 0  0 0 0  0 0 0  0 0 0  0 0 0
0 0 0  0 0 0  0 0 0  0 0 0  0 0 0  0 0 0
81 88 149  73 81 142  76 88 155  74 85 151  74 85 151  74 87 154
74 85 151  73 81 142  76 88 155  74 85 151  69 77 138  76 88 155
73 81 142  88 94 157  103 104 172  69 77 138  74 85 151  73 81 142
76 88 155  73 81 142  85 98 163  76 88 155  85 98 163  69 77 138
77 91 160  76 88 155  73 81 142  81 94 163  74 85 151  74 85 151
93 106 175  76 88 155  77 91 160  73 89 157  75 94 162  74 87 154
75 94 162  79 98 168  73 89 157  71 92 161  73 89 157  79 98 168
75 94 162  75 94 162  90 108 178  101 120 189  73 89 157  71 92 161
75 94 162  85 98 163  114 140 208  73 89 157  71 96 166  70 100 171
70 100 171  70 100 171  70 100 171  67 102 173  74 107 178  83 111 183
71 96 166  74 107 178  74 107 178  78 113 185  74 109 181  74 107 178
67 102 173  78 113 185  74 109 181  78 113 185  78 113 185  78 113 185
84 121 193  78 113 185  90 128 199  74 112 184  74 112 184  78 113 185
90 128 199  91 132 204  74 121 193  74 112 184  74 109 181  78 113 185
78 119 191  74 107 178  84 121 193  86 124 195  74 107 178  78 113 185
74 109 181  91 121 192  74 109 181  84 121 193  84 115 186  93 124 195
81 107 178  88 113 184  84 115 186  89 118 189  91 121 192  97 135 206
93 124 195  91 121 192  112 143 215  112 143 215  97 135 206  105 139 211
112 136 203  119 147 214  112 143 215  112 143 215  119 147 214  154 168 212
193 197 226  129 151 212  119 147 214  125 154 219  135 161 220  112 143 215
112 143 215  112 143 215  97 135 206  97 135 206  97 135 206  91 132 204
82 127 199  86 130 201  91 132 204  82 127 199  80 126 197  80 126 197
82 127 199  73 124 196  77 125 197  125 154 219  80 126 197  82 127 199
86 130 201  74 121 193  82 127 199  82 127 199  73 124 196  82 127 199
91 132 204  72 118 190  91 132 204  91 132 204  91 132 204  77 125 197
73 124 196  86 130 201  73 124 196  155 173 223  182 190 223  0 0 0
0 0 0  0 0 0  0 0 0  0 0 0  0 0 0  0 0 0
0 0 0  0 0 0  0 0 0  0 0 0  0 0 0  0 0 0
0 0 0  0 0 0  0 0 0  0 0 0  0 0 0  0 0 0
0 0 0  0 0 0  0 0 0  0 0 0  0 0 0  0 0 0
0 0 0  0 0 0  0 0 0  0 0 0  0 0 0  0 0 0
0 0 0  0 0 0  0 0 0  0 0 0  0 0 0  0 0 0
83 93 156  74 85 151  76 88 155  84 97 167  73 81 142  74 85 151
74 87 154  76 88 155  74 85 151  69 77 138  76 88 155  73 81 142
73 81 142  73 81 142  73 81 142  74 85 151  74 85 151  76 88 155
74 85 151  74 85 151  74 85 151  66 74 136  81 94 163  74 87 154
73 81 142  69 77 138  73 89 157  74 85 151  92 103 172  74 85 151
74 85 151  84 97 167  77 91 160  81 94 163  81 94 163  73 89 157
74 87 154  75 94 162  73 89 157  75 94 162  73 89 157  81 94 163
90 108 178  79 98 168  75 94 162  75 94 162  79 98 168  71 96 166
73 89 157  97 109 177  135 146 200  73 89 157  81 107 178  70 100 171
74 103 175  79 103 173  83 111 183  67 102 173  74 109 181  78 113 185
74 107 178  78 113 185  74 107 178  78 113 185  65 105 177  74 103 175
101 131 202  74 103 175  78 113 185  84 115 186  74 109 181  93 124 195
74 109 181  74 109 181  74 112 184  78 119 191  78 119 191  86 130 201
90 128 199  90 128 199  74 112 184  74 109 181  78 113 185  74 107 178
78 113 185  86 124 195  91 121 192  84 115 186  78 113 185  84 121 193
84 115 186  84 115 186  83 111 183  84 115 186  89 118 189  91 121 192
91 121 192  89 118 189  89 118 189  93 124 195  93 124 195  84 115 186
93 124 195  96 127 198  101 131 202  96 127 198  101 131 202  112 143 215
119 147 214  119 147 214  112 143 215  112 143 215  135 161 220  154 168 212
193 197 226  135 161 220  125 154 219  125 154 219  135 161 220  125 154 219
125 154 219  112 143 215  112 143 215  105 139 211  112 143 215  112 143 215
91 132 204  91 132 204  86 124 195  91 132 204  91 132 204  74 121 193
82 127 199  82 127 199  74 121 193  77 125 197  74 121 193  82 127 199
72 118 190  73 124 196  74 121 193  74 121 193  77 125 197  73 124 196
74 121 193  80 126 197  82 127 199  78 119 191  77 125 197  82 127 199
73 124 196  91 132 204  82 127 199  86 130 201  71 114 186  0 0 0
0 0 0  0 0 0  0 0 0  0 0 0  0 0 0  0 0 0
0 0 0  0 0 0  0 0 0  0 0 0  0 0 0  0 0 0
0 0 0  0 0 0  0 0 0  0 0 0  0 0 0  0 0 0
0 0 0  0 0 0  0 0 0  0 0 0  0 0 0  0 0 0
0 0 0  0 0 0  0 0 0  0 0 0  0 0 0  0 0 0
0 0 0  0 0 0  0 0 0  0 0 0  0 0 0  0 0 0
74 85 151  69 77 138  73 81 142  74 85 151  74 85 151  85 98 163
73 81 142  76 88 155  85 98 163  74 85 151  81 94 163  81 94 163
74 87 154  76 88 155  74 85 151  74 85 151  74 87 154  74 85 151
76 88 155  73 81 142  69 77 138  76 88 155  69 77 138  74 85 151
77 91 160  92 100 166  74 85 151  74 85 151  74 87 154  76 88 155
84 97 167  74 87 154  77 91 160  74 87 154  74 87 154  77 91 160
84 97 167  77 91 160  73 89 157  81 94 163  77 91 160  81 94 163
79 98 168  81 94 163  79 98 168  75 94 162  71 96 166  71 96 166
90 108 178  69 77 138  145 166 222  93 110 180  70 100 171  81 107 178
74 103 175  71 96 166  83 111 183  67 102 173  74 103 175  74 103 175
67 102 173  78 113 185  74 107 178  74 103 175  74 109 181  84 115 186
89 118 189  84 115 186  84 121 193  78 113 185  84 121 193  78 113 185
84 121 193  74 107 178  72 118 190  74 121 193  84 115 186  86 110 181
92 100 166  94 117 188  88 113 184  78 119 191  78 113 185  84 115 186
78 113 185  84 115 186  84 115 186  74 109 181  74 109 181  84 115 186
84 115 186  74 103 175  83 111 183  84 115 186  89 118 189  88 113 184
91 121 192  84 115 186  93 124 195  89 118 189  93 124 195  91 121 192
96 127 198  97 135 206  97 135 206  119 147 214  112 143 215  119 147 214
125 154 219  119 147 214  125 154 219  125 154 219  135 161 220  168 181 224
210 220 228  145 166 222  135 161 220  135 161 220  135 161 220  125 154 219
112 143 215  125 154 219  112 143 215  119 147 214  155 173 223  105 139 211
97 135 206  105 139 211  90 128 199  91 132 204  86 130 201  82 127 199
91 132 204  86 130 201  77 125 197  82 127 199  77 125 197  72 118 190
86 130 201  86 130 201  74 121 193  73 124 196  82 127 199  77 125 197
74 121 193  80 126 197  84 121 193  80 126 197  74 121 193  77 125 197
74 121 193  72 118 190  91 132 204  86 130 201  72 118 190  0 0 0
0 0 0  0 0 0  0 0 0  0 0 0  0 0 0  0 0 0
0 0 0  0 0 0  0 0 0  0 0 0  0 0 0  0 0 0
0 0 0  0 0 0  0 0 0  0 0 0  0 0 0  0 0 0
0 0 0  0 0 0  0 0 0  0 0 0  0 0 0  0 0 0
0 0 0  0 0 0  0 0 0  0 0 0  0 0 0  0 0 0
0 0 0  0 0 0  0 0 0  0 0 0  0 0 0  0 0 0
73 81 142  74 85 151  76 88 155  74 85 151  74 85 151  83 93 156
74 85 151  74 87 154  92 100 166  74 85 151  77 91 160  77 91 160
73 81 142  74 85 151  76 88 155  73 81 142  81 94 163  74 85 151
74 85 151  74 85 151  74 85 151  74 85 151  74 85 151  76 88 155
74 85 151  66 74 136  83 93 156  74 85 151  92 103 172  85 98 163
81 94 163  74 85 151  81 94 163  81 94 163  77 91 160  81 94 163
77 91 160  81 94 163  75 94 162  97 109 177  87 100 170  81 94 163
75 94 162  75 94 162  84 101 172  71 92 161  79 103 173  71 96 166
81 107 178  76 88 155  114 140 208  79 103 173  71 92 161  74 107 178
74 103 175  74 107 178  74 103 175  74 103 175  79 103 173  78 113 185
74 109 181  74 107 178  67 102 173  74 109 181  74 107 178  81 107 178
70 100 171  74 109 181  78 113 185  84 121 193  74 109 181  78 113 185
84 115 186  84 115 186  97 135 206  71 114 186  86 110 181  131 129 178
202 209 229  158 135 187  94 117 188  78 113 185  74 107 178  91 121 192
84 115 186  89 118 189  81 107 178  81 107 178  84 115 186  84 115 186
78 113 185  81 107 178  83 111 183  89 118 189  78 113 185  91 121 192
91 121 192  84 115 186  84 115 186  90 128 199  96 127 198  91 121 192
106 133 204  101 131 202  106 133 204  114 140 208  119 147 214  112 143 215
119 147 214  125 154 219  125 154 219  145 166 222  135 161 220  168 181 224
227 227 230  155 173 223  145 166 222  145 166 222  135 161 220  135 161 220
125 154 219  112 143 215  112 143 215  112 143 215  125 154 219  105 139 211
97 135 206  91 132 204  105 139 211  97 135 206  80 126 197  97 135 206
97 135 206  82 127 199  82 127 199  82 127 199  82 127 199  86 130 201
77 125 197  80 126 197  86 130 201  77 125 197  77 125 197  71 114 186
91 132 204  86 130 201  82 127 199  72 118 190  82 127 199  71 114 186
82 127 199  77 125 197  77 125 197  77 125 197  77 125 197  0 0 0
0 0 0  0 0 0  0 0 0  0 0 0  0 0 0  0 0 0
0 0 0  0 0 0  0 0 0  0 0 0  0 0 0  0 0 0
0 0 0  0 0 0  0 0 0  0 0 0  0 0 0  0 0 0
0 0 0  0 0 0  0 0 0  0 0 0  0 0 0  0 0 0
0 0 0  0 0 0  0 0 0  0 0 0  0 0 0  0 0 0
0 0 0  0 0 0  0 0 0  0 0 0  0 0 0  0 0 0
74 85 151  74 87 154  87 100 170  76 88 155  73 81 142  77 91 160
76 88 155  73 81 142  73 81 142  74 85 151  74 85 151  74 85 151
74 85 151  74 85 151  74 85 151  83 93 156  69 77 138  74 85 151
78 86 147  74 85 151  74 85 151  81 94 163  76 88 155  74 85 151
85 98 163  66 74 136  112 124 189  83 93 156  82 91 153  85 98 163
74 85 151  77 91 160  81 94 163  75 94 162  73 89 157  73 89 157
71 92 161  75 94 162  75 94 162  87 100 170  76 88 155  73 89 157
87 100 170  87 100 170  75 94 162  71 92 161  71 92 161  71 96 166
71 96 166  71 92 161  71 96 166  70 100 171  74 107 178  74 103 175
70 100 171  74 103 175  74 109 181  74 107 178  83 111 183  83 111 183
74 109 181  74 109 181  74 107 178  84 115 186  83 111 183  78 113 185
96 127 198  67 102 173  84 115 186  84 121 193  67 102 173  84 115 186
91 121 192  83 111 183  82 127 199  82 127 199  87 105 175  165 158 197
249 249 249  227 227 230  97 109 177  91 121 192  78 113 185  83 111 183
89 118 189  91 121 192  84 115 186  81 107 178  89 118 189  84 115 186
79 103 173  125 154 219  125 154 219  84 115 186  84 121 193  84 121 193
89 118 189  91 121 192  91 121 192  91 121 192  89 118 189  106 133 204
101 131 202  93 124 195  105 139 211  119 147 214  119 147 214  119 147 214
125 154 219  135 161 220  125 154 219  155 173 223  155 173 223  182 190 223
236 236 234  168 181 224  155 173 223  145 166 222  135 161 220  135 161 220
135 161 220  125 154 219  125 154 219  112 143 215  105 139 211  105 139 211
112 143 215  97 135 206  90 128 199  97 135 206  91 132 204  90 128 199
86 124 195  91 132 204  80 126 197  80 126 197  78 119 191  77 125 197
72 118 190  80 126 197  72 118 190  77 125 197  74 121 193  74 121 193
91 132 204  77 125 197  91 132 204  82 127 199  86 130 201  90 128 199
112 143 215  80 126 197  77 125 197  86 130 201  77 125 197  0 0 0
0 0 0  0 0 0  0 0 0  0 0 0  0 0 0  0 0 0
0 0 0  0 0 0  0 0 0  0 0 0  0 0 0  0 0 0
0 0 0  0 0 0  0 0 0  0 0 0  0 0 0  0 0 0
0 0 0  0 0 0  0 0 0  0 0 0  0 0 0  0 0 0
0 0 0  0 0 0  0 0 0  0 0 0  0 0 0  0 0 0
0 0 0  0 0 0  0 0 0  0 0 0  0 0 0  0 0 0
77 91 160  77 91 160  74 85 151  66 74 136  81 94 163  77 91 160
69 77 138  73 81 142  97 109 177  77 91 160  69 77 138  96 101 169
83 93 156  74 85 151  69 77 138  88 94 157  74 85 151  88 94 157
76 88 155  76 88 155  74 85 151  77 91 160  74 85 151  74 85 151
77 91 160  73 81 142  74 85 151  77 91 160  76 88 155  77 91 160
81 94 163  74 87 154  79 98 168  81 94 163  74 87 154  74 87 154
81 94 163  75 94 162  84 101 172  81 94 163  81 94 163  79 98 168
84 101 172  98 113 182  79 98 168  79 98 168  75 94 162  79 98 168
75 94 162  79 98 168  86 110 181  71 92 161  74 103 175  74 107 178
74 103 175  67 102 173  74 109 181  74 109 181  74 103 175  78 113 185
70 100 171  74 107 178  74 109 181  74 109 181  74 103 175  67 102 173
84 115 186  74 107 178  91 121 192  74 109 181  74 109 181  90 128 199
84 115 186  83 111 183  78 119 191  71 114 186  74 103 175  135 146 200
236 236 234  154 168 212  94 114 184  84 115 186  74 109 181  83 111 183
78 113 185  84 115 186  83 111 183  84 115 186  83 111 183  89 118 189
81 107 178  94 117 188  94 117 188  84 115 186  84 115 186  84 121 193
96 127 198  88 113 184  101 131 202  93 124 195  101 131 202  101 131 202
96 127 198  106 133 204  106 133 204  101 131 202  119 147 214  125 154 219
119 147 214  145 166 222  145 166 222  155 173 223  155 173 223  202 209 229
249 249 249  193 197 226  168 181 224  145 166 222  135 161 220  125 154 219
125 154 219  125 154 219  112 143 215  125 154 219  112 143 215  105 139 211
97 135 206  97 135 206  91 132 204  91 132 204  97 135 206  86 124 195
80 126 197  80 126 197  77 125 197  91 132 204  82 127 199  74 121 193
86 130 201  82 127 199  82 127 199  80 126 197  80 126 197  82 127 199
72 118 190  74 121 193  74 121 193  91 132 204  91 132 204  86 130 201
74 121 193  72 118 190  74 121 193  82 127 199  77 125 197  0 0 0
0 0 0  0 0 0  0 0 0  0 0 0  0 0 0  0 0 0
0 0 0  0 0 0  0 0 0  0 0 0  0 0 0  0 0 0
0 0 0  0 0 0  0 0 0  0 0 0  0 0 0  0 0 0
0 0 0  0 0 0  0 0 0  0 0 0  0 0 0  0 0 0
0 0 0  0 0 0  0 0 0  0 0 0  0 0 0  0 0 0
0 0 0  0 0 0  0 0 0  0 0 0  0 0 0  0 0 0
76 88 155  74 87 154  74 85 151  74 87 154  77 91 160  74 85 151
74 85 151  76 88 155  74 85 151  84 97 167  76 88 155  92 100 166
74 85 151  74 85 151  74 85 151  74 85 151  82 91 153  90 96 161
83 93 156  73 81 142  76 88 155  74 87 154  74 85 151  74 85 151
74 85 151  77 91 160  77 91 160  74 85 151  76 88 155  74 87 154
84 97 167  77 91 160  81 94 163  73 89 157  81 94 163  84 97 167
73 89 157  73 89 157  77 91 160  84 97 167  81 94 163  79 98 168
73 89 157  81 94 163  71 92 161  70 100 171  79 98 168  105 128 199
84 101 172  84 101 172  102 124 194  70 100 171  74 103 175  81 107 178
74 103 175  74 107 178  74 107 178  70 100 171  74 107 178  84 115 186
74 103 175  74 107 178  74 103 175  74 109 181  74 107 178  74 109 181
78 113 185  74 109 181  84 115 186  74 109 181  84 115 186  78 113 185
74 107 178  78 113 185  90 128 199  78 119 191  91 121 192  94 114 184
100 115 184  81 107 178  86 124 195  84 121 193  78 113 185  84 115 186
89 118 189  89 118 189  74 109 181  91 121 192  83 111 183  84 115 186
93 124 195  88 113 184  74 103 175  93 124 195  81 107 178  91 121 192
93 124 195  101 131 202  93 124 195  84 115 186  101 131 202  106 133 204
101 131 202  112 143 215  112 143 215  112 143 215  119 147 214  135 161 220
129 151 212  145 166 222  155 173 223  168 181 224  168 181 224  210 220 228
253 253 253  210 220 228  168 181 224  155 173 223  145 166 222  145 166 222
135 161 220  135 161 220  125 154 219  125 154 219  112 143 215  112 143 215
105 139 211  105 139 211  105 139 211  105 139 211  105 139 211  91 132 204
97 135 206  86 130 201  91 132 204  84 121 193  91 132 204  82 127 199
91 132 204  80 126 197  77 125 197  80 126 197  80 126 197  78 119 191
97 135 206  72 118 190  86 130 201  82 127 199  72 118 190  77 125 197
73 124 196  86 130 201  71 114 186  82 127 199  86 130 201  0 0 0
0 0 0  0 0 0  0 0 0  0 0 0  0 0 0  0 0 0
0 0 0  0 0 0  0 0 0  0 0 0  0 0 0  0 0 0
0 0 0  0 0 0  0 0 0  0 0 0  0 0 0  0 0 0
0 0 0  0 0 0  0 0 0  0 0 0  0 0 0  0 0 0
0 0 0  0 0 0  0 0 0  0 0 0  0 0 0  0 0 0
0 0 0  0 0 0  0 0 0  0 0 0  0 0 0  0 0 0
74 85 151  69 77 138  76 88 155  74 87 154  73 81 142  74 87 154
73 81 142  98 113 182  69 77 138  77 91 160  77 91 160  76 88 155
74 87 154  74 85 151  76 88 155  73 81 142  73 81 142  77 91 160
74 85 151  74 85 151  87 100 170  87 100 170  69 77 138  74 85 151
82 91 153  69 77 138  76 88 155  76 88 155  77 91 160  77 91 160
73 81 142  73 89 157  81 94 163  73 89 157  77 91 160  84 97 167
75 94 162  84 97 167  81 94 163  84 97 167  84 97 167  74 87 154
90 108 178  84 101 172  71 92 161  75 94 162  79 98 168  79 98 168
77 91 160  90 108 178  79 103 173  83 111 183  70 100 171  81 107 178
81 107 178  74 103 175  74 109 181  71 96 166  125 154 219  84 115 186
74 103 175  74 107 178  74 109 181  74 109 181  78 113 185  78 113 185
84 115 186  74 109 181  84 115 186  78 113 185  74 109 181  84 121 193
83 111 183  84 115 186  90 128 199  78 113 185  84 121 193  93 124 195
93 124 195  86 124 195  89 118 189  84 115 186  89 118 189  89 118 189
84 115 186  84 115 186  84 115 186  91 121 192  94 117 188  84 115 186
83 111 183  89 118 189  81 107 178  96 127 198  91 121 192  96 127 198
84 115 186  91 121 192  96 127 198  93 124 195  105 128 199  106 133 204
106 133 204  125 154 219  114 140 208  125 154 219  125 154 219  135 161 220
155 173 223  145 166 222  168 181 224  193 197 226  193 197 226  227 227 230
253 253 253  236 236 234  193 197 226  168 181 224  155 173 223  155 173 223
135 161 220  125 154 219  125 154 219  135 161 220  125 154 219  119 147 214
105 139 211  105 139 211  105 139 211  97 135 206  82 127 199  91 132 204
97 135 206  86 124 195  105 139 211  86 124 195  91 132 204  86 130 201
78 119 191  80 126 197  77 125 197  91 132 204  82 127 199  72 118 190
82 127 199  91 132 204  77 125 197  74 121 193  82 127 199  74 121 193
68 110 182  80 126 197  82 127 199  72 118 190  82 127 199  0 0 0
0 0 0  0 0 0  0 0 0  0 0 0  0 0 0  0 0 0
0 0 0  0 0 0  0 0 0  0 0 0  0 0 0  0 0 0
0 0 0  0 0 0  0 0 0  0 0 0  0 0 0  0 0 0
0 0 0  0 0 0  0 0 0  0 0 0  0 0 0  0 0 0
0 0 0  0 0 0  0 0 0  0 0 0  0 0 0  0 0 0
0 0 0  0 0 0  0 0 0  0 0 0  0 0 0  0 0 0
76 88 155  74 85 151  73 89 157  83 93 156  81 94 163  76 88 155
73 81 142  84 97 167  83 93 156  74 85 151  74 85 151  66 74 136
81 94 163  92 100 166  74 85 151  74 85 151  85 98 163  74 87 154
74 85 151  74 87 154  74 85 151  74 85 151  74 85 151  125 133 195
95 99 164  81 94 163  83 93 156  85 98 163  81 94 163  87 100 170
81 94 163  84 101 172  85 98 163  77 91 160  77 91 160  77 91 160
77 91 160  98 113 182  87 100 170  87 100 170  87 105 175  87 100 170
87 100 170  87 100 170  79 98 168  71 96 166  71 92 161  87 105 175
79 98 168  87 105 175  71 96 166  81 107 178  71 96 166  86 110 181
109 131 201  86 110 181  74 107 178  71 92 161  98 121 191  74 107 178
74 109 181  74 103 175  84 115 186  67 102 173  83 111 183  84 115 186
74 109 181  83 111 183  83 111 183  84 115 186  74 107 178  78 113 185
78 113 185  74 112 184  81 107 178  81 107 178  96 127 198  101 131 202
83 111 183  86 110 181  94 117 188  74 109 181  84 115 186  89 118 189
84 115 186  83 111 183  84 115 186  89 118 189  86 110 181  83 111 183
81 107 178  93 124 195  96 127 198  91 121 192  101 131 202  93 124 195
93 124 195  89 118 189  93 124 195  93 124 195  106 133 204  105 128 199
106 133 204  125 154 219  112 143 215  119 147 214  125 154 219  135 161 220
145 166 222  155 173 223  182 190 223  193 197 226  210 220 228  243 242 236
253 253 253  249 249 249  210 220 228  202 209 229  182 190 223  155 173 223
155 173 223  155 173 223  135 161 220  119 147 214  125 154 219  125 154 219
112 143 215  112 143 215  97 135 206  105 139 211  90 128 199  105 139 211
97 135 206  91 132 204  91 132 204  84 121 193  91 132 204  90 128 199
84 121 193  86 130 201  74 121 193  86 130 201  77 125 197  86 130 201
72 118 190  78 119 191  71 114 186  86 130 201  74 121 193  71 114 186
74 121 193  74 121 193  72 118 190  72 118 190  82 127 199  0 0 0
0 0 0  0 0 0  0 0 0  0 0 0  0 0 0  0 0 0
0 0 0  0 0 0  0 0 0  0 0 0  0 0 0  0 0 0
0 0 0  0 0 0  0 0 0  0 0 0  0 0 0  0 0 0
0 0 0  0 0 0  0 0 0  0 0 0  0 0 0  0 0 0
0 0 0  0 0 0  0 0 0  0 0 0  0 0 0  0 0 0
0 0 0  0 0 0  0 0 0  0 0 0  0 0 0  0 0 0
82 91 153  74 85 151  73 89 157  74 85 151  76 88 155  76 88 155
74 87 154  74 85 151  76 88 155  74 87 154  81 94 163  83 93 156
81 94 163  76 88 155  74 85 151  74 85 151  74 85 151  74 85 151
76 88 155  83 93 156  74 87 154  74 85 151  74 85 151  85 98 163
66 74 136  92 103 172  74 87 154  77 91 160  74 85 151  93 106 175
81 94 163  77 91 160  84 101 172  77 91 160  81 94 163  96 104 172
92 100 166  77 91 160  87 100 170  84 97 167  79 98 168  92 100 166
112 124 189  109 131 201  74 87 154  71 96 166  79 98 168  79 103 173
79 103 173  79 103 173  79 103 173  70 100 171  74 103 175  71 96 166
71 92 161  74 103 175  74 107 178  83 111 183  79 103 173  74 103 175
74 107 178  74 103 175  74 109 181  74 109 181  74 109 181  74 107 178
84 115 186  89 118 189  74 107 178  81 107 178  74 103 175  74 107 178
84 115 186  93 124 195  91 121 192  86 110 181  96 127 198  89 118 189
74 107 178  81 107 178  88 113 184  83 111 183  89 118 189  84 115 186
78 113 185  89 118 189  89 118 189  84 115 186  94 117 188  83 111 183
93 124 195  86 110 181  88 113 184  89 118 189  84 115 186  89 118 189
98 121 191  98 121 191  105 128 199  101 131 202  105 128 199  119 147 214
114 140 208  101 131 202  125 154 219  129 151 212  135 161 220  135 161 220
155 173 223  168 181 224  193 197 226  202 209 229  236 236 234  249 249 249
253 253 253  253 253 253  249 249 249  227 227 230  202 209 229  182 190 223
155 173 223  155 173 223  135 161 220  125 154 219  119 147 214  119 147 214
105 139 211  112 143 215  112 143 215  97 135 206  97 135 206  90 128 199
91 132 204  86 124 195  91 132 204  84 121 193  78 119 191  90 128 199
78 119 191  82 127 199  80 126 197  74 121 193  82 127 199  86 124 195
86 124 195  91 132 204  78 119 191  80 126 197  84 121 193  80 126 197
72 118 190  78 119 191  90 128 199  84 121 193  78 119 191  0 0 0
0 0 0  0 0 0  0 0 0  0 0 0  0 0 0  0 0 0
0 0 0  0 0 0  0 0 0  0 0 0  0 0 0  0 0 0
0 0 0  0 0 0  0 0 0  0 0 0  0 0 0  0 0 0
0 0 0  0 0 0  0 0 0  0 0 0  0 0 0  0 0 0
0 0 0  0 0 0  0 0 0  0 0 0  0 0 0  0 0 0
0 0 0  0 0 0  0 0 0  0 0 0  0 0 0  0 0 0
77 91 160  74 87 154  87 100 170  77 91 160  74 87 154  76 88 155
74 87 154  74 85 151  76 88 155  75 94 162  74 87 154  73 81 142
85 98 163  87 100 170  69 77 138  76 88 155  77 91 160  74 85 151
74 85 151  83 93 156  82 91 153  81 94 163  74 87 154  74 85 151
91 100 170  74 87 154  77 91 160  73 89 157  84 97 167  76 88 155
74 87 154  84 97 167  73 89 157  71 92 161  77 91 160  87 100 170
125 133 195  84 97 167  84 97 167  81 94 163  79 98 168  92 103 172
100 115 184  102 118 186  93 110 180  79 98 168  79 98 168  79 98 168
79 103 173  79 98 168  71 96 166  81 107 178  79 103 173  94 117 188
89 118 189  70 100 171  70 100 171  83 111 183  74 109 181  74 109 181
74 109 181  74 107 178  78 113 185  74 103 175  78 113 185  81 107 178
84 115 186  83 111 183  78 113 185  83 111 183  101 131 202  83 111 183
74 112 184  84 115 186  83 111 183  84 115 186  91 121 192  89 118 189
84 115 186  93 124 195  84 115 186  93 124 195  74 103 175  84 115 186
91 121 192  89 118 189  84 115 186  88 113 184  88 113 184  83 111 183
79 103 173  102 124 194  89 118 189  81 107 178  93 124 195  98 121 191
102 124 194  94 117 188  114 140 208  109 131 201  102 124 194  114 140 208
114 140 208  119 147 214  119 147 214  125 154 219  145 166 222  145 166 222
155 173 223  202 209 229  202 209 229  227 227 230  249 249 249  253 253 253
253 253 253  253 253 253  253 253 253  249 249 249  210 220 228  193 197 226
168 181 224  155 173 223  145 166 222  135 161 220  125 154 219  125 154 219
112 143 215  112 143 215  105 139 211  101 131 202  105 139 211  90 128 199
97 135 206  91 132 204  90 128 199  90 128 199  91 132 204  86 130 201
84 121 193  91 132 204  86 124 195  72 118 190  91 132 204  86 124 195
78 119 191  90 128 199  80 126 197  74 121 193  80 126 197  78 119 191
78 119 191  80 126 197  84 121 193  84 121 193  78 119 191  0 0 0
0 0 0  0 0 0  0 0 0  0 0 0  0 0 0  0 0 0
0 0 0  0 0 0  0 0 0  0 0 0  0 0 0  0 0 0
0 0 0  0 0 0  0 0 0  0 0 0  0 0 0  0 0 0
0 0 0  0 0 0  0 0 0  0 0 0  0 0 0  0 0 0
0 0 0  0 0 0  0 0 0  0 0 0  0 0 0  0 0 0
0 0 0  0 0 0  0 0 0  0 0 0  0 0 0  0 0 0
74 85 151  74 87 154  74 87 154  74 85 151  74 85 151  76 88 155
84 97 167  66 74 136  112 124 189  79 98 168  74 85 151  76 88 155
77 91 160  73 89 157  74 87 154  76 88 155  76 88 155  77 91 160
74 85 151  74 87 154  74 85 151  76 88 155  92 103 172  77 91 160
77 91 160  92 103 172  74 87 154  76 88 155  84 97 167  85 98 163
77 91 160  81 94 163  75 94 162  81 94 163  84 97 167  77 91 160
77 91 160  79 98 168  98 113 182  93 106 175  112 124 189  84 101 172
84 101 172  84 101 172  79 98 168  71 96 166  87 105 175  79 103 173
86 110 181  79 103 173  79 98 168  79 98 168  88 113 184  71 96 166
83 111 183  81 107 178  81 107 178  70 100 171  83 111 183  74 107 178
74 109 181  74 107 178  91 121 192  74 107 178  74 107 178  83 111 183
74 109 181  83 111 183  74 109 181  74 107 178  101 131 202  91 121 192
88 113 184  91 121 192  84 115 186  91 121 192  83 111 183  81 107 178
84 115 186  84 115 186  89 118 189  89 118 189  84 115 186  83 111 183
89 118 189  74 103 175  89 118 189  93 124 195  88 113 184  89 118 189
89 118 189  84 115 186  89 118 189  105 128 199  93 124 195  88 113 184
93 124 195  102 124 194  101 120 189  102 124 194  119 147 214  112 136 203
112 136 203  119 147 214  125 154 219  135 161 220  135 161 220  155 173 223
168 181 224  202 209 229  210 220 228  249 249 249  249 249 249  253 253 253
253 253 253  253 253 253  253 253 253  253 253 253  236 236 234  210 220 228
193 197 226  155 173 223  145 166 222  145 166 222  125 154 219  125 154 219
105 139 211  112 143 215  105 139 211  112 143 215  112 143 215  97 135 206
97 135 206  101 131 202  101 131 202  91 132 204  86 124 195  84 121 193
86 124 195  86 124 195  84 121 193  82 127 199  86 124 195  97 135 206
84 121 193  84 121 193  80 126 197  84 121 193  80 126 197  71 114 186
72 118 190  78 119 191  78 113 185  78 119 191  78 119 191  0 0 0
0 0 0  0 0 0  0 0 0  0 0 0  0 0 0  0 0 0
0 0 0  0 0 0  0 0 0  0 0 0  0 0 0  0 0 0
0 0 0  0 0 0  0 0 0  0 0 0  0 0 0  0 0 0
0 0 0  0 0 0  0 0 0  0 0 0  0 0 0  0 0 0
0 0 0  0 0 0  0 0 0  0 0 0  0 0 0  0 0 0
0 0 0  0 0 0  0 0 0  0 0 0  0 0 0  0 0 0
84 101 172  77 91 160  74 85 151  74 87 154  77 91 160  77 91 160
73 89 157  74 87 154  85 98 163  74 87 154  77 91 160  74 87 154
74 85 151  74 87 154  74 85 151  73 81 142  74 85 151  74 85 151
77 91 160  74 85 151  66 74 136  76 88 155  74 85 151  69 77 138
81 94 163  74 87 154  77 91 160  84 97 167  74 87 154  85 98 163
81 94 163  77 91 160  87 100 170  87 105 175  81 94 163  84 101 172
84 101 172  79 98 168  87 100 170  85 98 163  125 133 195  81 107 178
75 94 162  94 114 184  81 107 178  71 96 166  97 117 187  87 105 175
86 110 181  79 98 168  81 107 178  71 96 166  81 107 178  81 107 178
79 103 173  81 107 178  87 105 175  81 107 178  74 103 175  74 107 178
78 113 185  78 113 185  70 100 171  84 115 186  83 111 183  81 107 178
74 109 181  74 107 178  81 107 178  74 107 178  74 103 175  98 121 191
98 121 191  83 111 183  84 115 186  81 107 178  81 107 178  83 111 183
83 111 183  81 107 178  81 107 178  96 127 198  96 127 198  88 113 184
93 124 195  74 107 178  84 115 186  89 118 189  81 107 178  88 113 184
93 124 195  98 121 191  94 117 188  94 114 184  105 128 199  94 117 188
98 121 191  101 120 189  112 136 203  105 128 199  98 121 191  105 128 199
119 147 214  114 140 208  129 151 212  119 147 214  135 161 220  155 173 223
182 190 223  202 209 229  236 236 234  249 249 249  253 253 253  253 253 253
253 253 253  253 253 253  253 253 253  253 253 253  249 249 249  227 227 230
193 197 226  168 181 224  155 173 223  145 166 222  125 154 219  119 147 214
112 143 215  112 143 215  112 143 215  106 133 204  112 136 203  105 128 199
105 139 211  106 133 204  96 127 198  91 121 192  97 135 206  86 124 195
105 139 211  101 131 202  86 124 195  86 124 195  89 118 189  90 128 199
91 132 204  84 121 193  78 119 191  86 124 195  80 126 197  80 126 197
78 119 191  78 119 191  84 121 193  90 128 199  78 119 191  0 0 0
0 0 0  0 0 0  0 0 0  0 0 0  0 0 0  0 0 0
0 0 0  0 0 0  0 0 0  0 0 0  0 0 0  0 0 0
0 0 0  0 0 0  0 0 0  0 0 0  0 0 0  0 0 0
0 0 0  0 0 0  0 0 0  0 0 0  0 0 0  0 0 0
0 0 0  0 0 0  0 0 0  0 0 0  0 0 0  0 0 0
0 0 0  0 0 0  0 0 0  0 0 0  0 0 0  0 0 0
73 89 157  81 94 163  81 94 163  74 85 151  73 89 157  81 94 163
74 87 154  74 85 151  74 85 151  73 89 157  77 91 160  74 87 154
77 91 160  74 87 154  91 100 170  73 81 142  74 87 154  85 98 163
69 77 138  76 88 155  77 91 160  81 94 163  74 85 151  77 91 160
74 85 151  84 97 167  83 93 156  81 94 163  81 94 163  81 94 163
74 87 154  73 89 157  93 110 180  75 94 162  79 98 168  84 101 172
84 101 172  87 105 175  93 106 175  81 94 163  84 101 172  71 96 166
81 107 178  79 103 173  79 103 173  79 103 173  94 114 184  71 96 166
79 98 168  71 96 166  81 107 178  87 105 175  79 103 173  86 110 181
79 98 168  88 113 184  71 96 166  81 107 178  79 103 173  83 111 183
74 109 181  74 103 175  74 109 181  84 121 193  74 107 178  70 100 171
74 103 175  81 107 178  74 107 178  89 118 189  83 111 183  81 107 178
81 107 178  74 103 175  83 111 183  89 118 189  81 107 178  88 113 184
83 111 183  81 107 178  79 103 173  83 111 183  83 111 183  83 111 183
81 107 178  93 124 195  86 110 181  81 107 178  101 131 202  83 111 183
81 107 178  112 136 203  94 114 184  97 117 187  102 124 194  109 131 201
105 128 199  112 136 203  112 136 203  129 151 212  129 151 212  129 151 212
129 151 212  129 151 212  155 173 223  168 181 224  193 197 226  202 209 229
236 236 234  249 249 249  249 249 249  253 253 253  253 253 253  253 253 253
253 253 253  253 253 253  253 253 253  253 253 253  253 253 253  249 249 249
236 236 234  202 209 229  182 190 223  168 181 224  145 166 222  145 166 222
135 161 220  129 151 212  129 151 212  112 136 203  129 151 212  119 147 214
112 136 203  112 136 203  105 128 199  112 136 203  105 139 211  93 124 195
93 124 195  93 124 195  93 124 195  96 127 198  101 131 202  90 128 199
84 121 193  84 121 193  78 113 185  74 112 184  78 119 191  74 109 181
78 119 191  78 113 185  74 112 184  78 113 185  78 119 191  0 0 0
0 0 0  0 0 0  0 0 0  0 0 0  0 0 0  0 0 0
0 0 0  0 0 0  0 0 0  0 0 0  0 0 0  0 0 0
0 0 0  0 0 0  0 0 0  0 0 0  0 0 0  0 0 0
0 0 0  0 0 0  0 0 0  0 0 0  0 0 0  0 0 0
0 0 0  0 0 0  0 0 0  0 0 0  0 0 0  0 0 0
0 0 0  0 0 0  0 0 0  0 0 0  0 0 0  0 0 0
77 91 160  73 89 157  73 89 157  77 91 160  87 100 170  73 89 157
85 98 163  73 89 157  71 92 161  77 91 160  74 87 154  76 88 155
76 88 155  81 94 163  83 93 156  73 81 142  85 98 163  77 91 160
73 81 142  76 88 155  85 98 163  74 87 154  74 85 151  85 98 163
83 93 156  74 87 154  81 94 163  81 94 163  84 97 167  74 87 154
97 109 177  87 100 170  79 98 168  84 101 172  87 105 175  79 98 168
90 108 178  84 101 172  84 101 172  94 117 188  71 96 166  71 96 166
81 107 178  79 98 168  84 101 172  75 94 162  84 101 172  81 107 178
79 103 173  79 103 173  79 103 173  81 107 178  79 103 173  79 103 173
79 103 173  83 111 183  83 111 183  74 107 178  83 111 183  81 107 178
74 109 181  74 103 175  78 113 185  84 115 186  83 111 183  84 115 186
83 111 183  91 121 192  81 107 178  81 107 178  81 107 178  91 121 192
81 107 178  84 115 186  78 113 185  88 113 184  81 107 178  81 107 178
88 113 184  94 117 188  91 121 192  84 115 186  83 111 183  84 115 186
91 121 192  91 121 192  94 114 184  97 117 187  101 131 202  98 121 191
102 124 194  114 140 208  112 136 203  109 131 201  109 131 201  114 140 208
125 133 195  135 146 200  135 146 200  125 133 195  135 161 220  154 168 212
154 168 212  145 166 222  168 181 224  193 197 226  202 209 229  202 209 229
236 236 234  243 242 236  249 249 249  253 253 253  253 253 253  253 253 253
253 253 253  253 253 253  253 253 253  253 253 253  253 253 253  249 249 249
249 249 249  249 249 249  227 227 230  210 220 228  193 197 226  182 190 223
182 190 223  168 181 224  155 173 223  155 173 223  145 166 222  135 161 220
129 151 212  119 147 214  129 151 212  119 147 214  109 131 201  97 135 206
91 121 192  101 131 202  112 143 215  96 127 198  84 121 193  90 128 199
97 135 206  86 124 195  97 135 206  97 135 206  84 121 193  78 119 191
86 124 195  84 121 193  78 119 191  78 119 191  90 128 199  0 0 0
0 0 0  0 0 0  0 0 0  0 0 0  0 0 0  0 0 0
0 0 0  0 0 0  0 0 0  0 0 0  0 0 0  0 0 0
0 0 0  0 0 0  0 0 0  0 0 0  0 0 0  0 0 0
0 0 0  0 0 0  0 0 0  0 0 0  0 0 0  0 0 0
0 0 0  0 0 0  0 0 0  0 0 0  0 0 0  0 0 0
0 0 0  0 0 0  0 0 0  0 0 0  0 0 0  0 0 0
84 97 167  84 97 167  81 94 163  85 98 163  87 100 170  74 87 154
81 94 163  73 89 157  81 94 163  81 94 163  81 94 163  77 91 160
77 91 160  74 85 151  74 87 154  73 89 157  74 87 154  66 74 136
74 85 151  83 93 156  74 85 151  74 87 154  76 88 155  76 88 155
87 100 170  74 87 154  74 85 151  81 94 163  100 115 184  98 113 182
74 87 154  71 92 161  79 98 168  90 108 178  79 98 168  71 96 166
71 96 166  83 111 183  79 103 173  91 111 182  87 100 170  79 103 173
91 111 182  79 103 173  79 103 173  79 103 173  74 103 175  81 107 178
79 98 168  79 98 168  94 117 188  81 107 178  79 103 173  86 110 181
94 114 184  75 94 162  114 140 208  102 124 194  88 113 184  74 109 181
84 115 186  83 111 183  84 115 186  74 107 178  74 107 178  79 103 173
88 113 184  84 115 186  74 107 178  79 103 173  97 109 177  86 110 181
74 109 181  81 107 178  88 113 184  83 111 183  88 113 184  86 110 181
88 113 184  86 110 181  88 113 184  86 110 181  94 117 188  83 111 183
91 121 192  94 117 188  91 111 182  94 117 188  84 115 186  97 117 187
94 114 184  105 128 199  102 124 194  105 128 199  102 124 194  102 124 194
109 131 201  105 128 199  112 136 203  102 124 194  109 131 201  119 147 214
119 147 214  129 151 212  119 147 214  135 161 220  155 173 223  155 173 223
168 181 224  202 209 229  236 236 234  249 249 249  249 249 249  253 253 253
253 253 253  253 253 253  253 253 253  249 249 249  236 236 234  210 220 228
193 197 226  168 181 224  155 173 223  155 173 223  135 161 220  135 161 220
125 154 219  125 154 219  119 147 214  114 140 208  119 147 214  105 139 211
106 133 204  119 147 214  114 140 208  112 143 215  105 139 211  105 139 211
105 139 211  91 132 204  105 139 211  91 132 204  86 130 201  105 139 211
91 132 204  91 132 204  88 113 184  112 136 203  129 151 212  89 118 189
90 128 199  84 121 193  78 113 185  91 121 192  91 121 192  0 0 0
0 0 0  0 0 0  0 0 0  0 0 0  0 0 0  0 0 0
0 0 0  0 0 0  0 0 0  0 0 0  0 0 0  0 0 0
0 0 0  0 0 0  0 0 0  0 0 0  0 0 0  0 0 0
0 0 0  0 0 0  0 0 0  0 0 0  0 0 0  0 0 0
0 0 0  0 0 0  0 0 0  0 0 0  0 0 0  0 0 0
0 0 0  0 0 0  0 0 0  0 0 0  0 0 0  0 0 0
84 97 167  84 97 167  77 91 160  77 91 160  87 100 170  75 94 162
77 91 160  73 89 157  77 91 160  81 94 163  77 91 160  76 88 155
77 91 160  74 85 151  73 89 157  76 88 155  69 77 138  92 103 172
74 85 151  84 97 167  74 85 151  74 87 154  74 85 151  85 98 163
76 88 155  77 91 160  77 91 160  100 115 184  92 103 172  81 94 163
75 94 162  87 105 175  93 110 180  79 98 168  84 101 172  87 105 175
90 108 178  79 103 173  79 103 173  91 111 182  87 105 175  79 103 173
71 96 166  90 108 178  87 105 175  81 107 178  79 98 168  79 103 173
86 110 181  79 103 173  97 117 187  86 110 181  79 103 173  79 103 173
86 110 181  91 111 182  79 98 168  74 103 175  74 103 175  81 107 178
74 103 175  74 107 178  81 107 178  83 111 183  84 115 186  83 111 183
91 121 192  83 111 183  74 103 175  119 147 214  129 151 212  79 103 173
78 113 185  83 111 183  81 107 178  83 111 183  86 110 181  88 113 184
86 110 181  88 113 184  81 107 178  81 107 178  94 117 188  88 113 184
86 110 181  88 113 184  94 117 188  88 113 184  94 117 188  86 110 181
94 117 188  94 114 184  87 105 175  101 120 189  98 121 191  94 117 188
101 120 189  114 140 208  101 120 189  109 131 201  114 140 208  112 136 203
112 136 203  114 140 208  119 147 214  125 154 219  135 161 220  145 166 222
168 181 224  193 197 226  210 220 228  236 236 234  249 249 249  253 253 253
253 253 253  253 253 253  249 249 249  236 236 234  210 220 228  202 209 229
193 197 226  168 181 224  145 166 222  135 161 220  135 161 220  119 147 214
125 154 219  119 147 214  112 143 215  106 133 204  101 131 202  105 139 211
105 128 199  112 136 203  106 133 204  96 127 198  90 128 199  96 127 198
101 131 202  86 124 195  86 124 195  86 124 195  91 132 204  84 121 193
84 121 193  96 127 198  112 143 215  93 124 195  105 139 211  84 115 186
84 121 193  78 119 191  84 121 193  86 124 195  78 113 185  0 0 0
0 0 0  0 0 0  0 0 0  0 0 0  0 0 0  0 0 0
0 0 0  0 0 0  0 0 0  0 0 0  0 0 0  0 0 0
0 0 0  0 0 0  0 0 0  0 0 0  0 0 0  0 0 0
0 0 0  0 0 0  0 0 0  0 0 0  0 0 0  0 0 0
0 0 0  0 0 0  0 0 0  0 0 0  0 0 0  0 0 0
0 0 0  0 0 0  0 0 0  0 0 0  0 0 0  0 0 0
81 94 163  73 89 157  81 94 163  81 94 163  87 105 175  84 101 172
73 89 157  74 87 154  74 85 151  73 89 157  74 87 154  73 89 157
77 91 160  74 87 154  74 85 151  83 93 156  97 109 177  76 88 155
74 87 154  74 87 154  74 85 151  76 88 155  74 85 151  74 85 151
81 94 163  87 105 175  73 89 157  73 89 157  74 85 151  79 98 168
91 111 182  87 105 175  84 101 172  87 105 175  81 107 178  87 105 175
84 101 172  98 121 191  87 105 175  90 108 178  79 98 168  79 103 173
94 117 188  94 114 184  71 96 166  79 103 173  88 113 184  79 98 168
81 107 178  79 103 173  79 98 168  79 103 173  86 110 181  81 107 178
70 100 171  81 107 178  81 107 178  84 115 186  81 107 178  89 118 189
88 113 184  83 111 183  81 107 178  84 115 186  94 117 188  83 111 183
81 107 178  81 107 178  81 107 178  86 110 181  105 128 199  89 118 189
74 103 175  86 110 181  88 113 184  86 110 181  94 117 188  86 110 181
102 124 194  86 110 181  86 110 181  86 110 181  86 110 181  94 117 188
94 117 188  88 113 184  86 110 181  88 113 184  94 114 184  81 107 178
83 111 183  94 117 188  94 117 188  88 113 184  94 117 188  102 124 194
102 124 194  94 114 184  101 120 189  109 131 201  105 128 199  114 140 208
114 140 208  105 128 199  114 140 208  119 147 214  135 161 220  145 166 222
155 173 223  182 190 223  202 209 229  210 220 228  236 236 234  249 249 249
253 253 253  249 249 249  249 249 249  210 220 228  202 209 229  193 197 226
168 181 224  145 166 222  135 161 220  135 161 220  125 154 219  112 143 215
119 147 214  119 147 214  105 139 211  105 139 211  105 139 211  114 140 208
114 140 208  119 147 214  105 139 211  97 135 206  90 128 199  129 151 212
125 154 219  86 124 195  86 124 195  97 135 206  84 115 186  112 143 215
101 131 202  112 143 215  105 139 211  74 112 184  74 112 184  86 124 195
96 127 198  89 118 189  86 124 195  78 119 191  86 124 195  0 0 0
0 0 0  0 0 0  0 0 0  0 0 0  0 0 0  0 0 0
0 0 0  0 0 0  0 0 0  0 0 0  0 0 0  0 0 0
0 0 0  0 0 0  0 0 0  0 0 0  0 0 0  0 0 0
0 0 0  0 0 0  0 0 0  0 0 0  0 0 0  0 0 0
0 0 0  0 0 0  0 0 0  0 0 0  0 0 0  0 0 0
0 0 0  0 0 0  0 0 0  0 0 0  0 0 0  0 0 0
81 94 163  77 91 160  77 91 160  73 89 157  77 91 160  74 87 154
84 101 172  73 89 157  84 97 167  73 89 157  74 87 154  77 91 160
87 100 170  79 98 168  73 89 157  76 88 155  112 124 189  73 81 142
73 89 157  77 91 160  85 98 163  76 88 155  84 97 167  81 94 163
77 91 160  73 89 157  74 87 154  94 114 184  102 118 186  73 89 157
84 101 172  84 101 172  84 101 172  84 101 172  79 103 173  86 110 181
79 103 173  87 105 175  79 98 168  79 98 168  81 107 178  71 96 166
87 105 175  79 103 173  79 103 173  79 103 173  71 96 166  79 103 173
79 103 173  86 110 181  90 108 178  90 108 178  88 113 184  86 110 181
70 100 171  86 110 181  91 111 182  70 100 171  74 103 175  86 110 181
81 107 178  86 110 181  86 110 181  81 107 178  79 103 173  88 113 184
81 107 178  88 113 184  84 115 186  83 111 183  81 107 178  74 103 175
83 111 183  86 110 181  86 110 181  81 107 178  102 124 194  91 111 182
91 111 182  94 114 184  94 117 188  83 111 183  94 117 188  81 107 178
91 111 182  98 121 191  83 111 183  88 113 184  88 113 184  83 111 183
102 124 194  88 113 184  98 121 191  98 121 191  91 121 192  94 117 188
102 124 194  94 117 188  102 124 194  102 124 194  105 128 199  112 136 203
114 140 208  106 133 204  109 131 201  119 147 214  125 154 219  135 161 220
155 173 223  168 181 224  182 190 223  202 209 229  227 227 230  236 236 234
253 253 253  249 249 249  227 227 230  193 197 226  168 181 224  155 173 223
145 166 222  125 154 219  125 154 219  125 154 219  125 154 219  112 143 215
105 139 211  105 139 211  105 139 211  101 131 202  105 139 211  112 143 215
106 133 204  105 139 211  97 135 206  86 124 195  90 128 199  109 131 201
114 140 208  86 124 195  97 135 206  97 135 206  101 131 202  119 147 214
96 127 198  89 118 189  89 118 189  86 124 195  86 124 195  78 113 185
101 131 202  74 109 181  84 121 193  84 121 193  91 121 192  0 0 0
0 0 0  0 0 0  0 0 0  0 0 0  0 0 0  0 0 0
0 0 0  0 0 0  0 0 0  0 0 0  0 0 0  0 0 0
0 0 0  0 0 0  0 0 0  0 0 0  0 0 0  0 0 0
0 0 0  0 0 0  0 0 0  0 0 0  0 0 0  0 0 0
0 0 0  0 0 0  0 0 0  0 0 0  0 0 0  0 0 0
0 0 0  0 0 0  0 0 0  0 0 0  0 0 0  0 0 0
74 85 151  76 88 155  74 87 154  87 100 170  85 98 163  85 98 163
81 94 163  73 89 157  87 100 170  81 94 163  76 88 155  81 94 163
81 94 163  69 77 138  87 100 170  74 85 151  77 91 160  77 91 160
69 77 138  81 94 163  81 94 163  81 94 163  76 88 155  76 88 155
73 89 157  79 98 168  84 101 172  79 98 168  79 98 168  79 98 168
87 105 175  87 105 175  91 111 182  86 110 181  71 96 166  79 103 173
86 110 181  91 111 182  79 98 168  86 110 181  87 105 175  79 98 168
79 98 168  79 98 168  84 101 172  79 98 168  79 103 173  81 107 178
79 103 173  79 98 168  101 120 189  94 114 184  84 101 172  87 105 175
79 98 168  87 105 175  98 121 191  90 108 178  102 124 194  94 117 188
89 118 189  79 103 173  81 107 178  81 107 178  81 107 178  88 113 184
86 110 181  88 113 184  83 111 183  88 113 184  83 111 183  81 107 178
89 118 189  94 117 188  81 107 178  79 103 173  79 103 173  91 111 182
87 105 175  94 114 184  91 111 182  88 113 184  86 110 181  86 110 181
88 113 184  98 121 191  79 103 173  94 117 188  88 113 184  91 111 182
94 117 188  81 107 178  94 117 188  88 113 184  94 117 188  94 117 188
98 121 191  105 128 199  94 117 188  105 128 199  105 128 199  105 128 199
105 128 199  114 140 208  114 140 208  114 140 208  119 147 214  135 161 220
135 161 220  155 173 223  168 181 224  182 190 223  202 209 229  210 220 228
253 253 253  227 227 230  193 197 226  168 181 224  145 166 222  145 166 222
145 166 222  135 161 220  125 154 219  125 154 219  112 143 215  125 154 219
112 143 215  112 143 215  101 131 202  105 139 211  105 139 211  97 135 206
90 128 199  90 128 199  91 132 204  90 128 199  90 128 199  84 121 193
84 121 193  91 132 204  86 124 195  90 128 199  86 124 195  84 121 193
84 121 193  90 128 199  96 127 198  90 128 199  93 124 195  74 109 181
96 127 198  105 139 211  89 118 189  119 147 214  93 124 195  0 0 0
0 0 0  0 0 0  0 0 0  0 0 0  0 0 0  0 0 0
0 0 0  0 0 0  0 0 0  0 0 0  0 0 0  0 0 0
0 0 0  0 0 0  0 0 0  0 0 0  0 0 0  0 0 0
0 0 0  0 0 0  0 0 0  0 0 0  0 0 0  0 0 0
0 0 0  0 0 0  0 0 0  0 0 0  0 0 0  0 0 0
0 0 0  0 0 0  0 0 0  0 0 0  0 0 0  0 0 0
125 133 195  100 115 184  76 88 155  77 91 160  87 100 170  84 97 167
74 87 154  77 91 160  74 85 151  74 87 154  81 94 163  77 91 160
81 94 163  73 89 157  74 87 154  81 94 163  74 85 151  74 87 154
87 100 170  84 97 167  77 91 160  76 88 155  87 100 170  81 94 163
74 85 151  77 91 160  79 98 168  87 105 175  79 98 168  93 110 180
87 105 175  79 98 168  87 105 175  84 101 172  94 114 184  71 92 161
79 103 173  87 105 175  81 107 178  90 108 178  87 105 175  84 101 172
90 108 178  84 101 172  81 94 163  87 105 175  79 98 168  79 103 173
86 110 181  87 105 175  75 94 162  90 108 178  87 105 175  84 101 172
101 120 189  79 98 168  84 101 172  129 151 212  112 136 203  79 98 168
81 107 178  79 103 173  88 113 184  94 117 188  81 107 178  88 113 184
81 107 178  81 107 178  83 111 183  88 113 184  81 107 178  81 107 178
89 118 189  81 107 178  86 110 181  86 110 181  81 107 178  90 108 178
94 114 184  94 114 184  87 105 175  86 110 181  88 113 184  86 110 181
97 117 187  94 117 188  88 113 184  86 110 181  105 128 199  86 110 181
94 117 188  97 117 187  94 117 188  88 113 184  89 118 189  109 131 201
86 110 181  98 121 191  105 128 199  94 117 188  112 136 203  112 136 203
105 128 199  112 136 203  114 140 208  112 136 203  129 151 212  145 166 222
135 161 220  145 166 222  155 173 223  155 173 223  182 190 223  202 209 229
249 249 249  202 209 229  168 181 224  168 181 224  155 173 223  145 166 222
145 166 222  145 166 222  114 140 208  119 147 214  119 147 214  112 143 215
105 139 211  101 131 202  135 161 220  105 139 211  106 133 204  97 135 206
93 124 195  96 127 198  97 135 206  90 128 199  84 121 193  86 130 201
91 132 204  90 128 199  90 128 199  86 124 195  86 130 201  90 128 199
86 124 195  86 124 195  84 115 186  86 124 195  84 115 186  86 124 195
90 128 199  125 154 219  88 113 184  105 128 199  84 115 186  0 0 0
0 0 0  0 0 0  0 0 0  0 0 0  0 0 0  0 0 0
0 0 0  0 0 0  0 0 0  0 0 0  0 0 0  0 0 0
0 0 0  0 0 0  0 0 0  0 0 0  0 0 0  0 0 0
0 0 0  0 0 0  0 0 0  0 0 0  0 0 0  0 0 0
0 0 0  0 0 0  0 0 0  0 0 0  0 0 0  0 0 0
0 0 0  0 0 0  0 0 0  0 0 0  0 0 0  0 0 0
102 118 186  97 109 177  77 91 160  81 94 163  81 94 163  81 94 163
74 87 154  77 91 160  81 94 163  73 89 157  77 91 160  77 91 160
84 97 167  81 94 163  81 94 163  77 91 160  74 85 151  87 100 170
81 94 163  74 87 154  73 89 157  77 91 160  76 88 155  87 100 170
87 100 170  79 98 168  79 98 168  84 101 172  73 89 157  93 110 180
79 98 168  79 98 168  79 98 168  87 105 175  79 98 168  102 118 186
101 120 189  79 98 168  79 103 173  86 110 181  79 98 168  75 94 162
79 98 168  84 101 172  79 103 173  90 108 178  84 101 172  79 98 168
84 101 172  87 105 175  81 94 163  84 101 172  90 108 178  84 101 172
94 114 184  93 110 180  97 109 177  79 98 168  84 101 172  90 108 178
94 114 184  91 111 182  81 107 178  86 110 181  79 103 173  83 111 183
79 103 173  94 114 184  74 103 175  81 107 178  81 107 178  83 111 183
86 110 181  81 107 178  86 110 181  79 103 173  94 114 184  86 110 181
88 113 184  91 111 182  90 108 178  88 113 184  86 110 181  88 113 184
88 113 184  102 124 194  105 128 199  94 117 188  94 117 188  88 113 184
88 113 184  94 117 188  94 117 188  88 113 184  94 117 188  98 121 191
98 121 191  105 128 199  106 133 204  94 117 188  106 133 204  105 128 199
109 131 201  119 147 214  109 131 201  112 136 203  112 136 203  125 154 219
135 161 220  129 151 212  145 166 222  145 166 222  168 181 224  193 197 226
249 249 249  182 190 223  155 173 223  155 173 223  145 166 222  125 154 219
145 166 222  135 161 220  119 147 214  125 154 219  112 143 215  105 139 211
105 139 211  101 131 202  119 147 214  96 127 198  106 133 204  96 127 198
101 131 202  86 124 195  91 132 204  97 135 206  96 127 198  97 135 206
90 128 199  97 135 206  93 124 195  90 128 199  86 124 195  90 128 199
97 135 206  78 119 191  91 132 204  90 128 199  84 115 186  86 124 195
74 112 184  84 121 193  84 115 186  91 121 192  78 113 185  0 0 0
0 0 0  0 0 0  0 0 0  0 0 0  0 0 0  0 0 0
0 0 0  0 0 0  0 0 0  0 0 0  0 0 0  0 0 0
0 0 0  0 0 0  0 0 0  0 0 0  0 0 0  0 0 0
0 0 0  0 0 0  0 0 0  0 0 0  0 0 0  0 0 0
0 0 0  0 0 0  0 0 0  0 0 0  0 0 0  0 0 0
0 0 0  0 0 0  0 0 0  0 0 0  0 0 0  0 0 0
74 85 151  74 85 151  84 101 172  81 94 163  84 97 167  84 97 167
73 89 157  74 87 154  81 94 163  77 91 160  74 87 154  81 94 163
76 88 155  76 88 155  74 87 154  81 94 163  77 91 160  76 88 155
74 87 154  74 87 154  77 91 160  93 106 175  85 98 163  77 91 160
81 94 163  84 101 172  71 92 161  84 101 172  79 98 168  87 105 175
75 94 162  84 101 172  94 114 184  79 98 168  93 110 180  100 115 184
93 110 180  79 103 173  94 117 188  79 103 173  87 105 175  94 114 184
84 101 172  84 101 172  84 101 172  84 101 172  75 94 162  90 108 178
97 117 187  71 92 161  87 105 175  90 108 178  102 118 186  84 101 172
79 98 168  94 114 184  87 100 170  87 105 175  81 107 178  87 105 175
86 110 181  79 98 168  79 103 173  79 103 173  86 110 181  81 107 178
98 121 191  105 128 199  74 103 175  91 121 192  81 107 178  83 111 183
88 113 184  83 111 183  81 107 178  91 111 182  91 111 182  91 111 182
87 105 175  91 111 182  90 108 178  101 120 189  94 114 184  86 110 181
94 117 188  86 110 181  94 114 184  81 107 178  91 111 182  89 118 189
88 113 184  97 117 187  98 121 191  98 121 191  94 117 188  91 111 182
109 131 201  102 124 194  88 113 184  102 124 194  93 124 195  98 121 191
112 136 203  112 136 203  105 128 199  119 147 214  114 140 208  125 154 219
129 151 212  129 151 212  125 154 219  145 166 222  145 166 222  182 190 223
236 236 234  168 181 224  145 166 222  145 166 222  135 161 220  119 147 214
125 154 219  119 147 214  106 133 204  112 143 215  106 133 204  105 139 211
112 143 215  106 133 204  101 131 202  105 139 211  96 127 198  96 127 198
112 143 215  96 127 198  93 124 195  90 128 199  93 124 195  90 128 199
89 118 189  101 131 202  86 124 195  90 128 199  90 128 199  93 124 195
96 127 198  84 121 193  86 124 195  78 113 185  101 131 202  91 132 204
97 135 206  84 121 193  97 135 206  90 128 199  84 121 193  0 0 0
0 0 0  0 0 0  0 0 0  0 0 0  0 0 0  0 0 0
0 0 0  0 0 0  0 0 0  0 0 0  0 0 0  0 0 0
0 0 0  0 0 0  0 0 0  0 0 0  0 0 0  0 0 0
0 0 0  0 0 0  0 0 0  0 0 0  0 0 0  0 0 0
0 0 0  0 0 0  0 0 0  0 0 0  0 0 0  0 0 0
0 0 0  0 0 0  0 0 0  0 0 0  0 0 0  0 0 0
81 94 163  84 101 172  74 85 151  74 87 154  98 113 182  76 88 155
77 91 160  93 106 175  76 88 155  73 89 157  81 94 163  77 91 160
74 87 154  77 91 160  85 98 163  76 88 155  77 91 160  81 94 163
87 100 170  81 94 163  79 98 168  81 94 163  77 91 160  84 97 167
84 97 167  79 98 168  79 98 168  79 98 168  79 98 168  84 101 172
75 94 162  84 101 172  79 103 173  73 89 157  87 105 175  79 103 173
79 103 173  84 101 172  94 114 184  71 92 161  86 110 181  87 105 175
84 101 172  84 101 172  84 101 172  87 105 175  87 105 175  87 105 175
87 105 175  84 101 172  90 108 178  84 97 167  98 113 182  102 118 186
90 108 178  84 101 172  90 108 178  94 117 188  81 107 178  81 107 178
79 103 173  81 107 178  94 114 184  81 107 178  83 111 183  81 107 178
98 121 191  83 111 183  81 107 178  94 117 188  102 124 194  88 113 184
88 113 184  88 113 184  91 111 182  88 113 184  86 110 181  86 110 181
94 117 188  94 117 188  90 108 178  91 111 182  91 111 182  86 110 181
94 117 188  94 117 188  90 108 178  98 121 191  94 117 188  88 113 184
88 113 184  94 114 184  98 121 191  102 124 194  102 124 194  97 117 187
109 131 201  102 124 194  102 124 194  102 124 194  102 124 194  112 136 203
114 140 208  105 128 199  114 140 208  114 140 208  105 128 199  119 147 214
119 147 214  129 151 212  125 154 219  135 161 220  135 161 220  168 181 224
210 220 228  155 173 223  135 161 220  135 161 220  125 154 219  114 140 208
125 154 219  135 161 220  112 143 215  105 139 211  101 131 202  112 143 215
96 127 198  96 127 198  96 127 198  101 131 202  101 131 202  101 131 202
93 124 195  97 135 206  90 128 199  96 127 198  89 118 189  89 118 189
97 135 206  93 124 195  96 127 198  93 124 195  89 118 189  84 121 193
84 121 193  101 131 202  101 131 202  91 121 192  97 135 206  78 113 185
86 124 195  84 121 193  106 133 204  86 124 195  86 124 195  0 0 0
0 0 0  0 0 0  0 0 0  0 0 0  0 0 0  0 0 0
0 0 0  0 0 0  0 0 0  0 0 0  0 0 0  0 0 0
0 0 0  0 0 0  0 0 0  0 0 0  0 0 0  0 0 0
0 0 0  0 0 0  0 0 0  0 0 0  0 0 0  0 0 0
0 0 0  0 0 0  0 0 0  0 0 0  0 0 0  0 0 0
0 0 0  0 0 0  0 0 0  0 0 0  0 0 0  0 0 0
74 87 154  81 94 163  84 97 167  87 100 170  77 91 160  102 118 186
97 109 177  76 88 155  84 97 167  92 103 172  81 94 163  81 94 163
81 94 163  84 97 167  77 91 160  76 88 155  73 89 157  77 91 160
79 98 168  79 98 168  75 94 162  79 98 168  73 89 157  84 101 172
84 101 172  74 87 154  87 105 175  87 105 175  75 94 162  97 117 187
79 98 168  84 101 172  94 114 184  94 114 184  79 103 173  71 96 166
79 103 173  94 114 184  84 101 172  84 101 172  81 107 178  79 98 168
84 101 172  87 105 175  90 108 178  101 120 189  90 108 178  84 101 172
84 101 172  84 101 172  84 101 172  90 108 178  87 105 175  87 100 170
98 113 182  87 105 175  79 98 168  87 105 175  86 110 181  81 107 178
81 107 178  88 113 184  91 111 182  79 103 173  94 117 188  86 110 181
74 103 175  84 115 186  81 107 178  109 131 201  87 105 175  81 107 178
83 111 183  83 111 183  83 111 183  86 110 181  86 110 181  83 111 183
86 110 181  88 113 184  102 124 194  94 117 188  94 117 188  79 103 173
86 110 181  98 121 191  91 111 182  91 111 182  94 114 184  93 110 180
93 110 180  102 124 194  94 114 184  90 108 178  101 120 189  94 114 184
97 117 187  97 117 187  101 120 189  102 124 194  102 124 194  109 131 201
97 117 187  102 124 194  114 140 208  135 161 220  112 136 203  109 131 201
129 151 212  125 154 219  125 154 219  125 154 219  145 166 222  155 173 223
202 209 229  145 166 222  145 166 222  125 154 219  135 161 220  125 154 219
112 143 215  101 131 202  105 139 211  112 143 215  101 131 202  101 131 202
112 143 215  105 139 211  93 124 195  101 131 202  96 127 198  96 127 198
84 121 193  90 128 199  91 121 192  90 128 199  93 124 195  91 121 192
101 131 202  90 128 199  89 118 189  112 143 215  93 124 195  101 131 202
90 128 199  91 121 192  114 140 208  91 121 192  90 128 199  84 121 193
78 119 191  90 128 199  91 121 192  84 121 193  86 124 195  0 0 0
0 0 0  0 0 0  0 0 0  0 0 0  0 0 0  0 0 0
0 0 0  0 0 0  0 0 0  0 0 0  0 0 0  0 0 0
0 0 0  0 0 0  0 0 0  0 0 0  0 0 0  0 0 0
0 0 0  0 0 0  0 0 0  0 0 0  0 0 0  0 0 0
0 0 0  0 0 0  0 0 0  0 0 0  0 0 0  0 0 0
0 0 0  0 0 0  0 0 0  0 0 0  0 0 0  0 0 0
77 91 160  87 100 170  84 101 172  79 98 168  77 91 160  81 94 163
85 98 163  77 91 160  81 94 163  77 91 160  81 94 163  74 85 151
76 88 155  75 94 162  87 100 170  87 100 170  84 97 167  84 101 172
77 91 160  87 100 170  81 94 163  90 108 178  84 97 167  79 98 168
87 105 175  79 98 168  81 94 163  90 108 178  75 94 162  84 101 172
79 103 173  71 92 161  94 114 184  79 98 168  97 117 187  125 154 219
81 107 178  97 117 187  75 94 162  97 117 187  90 108 178  90 108 178
84 101 172  90 108 178  87 100 170  90 108 178  84 101 172  87 105 175
98 113 182  84 101 172  87 100 170  93 110 180  93 110 180  84 97 167
93 110 180  91 111 182  84 101 172  86 110 181  87 105 175  79 98 168
81 107 178  81 107 178  79 103 173  79 103 173  98 121 191  81 107 178
83 111 183  83 111 183  83 111 183  74 103 175  94 117 188  86 110 181
88 113 184  88 113 184  81 107 178  94 117 188  79 103 173  88 113 184
94 117 188  88 113 184  81 107 178  86 110 181  86 110 181  94 117 188
94 117 188  86 110 181  94 117 188  91 121 192  87 105 175  112 124 189
98 113 182  112 136 203  93 110 180  101 120 189  98 121 191  102 124 194
101 120 189  102 118 186  105 128 199  97 117 187  98 121 191  112 136 203
109 131 201  98 121 191  114 140 208  106 133 204  109 131 201  119 147 214
114 140 208  125 154 219  112 143 215  135 161 220  145 166 222  135 146 200
202 209 229  145 166 222  135 161 220  135 161 220  129 151 212  119 147 214
119 147 214  114 140 208  106 133 204  105 139 211  106 133 204  106 133 204
105 139 211  101 131 202  96 127 198  96 127 198  101 131 202  101 131 202
93 124 195  96 127 198  91 121 192  90 128 199  93 124 195  90 128 199
96 127 198  84 121 193  86 124 195  106 133 204  86 124 195  84 121 193
84 115 186  101 131 202  84 121 193  84 115 186  84 121 193  84 121 193
89 118 189  84 115 186  93 124 195  97 135 206  91 121 192  0 0 0
0 0 0  0 0 0  0 0 0  0 0 0  0 0 0  0 0 0
0 0 0  0 0 0  0 0 0  0 0 0  0 0 0  0 0 0
0 0 0  0 0 0  0 0 0  0 0 0  0 0 0  0 0 0
0 0 0  0 0 0  0 0 0  0 0 0  0 0 0  0 0 0
0 0 0  0 0 0  0 0 0  0 0 0  0 0 0  0 0 0
0 0 0  0 0 0  0 0 0  0 0 0  0 0 0  0 0 0
81 94 163  81 94 163  84 97 167  73 89 157  73 89 157  87 100 170
77 91 160  81 94 163  75 94 162  77 91 160  102 118 186  100 115 184
74 85 151  74 85 151  84 97 167  87 100 170  74 87 154  74 85 151
74 87 154  79 98 168  84 101 172  84 97 167  81 94 163  75 94 162
84 101 172  100 115 184  71 92 161  79 98 168  94 114 184  79 103 173
86 110 181  87 105 175  87 105 175  79 98 168  71 96 166  98 121 191
73 89 157  79 98 168  102 124 194  84 97 167  79 98 168  87 105 175
84 101 172  87 105 175  87 105 175  87 105 175  87 100 170  90 108 178
81 94 163  79 98 168  92 103 172  87 100 170  97 109 177  87 105 175
90 108 178  87 105 175  87 105 175  102 124 194  84 101 172  81 107 178
79 103 173  87 105 175  101 120 189  93 110 180  97 117 187  83 111 183
94 117 188  88 113 184  88 113 184  81 107 178  93 124 195  94 117 188
81 107 178  88 113 184  81 107 178  98 121 191  86 110 181  102 124 194
88 113 184  89 118 189  86 110 181  88 113 184  88 113 184  94 114 184
86 110 181  88 113 184  88 113 184  88 113 184  86 110 181  102 118 186
129 151 212  101 120 189  101 120 189  101 120 189  97 117 187  101 120 189
101 120 189  97 117 187  101 120 189  101 120 189  94 117 188  109 131 201
98 121 191  102 124 194  112 136 203  112 136 203  97 117 187  114 140 208
114 140 208  119 147 214  114 140 208  119 147 214  119 147 214  129 151 212
182 190 223  145 166 222  135 161 220  125 154 219  114 140 208  114 140 208
114 140 208  114 140 208  112 143 215  119 147 214  101 131 202  101 131 202
101 131 202  96 127 198  101 131 202  96 127 198  101 131 202  91 121 192
101 131 202  91 121 192  96 127 198  96 127 198  93 124 195  96 127 198
84 121 193  91 132 204  78 113 185  91 121 192  89 118 189  91 121 192
96 127 198  89 118 189  84 121 193  84 115 186  78 113 185  96 127 198
101 131 202  106 133 204  86 124 195  90 128 199  93 124 195  0 0 0
0 0 0  0 0 0  0 0 0  0 0 0  0 0 0  0 0 0
0 0 0  0 0 0  0 0 0  0 0 0  0 0 0  0 0 0
0 0 0  0 0 0  0 0 0  0 0 0  0 0 0  0 0 0
0 0 0  0 0 0  0 0 0  0 0 0  0 0 0  0 0 0
0 0 0  0 0 0  0 0 0  0 0 0  0 0 0  0 0 0
0 0 0  0 0 0  0 0 0  0 0 0  0 0 0  0 0 0
93 106 175  93 106 175  85 98 163  92 103 172  81 94 163  81 94 163
81 94 163  84 97 167  84 97 167  76 88 155  92 103 172  135 161 220
81 94 163  91 100 170  77 91 160  76 88 155  93 106 175  81 94 163
112 124 189  81 94 163  77 91 160  84 97 167  93 110 180  87 105 175
87 105 175  100 115 184  87 105 175  75 94 162  87 105 175  84 101 172
79 98 168  79 103 173  84 101 172  94 117 188  87 105 175  71 92 161
102 124 194  109 131 201  90 108 178  84 101 172  87 105 175  87 105 175
84 101 172  93 106 175  87 105 175  98 113 182  93 106 175  75 94 162
100 115 184  112 124 189  84 97 167  87 105 175  90 108 178  87 105 175
84 101 172  87 105 175  84 101 172  91 111 182  79 103 173  86 110 181
84 101 172  112 124 189  135 146 200  93 106 175  91 111 182  79 103 173
94 114 184  94 114 184  90 108 178  79 103 173  81 107 178  86 110 181
91 111 182  88 113 184  86 110 181  98 121 191  79 103 173  89 118 189
88 113 184  86 110 181  94 117 188  98 121 191  94 114 184  79 103 173
86 110 181  102 124 194  87 105 175  94 114 184  94 114 184  102 118 186
93 106 175  90 108 178  102 124 194  98 113 182  101 120 189  102 118 186
101 120 189  93 110 180  105 128 199  102 124 194  105 128 199  109 131 201
102 124 194  97 117 187  109 131 201  109 131 201  109 131 201  109 131 201
105 128 199  114 140 208  125 154 219  114 140 208  129 151 212  129 151 212
168 181 224  135 161 220  114 140 208  114 140 208  119 147 214  119 147 214
105 139 211  106 133 204  101 131 202  101 131 202  93 124 195  101 131 202
96 127 198  105 139 211  96 127 198  101 131 202  105 128 199  91 121 192
106 133 204  91 121 192  86 124 195  84 115 186  93 124 195  83 111 183
84 121 193  101 131 202  96 127 198  96 127 198  96 127 198  91 121 192
105 139 211  84 115 186  96 127 198  86 124 195  91 121 192  96 127 198
101 131 202  105 139 211  78 119 191  89 118 189  90 128 199  0 0 0
0 0 0  0 0 0  0 0 0  0 0 0  0 0 0  0 0 0
0 0 0  0 0 0  0 0 0  0 0 0  0 0 0  0 0 0
0 0 0  0 0 0  0 0 0  0 0 0  0 0 0  0 0 0
0 0 0  0 0 0  0 0 0  0 0 0  0 0 0  0 0 0
0 0 0  0 0 0  0 0 0  0 0 0  0 0 0  0 0 0
0 0 0  0 0 0  0 0 0  0 0 0  0 0 0  0 0 0
76 88 155  84 97 167  84 97 167  92 103 172  77 91 160  84 97 167
92 103 172  81 94 163  84 97 167  81 94 163  81 94 163  73 81 142
69 77 138  98 113 182  112 124 189  74 87 154  100 115 184  87 100 170
129 151 212  112 124 189  87 100 170  98 113 182  98 113 182  77 91 160
90 108 178  100 115 184  87 105 175  71 92 161  79 98 168  79 98 168
87 105 175  94 114 184  84 101 172  87 105 175  79 103 173  84 101 172
102 124 194  102 124 194  79 98 168  79 98 168  94 117 188  79 98 168
93 110 180  87 105 175  84 97 167  92 103 172  93 106 175  84 97 167
100 115 184  102 118 186  84 97 167  93 110 180  84 101 172  84 101 172
93 110 180  87 105 175  86 110 181  97 117 187  81 107 178  88 113 184
90 108 178  83 93 156  155 173 223  102 118 186  88 113 184  91 121 192
79 103 173  102 118 186  129 151 212  86 110 181  83 111 183  102 124 194
86 110 181  94 114 184  86 110 181  81 107 178  83 111 183  88 113 184
81 107 178  86 110 181  88 113 184  94 114 184  97 117 187  94 117 188
88 113 184  81 107 178  94 117 188  101 120 189  98 113 182  97 117 187
102 118 186  101 120 189  93 110 180  91 111 182  101 120 189  102 118 186
98 113 182  101 120 189  102 124 194  102 118 186  101 120 189  101 120 189
109 131 201  109 131 201  101 120 189  105 128 199  114 140 208  106 133 204
109 131 201  145 166 222  106 133 204  114 140 208  129 151 212  114 140 208
168 181 224  135 161 220  129 151 212  125 154 219  112 136 203  109 131 201
114 140 208  101 131 202  96 127 198  96 127 198  101 131 202  106 133 204
101 131 202  96 127 198  93 124 195  96 127 198  102 124 194  96 127 198
93 124 195  89 118 189  93 124 195  96 127 198  91 121 192  101 131 202
96 127 198  84 115 186  84 121 193  96 127 198  96 127 198  84 115 186
91 121 192  91 121 192  101 131 202  96 127 198  93 124 195  78 113 185
84 121 193  78 113 185  84 115 186  84 121 193  89 118 189  0 0 0
0 0 0  0 0 0  0 0 0  0 0 0  0 0 0  0 0 0
0 0 0  0 0 0  0 0 0  0 0 0  0 0 0  0 0 0
0 0 0  0 0 0  0 0 0  0 0 0  0 0 0  0 0 0
0 0 0  0 0 0  0 0 0  0 0 0  0 0 0  0 0 0
0 0 0  0 0 0  0 0 0  0 0 0  0 0 0  0 0 0
0 0 0  0 0 0  0 0 0  0 0 0  0 0 0  0 0 0
92 103 172  81 94 163  77 91 160  81 94 163  87 100 170  77 91 160
84 97 167  76 88 155  84 97 167  87 100 170  84 97 167  93 106 175
92 103 172  97 109 177  92 100 166  81 94 163  81 94 163  73 89 157
74 87 154  102 124 194  84 97 167  87 100 170  97 109 177  75 94 162
84 101 172  84 101 172  79 98 168  90 108 178  93 110 180  90 108 178
90 108 178  97 117 187  90 108 178  102 124 194  84 101 172  91 111 182
84 101 172  91 111 182  87 105 175  87 105 175  84 101 172  84 101 172
90 108 178  98 113 182  98 113 182  84 97 167  92 103 172  98 113 182
84 97 167  87 100 170  87 100 170  93 106 175  84 97 167  98 113 182
94 114 184  91 111 182  94 114 184  93 110 180  79 98 168  88 113 184
90 108 178  97 109 177  112 136 203  84 101 172  98 121 191  84 115 186
102 124 194  98 121 191  109 131 201  98 121 191  81 107 178  94 117 188
88 113 184  88 113 184  94 114 184  94 117 188  83 111 183  88 113 184
89 118 189  94 114 184  94 117 188  87 105 175  112 136 203  102 124 194
86 110 181  86 110 181  94 114 184  155 173 223  102 118 186  90 108 178
100 115 184  102 118 186  93 110 180  93 110 180  98 113 182  102 118 186
98 113 182  102 118 186  102 118 186  101 120 189  102 124 194  94 114 184
109 131 201  114 140 208  102 124 194  101 120 189  102 124 194  106 133 204
105 128 199  112 136 203  109 131 201  114 140 208  114 140 208  129 151 212
145 166 222  135 161 220  112 136 203  119 147 214  114 140 208  114 140 208
112 136 203  106 133 204  106 133 204  96 127 198  106 133 204  106 133 204
96 127 198  98 121 191  101 131 202  106 133 204  93 124 195  93 124 195
101 131 202  89 118 189  101 131 202  93 124 195  86 124 195  105 128 199
135 161 220  89 118 189  84 121 193  89 118 189  84 115 186  91 121 192
86 124 195  93 124 195  84 115 186  84 115 186  96 127 198  84 121 193
86 124 195  86 124 195  105 139 211  86 124 195  96 127 198  0 0 0
0 0 0  0 0 0  0 0 0  0 0 0  0 0 0  0 0 0
0 0 0  0 0 0  0 0 0  0 0 0  0 0 0  0 0 0
0 0 0  0 0 0  0 0 0  0 0 0  0 0 0  0 0 0
0 0 0  0 0 0  0 0 0  0 0 0  0 0 0  0 0 0
0 0 0  0 0 0  0 0 0  0 0 0  0 0 0  0 0 0
0 0 0  0 0 0  0 0 0  0 0 0  0 0 0  0 0 0
81 94 163  81 94 163  93 106 175  81 94 163  84 97 167  81 94 163
87 100 170  92 103 172  81 94 163  73 89 157  81 94 163  92 103 172
96 104 172  83 93 156  112 124 189  93 110 180  84 101 172  87 105 175
90 108 178  92 103 172  93 106 175  93 106 175  87 100 170  90 108 178
94 114 184  90 108 178  79 98 168  81 94 163  93 110 180  84 101 172
79 98 168  79 103 173  79 103 173  79 98 168  84 101 172  88 113 184
79 103 173  87 105 175  79 103 173  91 111 182  84 101 172  84 101 172
79 98 168  79 98 168  87 100 170  97 109 177  100 115 184  87 105 175
90 108 178  90 108 178  87 105 175  93 110 180  90 108 178  93 110 180
84 101 172  94 114 184  93 110 180  86 110 181  94 114 184  89 118 189
86 110 181  83 111 183  93 124 195  89 118 189  86 110 181  83 111 183
88 113 184  81 107 178  94 117 188  88 113 184  93 124 195  94 114 184
97 117 187  94 117 188  83 111 183  83 111 183  86 110 181  88 113 184
94 117 188  81 107 178  91 111 182  94 114 184  81 107 178  79 103 173
102 118 186  97 117 187  90 108 178  112 124 189  103 104 172  98 113 182
93 110 180  93 110 180  102 118 186  109 131 201  97 109 177  112 124 189
98 113 182  94 114 184  112 136 203  102 124 194  94 117 188  102 124 194
94 114 184  94 114 184  112 136 203  102 124 194  105 128 199  105 128 199
114 140 208  112 136 203  114 140 208  114 140 208  112 136 203  112 136 203
145 166 222  129 151 212  114 140 208  114 140 208  114 140 208  112 136 203
105 128 199  96 127 198  101 131 202  96 127 198  98 121 191  101 131 202
96 127 198  96 127 198  96 127 198  101 131 202  91 121 192  93 124 195
101 131 202  93 124 195  101 131 202  84 115 186  96 127 198  88 113 184
89 118 189  91 121 192  84 115 186  96 127 198  84 121 193  84 121 193
89 118 189  84 115 186  86 124 195  89 118 189  90 128 199  84 121 193
84 115 186  96 127 198  89 118 189  78 119 191  93 124 195  0 0 0
0 0 0  0 0 0  0 0 0  0 0 0  0 0 0  0 0 0
0 0 0  0 0 0  0 0 0  0 0 0  0 0 0  0 0 0
0 0 0  0 0 0  0 0 0  0 0 0  0 0 0  0 0 0
0 0 0  0 0 0  0 0 0  0 0 0  0 0 0  0 0 0
0 0 0  0 0 0  0 0 0  0 0 0  0 0 0  0 0 0
0 0 0  0 0 0  0 0 0  0 0 0  0 0 0  0 0 0
84 97 167  84 97 167  77 91 160  84 97 167  84 97 167  93 106 175
100 115 184  84 97 167  87 100 170  77 91 160  84 97 167  87 100 170
79 98 168  84 97 167  84 97 167  87 100 170  84 97 167  91 111 182
90 108 178  90 108 178  84 101 172  97 117 187  79 98 168  87 100 170
93 106 175  93 106 175  93 106 175  87 105 175  84 101 172  87 105 175
87 105 175  87 105 175  90 108 178  87 105 175  79 98 168  91 111 182
84 101 172  87 100 170  81 94 163  84 101 172  84 97 167  84 97 167
87 105 175  93 110 180  87 100 170  81 94 163  112 124 189  87 100 170
87 100 170  90 108 178  90 108 178  84 101 172  91 111 182  84 101 172
90 108 178  84 101 172  97 117 187  86 110 181  105 128 199  102 124 194
91 111 182  86 110 181  86 110 181  83 111 183  81 107 178  83 111 183
81 107 178  89 118 189  81 107 178  88 113 184  86 110 181  94 114 184
89 118 189  98 121 191  88 113 184  86 110 181  89 118 189  94 114 184
94 114 184  88 113 184  86 110 181  89 118 189  94 117 188  91 111 182
81 107 178  88 113 184  86 110 181  79 98 168  90 108 178  93 110 180
93 110 180  101 120 189  102 124 194  102 124 194  100 115 184  112 124 189
125 133 195  112 124 189  102 118 186  94 114 184  105 128 199  102 118 186
105 128 199  112 136 203  105 128 199  101 120 189  105 128 199  105 128 199
102 124 194  96 127 198  106 133 204  106 133 204  105 128 199  125 133 195
135 161 220  129 151 212  112 136 203  112 136 203  112 136 203  112 136 203
91 121 192  102 124 194  102 124 194  105 128 199  93 124 195  102 124 194
98 121 191  102 124 194  106 133 204  102 124 194  91 121 192  89 118 189
96 127 198  96 127 198  101 131 202  96 127 198  91 121 192  84 115 186
84 121 193  74 109 181  93 124 195  97 135 206  89 118 189  78 119 191
93 124 195  91 121 192  84 115 186  86 124 195  90 128 199  84 115 186
96 127 198  93 124 195  84 115 186  105 128 199  96 127 198  0 0 0
0 0 0  0 0 0  0 0 0  0 0 0  0 0 0  0 0 0
0 0 0  0 0 0  0 0 0  0 0 0  0 0 0  0 0 0
0 0 0  0 0 0  0 0 0  0 0 0  0 0 0  0 0 0
0 0 0  0 0 0  0 0 0  0 0 0  0 0 0  0 0 0
0 0 0  0 0 0  0 0 0  0 0 0  0 0 0  0 0 0
0 0 0  0 0 0  0 0 0  0 0 0  0 0 0  0 0 0
91 100 170  81 94 163  81 94 163  92 103 172  84 97 167  81 94 163
85 98 163  84 97 167  92 103 172  81 94 163  91 100 170  93 106 175
87 100 170  73 89 157  73 89 157  84 101 172  93 106 175  98 113 182
93 106 175  93 106 175  84 101 172  87 105 175  87 105 175  84 101 172
98 113 182  97 109 177  90 108 178  84 97 167  87 100 170  98 113 182
98 113 182  90 108 178  84 101 172  101 120 189  93 110 180  84 101 172
90 108 178  79 98 168  87 100 170  79 98 168  87 100 170  84 101 172
87 100 170  93 106 175  93 110 180  87 105 175  81 94 163  97 109 177
93 106 175  87 100 170  93 106 175  93 106 175  102 118 186  98 113 182
94 114 184  100 115 184  93 110 180  90 108 178  79 98 168  87 105 175
86 110 181  81 107 178  88 113 184  81 107 178  86 110 181  89 118 189
89 118 189  86 110 181  94 117 188  94 117 188  94 117 188  94 117 188
98 121 191  94 117 188  94 117 188  94 114 184  88 113 184  86 110 181
94 117 188  88 113 184  91 111 182  94 117 188  97 117 187  91 111 182
86 110 181  90 108 178  91 111 182  97 117 187  94 114 184  102 118 186
102 118 186  87 105 175  87 105 175  93 106 175  100 115 184  97 109 177
112 124 189  105 128 199  102 118 186  94 114 184  101 120 189  90 108 178
101 120 189  94 114 184  109 131 201  112 136 203  112 136 203  109 131 201
102 124 194  105 128 199  96 127 198  114 140 208  109 131 201  109 131 201
129 151 212  129 151 212  109 131 201  109 131 201  119 147 214  109 131 201
106 133 204  112 136 203  102 124 194  105 139 211  93 124 195  106 133 204
105 128 199  88 113 184  105 128 199  119 147 214  102 124 194  98 121 191
98 121 191  88 113 184  96 127 198  93 124 195  96 127 198  93 124 195
93 124 195  93 124 195  97 135 206  84 115 186  84 121 193  84 115 186
96 127 198  91 121 192  89 118 189  89 118 189  78 113 185  93 124 195
89 118 189  93 124 195  96 127 198  94 117 188  89 118 189  0 0 0
0 0 0  0 0 0  0 0 0  0 0 0  0 0 0  0 0 0
0 0 0  0 0 0  0 0 0  0 0 0  0 0 0  0 0 0
0 0 0  0 0 0  0 0 0  0 0 0  0 0 0  0 0 0
0 0 0  0 0 0  0 0 0  0 0 0  0 0 0  0 0 0
0 0 0  0 0 0  0 0 0  0 0 0  0 0 0  0 0 0
0 0 0  0 0 0  0 0 0  0 0 0  0 0 0  0 0 0
81 94 163  77 91 160  97 109 177  97 109 177  91 100 170  87 100 170
81 94 163  81 94 163  91 100 170  84 101 172  81 94 163  81 94 163
87 105 175  93 110 180  84 101 172  84 97 167  92 103 172  93 106 175
85 98 163  112 124 189  98 113 182  92 103 172  87 105 175  84 97 167
98 113 182  92 103 172  93 106 175  100 115 184  87 105 175  87 105 175
97 109 177  92 103 172  91 100 170  93 106 175  102 118 186  93 110 180
84 97 167  87 105 175  93 106 175  84 97 167  93 110 180  84 97 167
87 100 170  92 103 172  87 105 175  87 105 175  87 105 175  87 105 175
93 106 175  94 114 184  97 109 177  93 106 175  112 124 189  98 113 182
84 101 172  98 113 182  93 106 175  87 105 175  102 118 186  97 117 187
79 103 173  94 114 184  109 131 201  87 100 170  87 105 175  91 111 182
105 128 199  112 136 203  87 105 175  94 117 188  102 124 194  88 113 184
94 117 188  83 111 183  88 113 184  102 124 194  98 121 191  94 117 188
86 110 181  94 117 188  90 108 178  91 111 182  101 120 189  86 110 181
97 117 187  91 111 182  91 111 182  90 108 178  94 114 184  90 108 178
93 110 180  93 110 180  93 110 180  102 124 194  100 115 184  94 114 184
91 111 182  97 117 187  93 110 180  102 118 186  97 117 187  101 120 189
97 117 187  101 120 189  102 124 194  97 117 187  109 131 201  102 124 194
98 121 191  105 128 199  98 121 191  105 128 199  109 131 201  112 136 203
129 151 212  114 140 208  105 128 199  105 128 199  112 136 203  105 128 199
98 121 191  93 124 195  105 128 199  96 127 198  102 124 194  105 128 199
102 124 194  94 117 188  88 113 184  96 127 198  102 124 194  112 136 203
114 140 208  91 121 192  91 121 192  96 127 198  91 121 192  84 121 193
93 124 195  84 115 186  84 115 186  84 115 186  101 131 202  93 124 195
89 118 189  89 118 189  93 124 195  96 127 198  89 118 189  93 124 195
84 115 186  84 115 186  89 118 189  88 113 184  98 121 191  0 0 0
0 0 0  0 0 0  0 0 0  0 0 0  0 0 0  0 0 0
0 0 0  0 0 0  0 0 0  0 0 0  0 0 0  0 0 0
0 0 0  0 0 0  0 0 0  0 0 0  0 0 0  0 0 0
0 0 0  0 0 0  0 0 0  0 0 0  0 0 0  0 0 0
0 0 0  0 0 0  0 0 0  0 0 0  0 0 0  0 0 0
0 0 0  0 0 0  0 0 0  0 0 0  0 0 0  0 0 0
93 106 175  93 106 175  81 94 163  84 97 167  84 97 167  93 106 175
97 109 177  97 109 177  92 103 172  79 98 168  81 94 163  84 97 167
97 109 177  84 97 167  84 101 172  84 97 167  84 97 167  87 105 175
84 97 167  81 94 163  84 97 167  97 109 177  93 106 175  100 115 184
92 103 172  87 100 170  97 109 177  87 100 170  87 100 170  85 98 163
93 106 175  91 100 170  77 91 160  97 109 177  92 103 172  77 91 160
90 108 178  91 100 170  93 106 175  92 103 172  87 100 170  84 101 172
92 103 172  92 103 172  93 106 175  87 100 170  93 106 175  92 103 172
87 105 175  93 110 180  97 109 177  73 89 157  129 151 212  101 120 189
84 101 172  84 101 172  93 106 175  84 101 172  93 110 180  91 111 182
97 117 187  94 117 188  85 98 163  125 133 195  155 173 223  79 98 168
106 133 204  145 166 222  87 100 170  90 108 178  91 111 182  86 110 181
97 117 187  98 121 191  94 114 184  91 111 182  101 120 189  91 111 182
88 113 184  86 110 181  94 114 184  86 110 181  91 111 182  86 110 181
86 110 181  97 117 187  87 105 175  87 105 175  97 117 187  97 109 177
90 108 178  87 105 175  98 113 182  101 120 189  94 114 184  90 108 178
97 117 187  101 120 189  94 114 184  94 114 184  94 114 184  94 114 184
101 120 189  101 120 189  105 128 199  102 124 194  105 128 199  101 120 189
102 124 194  105 128 199  94 117 188  102 124 194  106 133 204  109 131 201
129 151 212  119 147 214  109 131 201  102 124 194  105 128 199  114 140 208
105 128 199  105 128 199  105 128 199  102 124 194  102 124 194  89 118 189
105 128 199  96 127 198  96 127 198  105 128 199  81 107 178  119 147 214
97 117 187  89 118 189  89 118 189  93 124 195  98 121 191  93 124 195
96 127 198  86 124 195  89 118 189  78 113 185  84 115 186  93 124 195
89 118 189  83 111 183  93 124 195  93 124 195  83 111 183  101 131 202
91 121 192  91 121 192  96 127 198  89 118 189  102 124 194  0 0 0
0 0 0  0 0 0  0 0 0  0 0 0  0 0 0  0 0 0
0 0 0  0 0 0  0 0 0  0 0 0  0 0 0  0 0 0
0 0 0  0 0 0  0 0 0  0 0 0  0 0 0  0 0 0
0 0 0  0 0 0  0 0 0  0 0 0  0 0 0  0 0 0
0 0 0  0 0 0  0 0 0  0 0 0  0 0 0  0 0 0
0 0 0  0 0 0  0 0 0  0 0 0  0 0 0  0 0 0
87 105 175  93 110 180  93 106 175  93 110 180  87 105 175  81 94 163
84 101 172  84 97 167  98 113 182  90 108 178  84 97 167  87 105 175
87 105 175  87 105 175  84 97 167  98 113 182  84 97 167  98 121 191
94 117 188  81 94 163  91 100 170  81 94 163  93 106 175  84 97 167
91 100 170  84 97 167  97 109 177  81 94 163  91 100 170  87 100 170
76 88 155  81 94 163  77 91 160  84 97 167  96 101 171  77 91 160
92 103 172  84 97 167  87 100 170  92 100 166  93 106 175  84 97 167
97 109 177  93 106 175  97 109 177  91 100 170  98 113 182  84 97 167
87 100 170  93 106 175  97 109 177  87 105 175  90 108 178  93 110 180
79 98 168  98 113 182  109 131 201  90 108 178  87 105 175  84 101 172
94 114 184  98 121 191  84 97 167  129 151 212  135 161 220  97 117 187
97 117 187  91 111 182  98 113 182  101 120 189  94 114 184  98 121 191
94 114 184  94 114 184  101 120 189  93 110 180  94 114 184  109 131 201
86 110 181  97 117 187  91 111 182  101 120 189  93 110 180  91 111 182
86 110 181  79 98 168  112 136 203  90 108 178  93 110 180  112 124 189
100 115 184  97 117 187  87 105 175  91 111 182  100 115 184  93 110 180
94 114 184  93 110 180  102 118 186  98 113 182  97 117 187  102 124 194
94 114 184  93 110 180  98 121 191  101 120 189  102 124 194  97 117 187
97 117 187  102 124 194  105 128 199  109 131 201  105 128 199  109 131 201
129 151 212  114 140 208  105 128 199  102 124 194  105 128 199  105 128 199
105 128 199  106 133 204  102 124 194  105 128 199  98 121 191  98 121 191
96 127 198  98 121 191  105 128 199  102 124 194  94 117 188  112 136 203
105 128 199  88 113 184  93 124 195  93 124 195  98 121 191  89 118 189
89 118 189  91 121 192  83 111 183  91 121 192  101 131 202  78 113 185
89 118 189  93 124 195  84 115 186  89 118 189  89 118 189  91 121 192
89 118 189  93 124 195  96 127 198  91 121 192  98 121 191  0 0 0
0 0 0  0 0 0  0 0 0  0 0 0  0 0 0  0 0 0
0 0 0  0 0 0  0 0 0  0 0 0  0 0 0  0 0 0
0 0 0  0 0 0  0 0 0  0 0 0  0 0 0  0 0 0
0 0 0  0 0 0  0 0 0  0 0 0  0 0 0  0 0 0
0 0 0  0 0 0  0 0 0  0 0 0  0 0 0  0 0 0
0 0 0  0 0 0  0 0 0  0 0 0  0 0 0  0 0 0
79 98 168  81 94 163  100 115 184  101 120 189  84 101 172  92 103 172
87 100 170  77 91 160  87 105 175  87 100 170  93 106 175  87 100 170
84 97 167  87 100 170  81 94 163  100 115 184  87 100 170  90 96 161
74 85 151  92 100 166  91 100 170  87 100 170  96 101 171  81 94 163
87 100 170  97 109 177  87 100 170  84 97 167  84 97 167  83 93 156
91 100 170  81 94 163  92 100 166  92 103 172  84 97 167  81 94 163
90 96 161  87 100 170  91 100 170  87 100 170  96 101 171  92 100 166
97 109 177  87 100 170  84 97 167  96 104 172  92 103 172  93 106 175
102 118 186  93 106 175  87 100 170  100 115 184  101 120 189  84 101 172
102 118 186  90 108 178  97 109 177  90 108 178  90 108 178  84 97 167
91 111 182  91 111 182  93 110 180  93 106 175  87 105 175  97 117 187
102 124 194  88 113 184  94 117 188  91 111 182  94 117 188  94 114 184
94 117 188  94 114 184  98 113 182  101 120 189  109 131 201  102 124 194
94 114 184  94 114 184  98 121 191  87 105 175  91 111 182  91 111 182
94 114 184  84 101 172  102 124 194  102 118 186  98 113 182  100 115 184
98 113 182  87 105 175  101 120 189  101 120 189  87 105 175  100 115 184
102 118 186  101 120 189  101 120 189  98 113 182  91 111 182  101 120 189
101 120 189  102 118 186  97 117 187  101 120 189  102 124 194  109 131 201
97 117 187  98 121 191  109 131 201  102 124 194  105 128 199  102 124 194
135 161 220  112 136 203  105 128 199  109 131 201  112 136 203  105 128 199
105 128 199  102 124 194  105 128 199  102 124 194  112 136 203  105 128 199
96 127 198  98 121 191  98 121 191  88 113 184  105 128 199  88 113 184
102 124 194  98 121 191  93 124 195  112 136 203  88 113 184  81 107 178
89 118 189  91 121 192  88 113 184  94 117 188  91 121 192  84 115 186
83 111 183  105 128 199  93 124 195  88 113 184  89 118 189  88 113 184
89 118 189  91 121 192  102 124 194  88 113 184  94 117 188  0 0 0
0 0 0  0 0 0  0 0 0  0 0 0  0 0 0  0 0 0
0 0 0  0 0 0  0 0 0  0 0 0  0 0 0  0 0 0
0 0 0  0 0 0  0 0 0  0 0 0  0 0 0  0 0 0
0 0 0  0 0 0  0 0 0  0 0 0  0 0 0  0 0 0
0 0 0  0 0 0  0 0 0  0 0 0  0 0 0  0 0 0
0 0 0  0 0 0  0 0 0  0 0 0  0 0 0  0 0 0
93 110 180  81 94 163  73 89 157  87 105 175  84 97 167  81 94 163
112 124 189  92 103 172  84 97 167  85 98 163  87 100 170  84 97 167
96 104 172  97 109 177  87 100 170  87 105 175  87 100 170  120 109 156
131 129 178  90 96 161  84 101 172  92 103 172  90 96 161  81 94 163
87 105 175  85 98 163  88 94 157  83 93 156  90 96 161  81 94 163
91 100 170  90 96 161  81 94 163  91 100 170  85 98 163  85 98 163
87 100 170  91 100 170  87 100 170  77 91 160  91 100 170  93 106 175
81 94 163  97 109 177  97 109 177  92 103 172  100 115 184  87 100 170
87 100 170  92 103 172  90 108 178  87 105 175  93 106 175  87 105 175
98 113 182  93 106 175  87 100 170  102 118 186  90 108 178  101 120 189
98 113 182  93 110 180  94 114 184  90 108 178  91 111 182  102 124 194
94 114 184  94 114 184  91 111 182  86 110 181  94 114 184  87 105 175
93 110 180  88 113 184  98 121 191  97 117 187  94 114 184  94 114 184
94 114 184  86 110 181  101 120 189  97 117 187  94 114 184  88 113 184
94 114 184  91 111 182  93 110 180  87 105 175  87 105 175  101 120 189
102 118 186  98 113 182  101 120 189  97 117 187  87 105 175  94 114 184
93 110 180  100 115 184  94 114 184  105 128 199  100 115 184  94 114 184
93 110 180  97 117 187  105 128 199  102 124 194  91 111 182  101 120 189
98 121 191  105 128 199  102 124 194  98 121 191  105 128 199  102 124 194
119 147 214  114 140 208  101 120 189  112 136 203  112 136 203  102 124 194
101 131 202  102 124 194  112 136 203  105 128 199  102 124 194  114 140 208
94 117 188  98 121 191  105 128 199  102 124 194  102 124 194  86 110 181
91 121 192  89 118 189  94 117 188  88 113 184  105 128 199  91 121 192
84 115 186  93 124 195  89 118 189  93 124 195  88 113 184  89 118 189
93 124 195  106 133 204  86 110 181  94 117 188  101 131 202  96 127 198
102 124 194  91 111 182  94 114 184  94 114 184  91 111 182  0 0 0
0 0 0  0 0 0  0 0 0  0 0 0  0 0 0  0 0 0
0 0 0  0 0 0  0 0 0  0 0 0  0 0 0  0 0 0
0 0 0  0 0 0  0 0 0  0 0 0  0 0 0  0 0 0
0 0 0  0 0 0  0 0 0  0 0 0  0 0 0  0 0 0
0 0 0  0 0 0  0 0 0  0 0 0  0 0 0  0 0 0
0 0 0  0 0 0  0 0 0  0 0 0  0 0 0  0 0 0
87 100 170  84 97 167  87 105 175  92 103 172  84 97 167  81 94 163
91 100 170  84 97 167  84 97 167  93 106 175  87 105 175  87 105 175
84 97 167  85 98 163  96 104 172  90 108 178  84 97 167  131 129 178
249 249 249  125 133 195  81 94 163  91 100 170  92 100 166  92 100 166
91 100 170  91 100 170  76 88 155  91 100 170  96 104 172  81 94 163
81 94 163  81 94 163  84 97 167  91 100 170  83 93 156  92 100 166
81 94 163  91 100 170  84 97 167  87 100 170  84 97 167  91 100 170
87 100 170  96 104 172  97 109 177  96 104 172  98 113 182  87 100 170
93 110 180  87 100 170  84 101 172  98 113 182  98 113 182  93 110 180
93 106 175  98 113 182  98 113 182  98 113 182  84 97 167  87 105 175
93 106 175  102 124 194  90 108 178  90 108 178  94 114 184  84 101 172
98 113 182  93 110 180  84 101 172  97 117 187  90 108 178  101 120 189
93 110 180  90 108 178  87 105 175  91 111 182  98 121 191  94 117 188
94 117 188  102 124 194  81 107 178  94 114 184  91 111 182  84 101 172
97 117 187  101 120 189  84 101 172  100 115 184  87 105 175  98 113 182
84 101 172  87 105 175  90 108 178  90 108 178  91 111 182  93 110 180
93 110 180  102 118 186  93 110 180  98 113 182  98 113 182  97 117 187
94 114 184  100 115 184  102 124 194  98 113 182  97 117 187  94 114 184
102 124 194  98 121 191  102 124 194  114 140 208  109 131 201  102 124 194
112 136 203  114 140 208  102 124 194  114 140 208  105 128 199  105 128 199
105 128 199  98 121 191  102 124 194  105 139 211  91 121 192  93 124 195
102 124 194  91 121 192  94 117 188  102 124 194  102 124 194  102 124 194
114 140 208  93 124 195  91 121 192  89 118 189  98 121 191  93 124 195
88 113 184  93 124 195  83 111 183  96 127 198  98 121 191  86 110 181
89 118 189  88 113 184  86 110 181  98 121 191  89 118 189  94 114 184
98 121 191  129 151 212  93 110 180  102 118 186  98 113 182  0 0 0
0 0 0  0 0 0  0 0 0  0 0 0  0 0 0  0 0 0
0 0 0  0 0 0  0 0 0  0 0 0  0 0 0  0 0 0
0 0 0  0 0 0  0 0 0  0 0 0  0 0 0  0 0 0
0 0 0  0 0 0  0 0 0  0 0 0  0 0 0  0 0 0
0 0 0  0 0 0  0 0 0  0 0 0  0 0 0  0 0 0
0 0 0  0 0 0  0 0 0  0 0 0  0 0 0  0 0 0
87 105 175  87 100 170  84 101 172  102 118 186  84 97 167  87 100 170
92 103 172  84 97 167  92 103 172  88 94 157  87 105 175  87 105 175
83 93 156  103 104 172  131 129 178  82 91 153  93 106 175  90 96 161
112 103 172  100 115 184  96 101 169  97 109 177  84 97 167  98 113 182
88 94 157  84 97 167  81 94 163  87 100 170  87 100 170  83 93 156
90 96 161  81 94 163  96 104 172  97 109 177  91 100 170  84 97 167
91 100 170  87 100 170  93 106 175  87 100 170  84 97 167  87 100 170
87 100 170  92 103 172  97 109 177  100 115 184  84 97 167  93 106 175
98 113 182  93 106 175  109 131 201  102 118 186  87 105 175  87 100 170
97 109 177  87 105 175  93 106 175  93 106 175  93 110 180  87 100 170
93 110 180  87 105 175  90 108 178  90 108 178  87 105 175  90 108 178
91 111 182  94 114 184  90 108 178  98 121 191  93 110 180  94 114 184
87 105 175  98 121 191  101 120 189  94 114 184  94 114 184  88 113 184
86 110 181  97 117 187  102 124 194  94 114 184  79 98 168  90 108 178
97 117 187  101 120 189  87 105 175  94 114 184  84 101 172  112 136 203
102 118 186  90 108 178  90 108 178  93 110 180  87 105 175  93 110 180
93 110 180  93 110 180  98 113 182  87 105 175  94 114 184  84 101 172
105 128 199  98 121 191  93 110 180  94 114 184  101 120 189  101 120 189
94 114 184  102 124 194  101 120 189  112 136 203  109 131 201  112 124 189
119 147 214  114 140 208  102 124 194  105 128 199  102 124 194  114 140 208
135 161 220  114 140 208  98 121 191  109 131 201  102 124 194  98 121 191
105 128 199  98 121 191  94 117 188  102 124 194  102 124 194  91 111 182
98 121 191  81 107 178  89 118 189  89 118 189  86 110 181  86 110 181
96 127 198  88 113 184  84 115 186  96 127 198  98 121 191  93 124 195
81 107 178  94 117 188  88 113 184  88 113 184  91 111 182  102 124 194
94 114 184  112 124 189  100 115 184  93 106 175  93 106 175  0 0 0
0 0 0  0 0 0  0 0 0  0 0 0  0 0 0  0 0 0
0 0 0  0 0 0  0 0 0  0 0 0  0 0 0  0 0 0
0 0 0  0 0 0  0 0 0  0 0 0  0 0 0  0 0 0
0 0 0  0 0 0  0 0 0  0 0 0  0 0 0  0 0 0
0 0 0  0 0 0  0 0 0  0 0 0  0 0 0  0 0 0
0 0 0  0 0 0  0 0 0  0 0 0  0 0 0  0 0 0
81 94 163  84 101 172  84 97 167  87 100 170  97 109 177  84 97 167
98 113 182  84 101 172  100 115 184  83 93 156  90 108 178  94 114 184
81 94 163  135 146 200  236 236 234  96 104 172  87 105 175  84 101 172
77 91 160  97 109 177  96 101 171  96 101 171  92 100 166  90 96 161
96 101 171  92 100 166  91 100 170  91 100 170  96 104 172  77 91 160
84 97 167  91 100 170  92 100 166  96 104 172  82 91 153  84 97 167
81 94 163  91 100 170  81 94 163  87 100 170  87 100 170  97 109 177
97 109 177  97 109 177  93 106 175  92 103 172  97 109 177  98 113 182
91 100 170  97 109 177  98 113 182  87 100 170  93 106 175  93 106 175
100 115 184  87 100 170  93 110 180  93 106 175  93 106 175  98 113 182
93 110 180  94 114 184  91 111 182  94 114 184  109 131 201  87 105 175
84 101 172  90 108 178  87 105 175  87 105 175  87 105 175  84 101 172
101 120 189  98 121 191  90 108 178  102 124 194  98 121 191  88 113 184
87 105 175  79 103 173  93 110 180  94 117 188  102 124 194  86 110 181
79 103 173  87 105 175  93 110 180  93 110 180  84 101 172  84 101 172
87 105 175  90 108 178  90 108 178  93 110 180  87 105 175  100 115 184
87 105 175  93 110 180  90 108 178  93 110 180  98 113 182  94 114 184
87 105 175  87 105 175  98 121 191  94 114 184  100 115 184  94 114 184
102 118 186  94 114 184  94 114 184  97 117 187  101 120 189  102 124 194
119 147 214  114 140 208  101 120 189  109 131 201  105 128 199  109 131 201
102 124 194  96 127 198  105 128 199  102 124 194  93 124 195  102 124 194
94 117 188  98 121 191  94 117 188  94 117 188  94 117 188  88 113 184
102 124 194  96 127 198  89 118 189  91 121 192  94 117 188  88 113 184
89 118 189  83 111 183  89 118 189  86 110 181  86 110 181  79 103 173
81 107 178  91 111 182  90 108 178  105 128 199  97 117 187  102 118 186
93 110 180  97 109 177  125 133 195  97 109 177  85 98 163  0 0 0
0 0 0  0 0 0  0 0 0  0 0 0  0 0 0  0 0 0
0 0 0  0 0 0  0 0 0  0 0 0  0 0 0  0 0 0
0 0 0  0 0 0  0 0 0  0 0 0  0 0 0  0 0 0
0 0 0  0 0 0  0 0 0  0 0 0  0 0 0  0 0 0
0 0 0  0 0 0  0 0 0  0 0 0  0 0 0  0 0 0
0 0 0  0 0 0  0 0 0  0 0 0  0 0 0  0 0 0
87 105 175  92 103 172  87 105 175  93 106 175  97 109 177  98 113 182
91 100 170  97 109 177  97 109 177  97 109 177  102 118 186  84 101 172
81 94 163  103 104 172  125 133 195  92 100 166  92 103 172  87 100 170
97 109 177  96 104 172  91 100 170  84 97 167  92 100 166  92 100 166
92 103 172  96 104 172  96 101 171  97 109 177  91 100 170  81 94 163
96 104 172  91 100 170  87 100 170  92 100 166  91 100 170  84 97 167
87 100 170  84 97 167  93 106 175  96 104 172  87 100 170  92 103 172
97 109 177  92 103 172  93 106 175  92 103 172  92 100 166  97 109 177
98 113 182  96 104 172  97 109 177  93 106 175  93 106 175  91 100 170
97 109 177  93 106 175  87 100 170  97 109 177  93 110 180  87 105 175
90 108 178  93 110 180  98 113 182  93 110 180  105 128 199  87 105 175
100 115 184  93 110 180  93 110 180  90 108 178  112 136 203  97 117 187
97 109 177  83 111 183  94 114 184  114 140 208  109 131 201  79 103 173
94 117 188  84 101 172  87 105 175  90 108 178  84 101 172  86 110 181
87 105 175  84 101 172  91 111 182  90 108 178  87 105 175  90 108 178
87 105 175  90 108 178  87 105 175  87 105 175  90 108 178  84 101 172
94 114 184  84 101 172  90 108 178  93 110 180  90 108 178  93 110 180
93 110 180  87 105 175  98 113 182  87 105 175  98 113 182  101 120 189
112 124 189  100 115 184  102 124 194  97 117 187  102 124 194  112 136 203
114 140 208  112 124 189  112 136 203  105 128 199  112 136 203  98 121 191
102 124 194  114 140 208  105 128 199  105 128 199  94 117 188  105 128 199
94 117 188  98 121 191  94 117 188  94 114 184  94 117 188  88 113 184
88 113 184  88 113 184  98 121 191  86 110 181  91 111 182  81 107 178
102 124 194  88 113 184  98 121 191  94 114 184  84 101 172  91 111 182
97 117 187  98 113 182  98 113 182  101 120 189  84 101 172  90 108 178
112 124 189  112 124 189  96 101 171  93 106 175  92 103 172  0 0 0
0 0 0  0 0 0  0 0 0  0 0 0  0 0 0  0 0 0
0 0 0  0 0 0  0 0 0  0 0 0  0 0 0  0 0 0
0 0 0  0 0 0  0 0 0  0 0 0  0 0 0  0 0 0
0 0 0  0 0 0  0 0 0  0 0 0  0 0 0  0 0 0
0 0 0  0 0 0  0 0 0  0 0 0  0 0 0  0 0 0
0 0 0  0 0 0  0 0 0  0 0 0  0 0 0  0 0 0
84 97 167  84 97 167  92 103 172  91 100 170  87 100 170  93 106 175
100 115 184  97 109 177  76 88 155  91 100 170  87 100 170  91 100 170
93 110 180  93 110 180  96 104 172  92 103 172  98 113 182  96 104 172
96 104 172  90 96 161  96 104 172  93 106 175  98 113 182  96 104 172
91 100 170  84 97 167  90 96 161  96 101 171  96 104 172  84 97 167
97 109 177  96 104 172  96 104 172  93 106 175  81 94 163  92 103 172
93 106 175  97 109 177  96 104 172  92 103 172  98 113 182  84 97 167
97 109 177  87 100 170  93 106 175  93 106 175  102 118 186  102 118 186
93 106 175  96 101 171  96 104 172  92 103 172  92 103 172  96 104 172
92 103 172  93 106 175  93 110 180  87 100 170  90 108 178  90 108 178
87 105 175  102 118 186  98 113 182  90 108 178  79 98 168  94 114 184
93 110 180  101 120 189  102 124 194  84 97 167  90 108 178  94 114 184
93 110 180  74 109 181  86 110 181  86 110 181  87 105 175  86 110 181
87 105 175  97 117 187  90 108 178  90 108 178  87 105 175  93 110 180
90 108 178  79 98 168  98 113 182  101 120 189  90 108 178  87 105 175
90 108 178  79 103 173  87 105 175  90 108 178  87 105 175  91 111 182
87 105 175  93 110 180  93 106 175  90 108 178  84 101 172  93 110 180
94 114 184  93 110 180  100 115 184  102 118 186  98 113 182  98 113 182
100 115 184  93 110 180  102 124 194  97 117 187  105 128 199  101 120 189
129 151 212  129 151 212  112 124 189  101 120 189  119 147 214  105 128 199
119 147 214  114 140 208  97 117 187  105 128 199  109 131 201  105 128 199
94 114 184  98 121 191  102 124 194  91 111 182  102 124 194  102 124 194
88 113 184  94 117 188  88 113 184  88 113 184  102 124 194  86 110 181
88 113 184  94 117 188  94 114 184  112 124 189  114 140 208  94 114 184
90 108 178  97 109 177  112 124 189  90 108 178  100 115 184  96 104 172
97 109 177  97 109 177  92 100 166  84 97 167  98 113 182  0 0 0
0 0 0  0 0 0  0 0 0  0 0 0  0 0 0  0 0 0
0 0 0  0 0 0  0 0 0  0 0 0  0 0 0  0 0 0
0 0 0  0 0 0  0 0 0  0 0 0  0 0 0  0 0 0
0 0 0  0 0 0  0 0 0  0 0 0  0 0 0  0 0 0
0 0 0  0 0 0  0 0 0  0 0 0  0 0 0  0 0 0
0 0 0  0 0 0  0 0 0  0 0 0  0 0 0  0 0 0
81 94 163  87 100 170  87 100 170  84 97 167  91 100 170  92 103 172
87 100 170  93 106 175  92 103 172  81 94 163  135 146 200  112 124 189
87 100 170  92 103 172  93 106 175  92 103 172  98 113 182  96 104 172
96 104 172  103 104 172  97 109 177  96 101 171  91 100 170  96 101 171
96 101 171  96 104 172  90 96 161  96 101 169  112 124 189  84 97 167
91 100 170  91 100 170  91 100 170  84 97 167  97 109 177  97 109 177
97 109 177  81 94 163  92 103 172  97 109 177  96 104 172  91 100 170
96 104 172  91 100 170  97 109 177  98 113 182  97 109 177  91 100 170
97 109 177  91 100 170  91 100 170  102 118 186  91 100 170  97 109 177
125 133 195  92 103 172  98 113 182  87 100 170  93 106 175  97 109 177
102 118 186  102 118 186  102 118 186  93 110 180  93 110 180  90 108 178
94 114 184  98 113 182  84 101 172  90 108 178  91 111 182  91 111 182
87 105 175  81 107 178  97 117 187  97 117 187  87 105 175  84 101 172
90 108 178  84 101 172  90 108 178  90 108 178  84 101 172  98 113 182
90 108 178  87 105 175  84 101 172  84 101 172  87 105 175  93 110 180
87 105 175  87 105 175  87 105 175  84 101 172  90 108 178  84 101 172
90 108 178  112 136 203  87 105 175  98 113 182  93 110 180  90 108 178
90 108 178  93 110 180  87 105 175  100 115 184  98 113 182  101 120 189
94 114 184  93 110 180  101 120 189  102 124 194  105 128 199  105 128 199
112 136 203  129 151 212  112 124 189  109 131 201  112 136 203  102 124 194
105 128 199  102 124 194  102 124 194  91 111 182  102 124 194  105 128 199
94 117 188  94 117 188  94 117 188  101 120 189  97 117 187  86 110 181
88 113 184  94 117 188  88 113 184  98 121 191  94 114 184  91 111 182
94 114 184  89 118 189  84 101 172  102 118 186  112 124 189  90 108 178
100 115 184  98 113 182  102 118 186  97 109 177  92 103 172  97 109 177
102 118 186  88 94 157  102 118 186  92 103 172  87 100 170  0 0 0
0 0 0  0 0 0  0 0 0  0 0 0  0 0 0  0 0 0
0 0 0  0 0 0  0 0 0  0 0 0  0 0 0  0 0 0
0 0 0  0 0 0  0 0 0  0 0 0  0 0 0  0 0 0
0 0 0  0 0 0  0 0 0  0 0 0  0 0 0  0 0 0
0 0 0  0 0 0  0 0 0  0 0 0  0 0 0  0 0 0
0 0 0  0 0 0  0 0 0  0 0 0  0 0 0  0 0 0
84 97 167  81 94 163  84 97 167  96 104 172  91 100 170  91 100 170
98 113 182  91 100 170  91 100 170  77 91 160  102 118 186  125 133 195
95 99 164  96 104 172  96 104 172  93 106 175  96 101 169  96 104 172
97 109 177  93 106 175  103 104 172  96 104 172  92 100 166  96 101 169
103 104 172  98 113 182  97 109 177  95 99 164  92 100 166  96 104 172
96 101 171  97 109 177  91 100 170  92 103 172  98 113 182  81 94 163
96 101 171  91 100 170  93 106 175  91 100 170  97 109 177  92 103 172
96 104 172  97 109 177  96 104 172  93 106 175  96 104 172  92 103 172
97 109 177  91 100 170  97 109 177  97 109 177  97 109 177  96 104 172
97 109 177  96 101 169  97 109 177  93 106 175  97 109 177  96 104 172
97 109 177  84 97 167  90 108 178  93 110 180  90 108 178  84 97 167
84 101 172  87 105 175  97 117 187  98 121 191  90 108 178  87 105 175
94 117 188  91 111 182  94 114 184  102 124 194  97 117 187  87 105 175
87 105 175  79 98 168  94 114 184  90 108 178  84 101 172  100 115 184
90 108 178  79 98 168  90 108 178  90 108 178  87 105 175  79 103 173
84 101 172  93 110 180  90 108 178  79 103 173  87 105 175  87 105 175
84 101 172  85 98 163  93 106 175  87 105 175  87 105 175  100 115 184
87 105 175  98 113 182  94 114 184  93 110 180  94 114 184  98 113 182
94 114 184  102 118 186  100 115 184  102 124 194  101 120 189  109 131 201
125 133 195  125 133 195  125 133 195  102 124 194  114 140 208  102 124 194
105 128 199  101 120 189  114 140 208  94 114 184  105 128 199  105 128 199
97 117 187  98 121 191  94 117 188  102 124 194  94 114 184  94 117 188
94 117 188  91 111 182  94 114 184  94 114 184  90 108 178  90 108 178
94 114 184  94 114 184  94 114 184  87 105 175  98 113 182  93 110 180
87 105 175  93 106 175  97 109 177  92 103 172  98 113 182  98 113 182
97 109 177  96 101 169  103 104 172  96 104 172  90 96 161  0 0 0
0 0 0  0 0 0  0 0 0  0 0 0  0 0 0  0 0 0
0 0 0  0 0 0  0 0 0  0 0 0  0 0 0  0 0 0
0 0 0  0 0 0  0 0 0  0 0 0  0 0 0  0 0 0
0 0 0  0 0 0  0 0 0  0 0 0  0 0 0  0 0 0
0 0 0  0 0 0  0 0 0  0 0 0  0 0 0  0 0 0
0 0 0  0 0 0  0 0 0  0 0 0  0 0 0  0 0 0
96 104 172  97 109 177  87 100 170  91 100 170  92 100 166  84 97 167
96 104 172  91 100 170  96 101 171  97 109 177  96 104 172  88 94 157
103 104 172  96 104 172  96 101 169  103 104 172  96 101 171  100 115 184
97 109 177  96 101 171  96 101 169  96 101 171  96 101 169  97 109 177
92 100 166  92 100 166  95 99 164  96 101 171  96 101 171  97 109 177
96 104 172  96 101 171  90 96 161  112 124 189  97 109 177  100 115 184
92 103 172  93 106 175  91 100 170  97 109 177  97 109 177  87 89 150
88 94 157  90 96 161  96 104 172  92 103 172  92 103 172  97 109 177
96 104 172  96 104 172  96 104 172  96 104 172  103 104 172  96 104 172
103 104 172  96 104 172  97 109 177  98 113 182  97 109 177  97 109 177
98 113 182  97 109 177  92 103 172  87 100 170  98 113 182  105 128 199
101 120 189  84 101 172  102 118 186  93 110 180  98 121 191  91 111 182
86 110 181  81 107 178  97 117 187  97 117 187  81 107 178  81 107 178
93 110 180  114 140 208  100 115 184  84 101 172  94 114 184  79 98 168
84 101 172  87 105 175  90 108 178  90 108 178  84 101 172  79 103 173
84 101 172  87 105 175  81 107 178  87 105 175  91 111 182  93 110 180
84 101 172  90 108 178  93 110 180  79 103 173  94 114 184  87 105 175
79 98 168  93 106 175  94 114 184  93 110 180  93 110 180  100 115 184
102 118 186  98 113 182  101 120 189  102 124 194  101 120 189  109 131 201
125 133 195  125 133 195  125 133 195  125 133 195  105 128 199  98 121 191
102 124 194  94 114 184  102 124 194  101 120 189  91 111 182  97 117 187
97 117 187  97 117 187  94 114 184  94 114 184  91 111 182  102 124 194
91 111 182  91 111 182  97 117 187  91 111 182  91 111 182  91 111 182
94 114 184  93 110 180  98 113 182  84 101 172  84 101 172  93 110 180
102 118 186  98 113 182  100 115 184  102 118 186  96 104 172  112 124 189
96 104 172  96 101 171  88 94 157  92 103 172  96 104 172  0 0 0
0 0 0  0 0 0  0 0 0  0 0 0  0 0 0  0 0 0
0 0 0  0 0 0  0 0 0  0 0 0  0 0 0  0 0 0
0 0 0  0 0 0  0 0 0  0 0 0  0 0 0  0 0 0
0 0 0  0 0 0  0 0 0  0 0 0  0 0 0  0 0 0
0 0 0  0 0 0  0 0 0  0 0 0  0 0 0  0 0 0
0 0 0  0 0 0  0 0 0  0 0 0  0 0 0  0 0 0
91 100 170  98 113 182  100 115 184  84 97 167  91 100 170  93 106 175
96 104 172  96 101 171  96 101 171  96 104 172  91 100 170  96 101 171
97 109 177  93 106 175  96 104 172  91 100 170  103 104 172  97 109 177
100 115 184  103 104 172  103 101 171  97 109 177  103 104 172  100 115 184
92 100 166  103 104 172  103 104 172  97 109 177  103 104 172  92 100 166
103 104 172  100 115 184  96 101 169  100 100 169  90 96 161  100 115 184
97 109 177  84 97 167  91 100 170  97 109 177  93 106 175  165 158 197
182 190 223  103 104 172  97 109 177  92 103 172  96 104 172  97 109 177
103 104 172  92 100 166  96 104 172  97 109 177  91 100 170  91 100 170
91 100 170  97 109 177  103 104 172  97 109 177  96 101 169  93 106 175
97 109 177  87 100 170  98 113 182  101 120 189  98 113 182  92 103 172
93 106 175  100 115 184  90 108 178  90 108 178  101 120 189  90 108 178
90 108 178  79 103 173  79 98 168  79 103 173  88 113 184  87 105 175
87 100 170  102 118 186  83 93 156  84 101 172  84 97 167  84 101 172
87 105 175  90 108 178  87 100 170  79 98 168  93 110 180  90 108 178
79 98 168  91 111 182  87 105 175  79 98 168  84 101 172  79 98 168
87 105 175  81 107 178  79 98 168  87 105 175  90 108 178  87 105 175
94 114 184  98 113 182  93 106 175  98 113 182  93 110 180  93 106 175
97 117 187  101 120 189  101 120 189  97 117 187  105 128 199  102 118 186
125 133 195  182 190 223  131 129 178  102 118 186  105 128 199  102 124 194
101 120 189  112 136 203  101 120 189  91 111 182  105 128 199  97 117 187
97 117 187  102 124 194  102 124 194  93 110 180  105 128 199  101 120 189
97 117 187  90 108 178  97 117 187  94 114 184  91 111 182  91 111 182
87 105 175  90 108 178  87 100 170  87 105 175  100 115 184  92 103 172
97 109 177  98 113 182  100 115 184  102 118 186  98 113 182  103 104 172
90 96 161  112 124 189  97 109 177  97 109 177  97 109 177  0 0 0
0 0 0  0 0 0  0 0 0  0 0 0  0 0 0  0 0 0
0 0 0  0 0 0  0 0 0  0 0 0  0 0 0  0 0 0
0 0 0  0 0 0  0 0 0  0 0 0  0 0 0  0 0 0
0 0 0  0 0 0  0 0 0  0 0 0  0 0 0  0 0 0
0 0 0  0 0 0  0 0 0  0 0 0  0 0 0  0 0 0
0 0 0  0 0 0  0 0 0  0 0 0  0 0 0  0 0 0
92 103 172  93 106 175  91 100 170  97 109 177  96 104 172  96 104 172
96 104 172  96 101 169  97 109 177  97 109 177  96 104 172  91 100 170
103 104 172  95 99 164  96 101 171  103 104 172  103 104 172  97 109 177
97 109 177  103 104 172  96 104 172  100 115 184  92 100 166  103 104 172
103 104 172  98 113 182  103 104 172  95 99 164  96 101 171  96 101 171
91 100 170  103 104 172  95 99 164  96 101 171  103 104 172  96 104 172
103 104 172  103 104 172  100 100 169  103 104 172  88 94 157  173 172 216
135 146 200  90 96 161  98 113 182  92 100 166  97 109 177  100 115 184
96 104 172  96 101 169  103 104 172  96 101 169  100 100 169  103 104 172
100 100 169  102 118 186  103 104 172  97 109 177  96 104 172  87 100 170
98 113 182  93 106 175  87 100 170  102 118 186  98 113 182  97 117 187
87 105 175  98 113 182  87 105 175  100 115 184  87 105 175  87 100 170
101 120 189  98 121 191  98 113 182  87 105 175  87 105 175  84 101 172
93 110 180  98 113 182  84 101 172  79 98 168  93 110 180  90 108 178
87 105 175  79 98 168  84 97 167  79 98 168  79 98 168  91 111 182
87 105 175  87 105 175  87 105 175  87 105 175  91 111 182  79 98 168
84 101 172  79 103 173  84 101 172  93 110 180  84 97 167  90 108 178
94 114 184  94 117 188  97 117 187  94 114 184  98 113 182  102 118 186
97 117 187  98 121 191  87 100 170  112 124 189  129 151 212  102 118 186
105 128 199  129 151 212  102 118 186  98 113 182  101 120 189  102 124 194
102 118 186  105 128 199  101 120 189  94 114 184  97 117 187  101 120 189
94 114 184  93 110 180  112 136 203  98 121 191  94 114 184  91 111 182
97 117 187  94 117 188  91 111 182  97 117 187  94 114 184  100 115 184
102 118 186  101 120 189  87 100 170  98 113 182  97 109 177  93 106 175
97 109 177  93 106 175  97 109 177  112 124 189  100 115 184  91 100 170
97 109 177  112 124 189  100 115 184  98 113 182  90 96 161  0 0 0
0 0 0  0 0 0  0 0 0  0 0 0  0 0 0  0 0 0
0 0 0  0 0 0  0 0 0  0 0 0  0 0 0  0 0 0
0 0 0  0 0 0  0 0 0  0 0 0  0 0 0  0 0 0
0 0 0  0 0 0  0 0 0  0 0 0  0 0 0  0 0 0
0 0 0  0 0 0  0 0 0  0 0 0  0 0 0  0 0 0
0 0 0  0 0 0  0 0 0  0 0 0  0 0 0  0 0 0
96 104 172  92 103 172  81 94 163  90 96 161  90 96 161  84 97 167
103 104 172  92 100 166  91 100 170  96 104 172  81 94 163  103 104 172
97 109 177  96 104 172  103 104 172  96 101 171  103 104 172  97 109 177
92 100 166  96 101 171  103 104 172  103 101 171  102 118 186  125 133 195
107 102 171  96 101 169  112 124 189  103 104 172  96 101 171  95 99 164
92 100 166  125 133 195  95 99 164  96 101 171  95 99 164  100 115 184
92 100 166  103 104 172  103 104 172  112 124 189  96 101 169  93 89 151
103 104 172  91 100 170  103 104 172  95 99 164  103 104 172  103 104 172
96 101 169  96 101 169  96 104 172  90 96 161  96 101 169  96 101 169
92 100 166  103 104 172  103 104 172  97 109 177  97 109 177  97 109 177
97 109 177  93 106 175  87 100 170  97 109 177  97 109 177  87 100 170
90 108 178  97 117 187  90 108 178  90 108 178  87 105 175  90 108 178
102 118 186  90 108 178  87 105 175  93 110 180  91 111 182  87 105 175
90 108 178  93 110 180  79 98 168  87 105 175  93 110 180  81 94 163
87 105 175  94 114 184  79 98 168  87 105 175  87 105 175  79 98 168
84 101 172  84 101 172  90 108 178  87 105 175  90 108 178  87 105 175
79 103 173  94 114 184  79 103 173  98 121 191  87 105 175  90 108 178
98 113 182  87 105 175  93 110 180  98 113 182  93 110 180  97 117 187
102 118 186  112 124 189  168 181 224  135 146 200  135 146 200  97 117 187
109 131 201  129 151 212  125 133 195  135 161 220  101 120 189  112 136 203
105 128 199  100 115 184  102 124 194  101 120 189  97 117 187  100 115 184
94 114 184  90 108 178  102 124 194  94 114 184  93 110 180  94 114 184
91 111 182  91 111 182  93 110 180  94 114 184  102 124 194  102 118 186
102 118 186  102 124 194  92 103 172  97 109 177  98 113 182  97 109 177
97 109 177  97 109 177  98 113 182  97 109 177  83 93 156  98 113 182
96 101 171  96 104 172  90 96 161  82 91 153  96 104 172  0 0 0
0 0 0  0 0 0  0 0 0  0 0 0  0 0 0  0 0 0
0 0 0  0 0 0  0 0 0  0 0 0  0 0 0  0 0 0
0 0 0  0 0 0  0 0 0  0 0 0  0 0 0  0 0 0
0 0 0  0 0 0  0 0 0  0 0 0  0 0 0  0 0 0
0 0 0  0 0 0  0 0 0  0 0 0  0 0 0  0 0 0
0 0 0  0 0 0  0 0 0  0 0 0  0 0 0  0 0 0
96 101 171  97 109 177  85 98 163  96 104 172  97 109 177  91 100 170
92 100 166  92 100 166  100 100 169  92 100 166  90 96 161  103 104 172
103 101 171  92 100 166  100 115 184  103 104 172  96 101 171  97 109 177
100 115 184  103 104 172  103 104 172  100 115 184  103 104 172  100 100 169
112 103 172  100 100 169  103 104 172  96 101 169  103 101 171  100 100 169
103 104 172  103 101 171  90 96 161  103 104 172  112 103 172  95 99 164
95 99 164  112 124 189  112 103 172  112 103 172  103 101 171  100 100 169
103 104 172  96 101 171  95 99 164  112 103 172  112 124 189  95 99 164
100 115 184  103 104 172  95 99 164  100 100 169  102 118 186  103 104 172
96 101 169  92 100 166  100 100 169  96 104 172  97 109 177  112 124 189
112 124 189  97 109 177  129 151 212  112 124 189  92 103 172  100 115 184
84 101 172  87 105 175  84 101 172  87 105 175  93 110 180  97 109 177
102 118 186  91 111 182  84 97 167  98 113 182  90 108 178  90 108 178
84 101 172  84 101 172  79 98 168  98 113 182  93 110 180  75 94 162
93 106 175  97 117 187  84 101 172  87 105 175  90 108 178  84 101 172
87 105 175  79 98 168  87 105 175  84 101 172  79 98 168  84 101 172
87 105 175  90 108 178  79 98 168  87 105 175  87 105 175  101 120 189
109 131 201  84 97 167  98 121 191  112 124 189  100 115 184  94 117 188
93 106 175  131 129 178  249 249 249  182 190 223  100 100 169  102 124 194
102 124 194  114 140 208  102 118 186  125 133 195  109 131 201  102 124 194
102 124 194  94 114 184  109 131 201  94 114 184  102 124 194  105 128 199
93 110 180  93 110 180  97 117 187  101 120 189  94 114 184  94 114 184
94 114 184  109 131 201  101 120 189  90 108 178  91 111 182  97 117 187
92 103 172  97 109 177  87 100 170  96 101 171  96 104 172  84 97 167
100 115 184  100 115 184  96 104 172  96 101 171  97 109 177  96 101 171
91 100 170  103 104 172  90 96 161  90 96 161  97 109 177  0 0 0
0 0 0  0 0 0  0 0 0  0 0 0  0 0 0  0 0 0
0 0 0  0 0 0  0 0 0  0 0 0  0 0 0  0 0 0
0 0 0  0 0 0  0 0 0  0 0 0  0 0 0  0 0 0
0 0 0  0 0 0  0 0 0  0 0 0  0 0 0  0 0 0
0 0 0  0 0 0  0 0 0  0 0 0  0 0 0  0 0 0
0 0 0  0 0 0  0 0 0  0 0 0  0 0 0  0 0 0
92 100 166  102 118 186  96 104 172  97 109 177  91 100 170  90 96 161
90 96 161  96 101 169  91 100 170  95 99 164  100 115 184  103 104 172
103 104 172  96 101 171  96 101 169  100 100 169  103 104 172  103 104 172
103 104 172  100 115 184  100 115 184  112 124 189  103 104 172  112 103 172
112 124 189  100 100 169  103 104 172  100 100 169  95 99 164  103 104 172
103 104 172  103 101 171  95 99 164  103 104 172  103 104 172  100 100 169
112 124 189  107 102 171  96 93 156  112 103 172  103 104 172  103 101 171
90 96 161  112 124 189  100 100 169  107 102 171  125 133 195  96 101 169
91 100 170  112 103 172  95 99 164  90 96 161  96 101 169  103 104 172
100 100 169  100 100 169  96 101 169  103 104 172  96 104 172  100 115 184
97 109 177  97 109 177  97 109 177  97 109 177  92 103 172  90 108 178
93 110 180  100 115 184  97 109 177  97 109 177  101 120 189  90 108 178
90 108 178  84 101 172  93 110 180  84 101 172  79 98 168  84 97 167
87 100 170  87 100 170  87 100 170  84 97 167  75 94 162  87 105 175
84 101 172  84 97 167  81 94 163  79 98 168  81 94 163  79 98 168
84 97 167  93 110 180  79 98 168  84 101 172  87 105 175  84 101 172
84 101 172  84 101 172  84 101 172  90 108 178  90 108 178  90 108 178
87 105 175  102 118 186  91 111 182  93 106 175  94 114 184  102 124 194
100 115 184  104 98 164  112 103 172  131 129 178  125 133 195  93 106 175
105 128 199  114 140 208  100 115 184  112 124 189  101 120 189  90 108 178
98 113 182  102 118 186  97 117 187  93 110 180  91 111 182  98 113 182
100 115 184  102 124 194  94 114 184  87 105 175  105 128 199  93 110 180
93 110 180  102 118 186  98 113 182  93 110 180  97 117 187  101 120 189
98 113 182  112 124 189  125 133 195  93 106 175  96 104 172  90 96 161
102 118 186  100 115 184  95 99 164  92 100 166  100 115 184  92 100 166
96 104 172  92 100 166  96 101 171  97 109 177  102 118 186  0 0 0
0 0 0  0 0 0  0 0 0  0 0 0  0 0 0  0 0 0
0 0 0  0 0 0  0 0 0  0 0 0  0 0 0  0 0 0
0 0 0  0 0 0  0 0 0  0 0 0  0 0 0  0 0 0
0 0 0  0 0 0  0 0 0  0 0 0  0 0 0  0 0 0
0 0 0  0 0 0  0 0 0  0 0 0  0 0 0  0 0 0
0 0 0  0 0 0  0 0 0  0 0 0  0 0 0  0 0 0
100 115 184  91 100 170  83 93 156  97 109 177  90 96 161  95 99 164
100 115 184  92 100 166  90 96 161  95 99 164  100 100 169  96 104 172
96 101 171  96 101 171  96 101 171  103 104 172  100 100 169  103 104 172
103 104 172  103 104 172  100 100 169  103 104 172  112 124 189  103 101 171
103 104 172  100 100 169  103 104 172  100 100 169  103 104 172  103 104 172
95 99 164  100 100 169  103 101 171  118 104 173  112 124 189  100 100 169
103 101 171  125 133 195  104 98 164  112 103 172  95 99 164  100 115 184
118 104 173  112 103 172  100 100 169  95 99 164  95 99 164  103 104 172
96 101 169  95 99 164  100 100 169  90 96 161  112 124 189  107 102 171
95 99 164  96 101 169  102 118 186  103 104 172  103 104 172  97 109 177
96 104 172  97 109 177  96 104 172  100 115 184  102 118 186  84 97 167
100 115 184  87 100 170  98 113 182  125 133 195  93 106 175  87 105 175
79 98 168  77 91 160  100 115 184  87 105 175  93 106 175  84 97 167
92 103 172  87 100 170  87 100 170  84 101 172  84 101 172  84 101 172
79 98 168  84 101 172  79 98 168  79 98 168  79 98 168  79 98 168
84 101 172  102 118 186  84 97 167  79 98 168  90 108 178  87 105 175
79 103 173  90 108 178  87 105 175  84 101 172  97 109 177  90 108 178
84 101 172  87 105 175  101 120 189  87 105 175  90 108 178  90 108 178
97 117 187  93 110 180  101 120 189  102 118 186  112 136 203  112 124 189
100 115 184  109 131 201  102 124 194  98 113 182  102 118 186  105 128 199
102 118 186  93 110 180  112 136 203  101 120 189  94 117 188  94 114 184
90 108 178  100 115 184  98 113 182  94 114 184  97 117 187  102 118 186
102 124 194  98 113 182  97 117 187  101 120 189  102 118 186  93 110 180
97 109 177  92 103 172  112 124 189  103 104 172  97 109 177  96 101 171
103 104 172  112 124 189  97 109 177  95 99 164  100 100 169  100 115 184
98 113 182  112 124 189  112 124 189  90 96 161  74 85 151  0 0 0
0 0 0  0 0 0  0 0 0  0 0 0  0 0 0  0 0 0
0 0 0  0 0 0  0 0 0  0 0 0  0 0 0  0 0 0
0 0 0  0 0 0  0 0 0  0 0 0  0 0 0  0 0 0
0 0 0  0 0 0  0 0 0  0 0 0  0 0 0  0 0 0
0 0 0  0 0 0  0 0 0  0 0 0  0 0 0  0 0 0
0 0 0  0 0 0  0 0 0  0 0 0  0 0 0  0 0 0
96 101 171  96 104 172  96 104 172  91 100 170  96 101 169  95 99 164
90 96 161  90 96 161  95 99 164  90 96 161  112 103 172  95 99 164
103 104 172  100 100 169  100 100 169  97 109 177  96 101 171  103 104 172
103 104 172  103 104 172  103 104 172  96 101 171  103 104 172  103 101 171
100 100 169  103 104 172  112 103 172  103 101 171  107 102 171  104 98 164
95 99 164  100 100 169  103 104 172  96 93 156  103 104 172  103 104 172
95 99 164  118 104 173  110 101 169  107 102 171  112 103 172  107 102 171
100 100 169  95 99 164  103 101 171  100 100 169  100 100 169  103 104 172
95 99 164  100 100 169  103 101 171  104 98 164  125 106 175  118 104 173
103 104 172  100 100 169  103 104 172  112 103 172  96 101 169  96 101 171
96 104 172  125 133 195  129 151 212  87 100 170  84 101 172  102 118 186
90 108 178  87 105 175  90 108 178  75 94 162  93 110 180  93 110 180
87 105 175  87 100 170  87 105 175  77 91 160  97 109 177  87 100 170
87 100 170  87 100 170  77 91 160  91 111 182  81 94 163  84 97 167
87 105 175  84 101 172  79 98 168  87 105 175  87 105 175  85 98 163
84 101 172  84 97 167  79 98 168  87 105 175  84 101 172  75 94 162
84 101 172  101 120 189  84 101 172  87 105 175  94 114 184  79 98 168
94 114 184  101 120 189  101 120 189  94 117 188  98 113 182  135 146 200
109 131 201  93 124 195  106 133 204  94 117 188  105 128 199  112 136 203
101 120 189  112 124 189  102 118 186  112 124 189  101 120 189  102 124 194
101 120 189  79 98 168  129 151 212  102 118 186  94 114 184  102 118 186
109 131 201  93 110 180  101 120 189  101 120 189  94 114 184  101 120 189
93 110 180  98 113 182  98 113 182  98 113 182  98 113 182  102 118 186
97 109 177  100 115 184  97 109 177  90 96 161  96 104 172  103 104 172
103 101 171  90 96 161  96 104 172  88 94 157  103 104 172  103 104 172
88 94 157  112 124 189  90 96 161  97 109 177  102 118 186  0 0 0
0 0 0  0 0 0  0 0 0  0 0 0  0 0 0  0 0 0
0 0 0  0 0 0  0 0 0  0 0 0  0 0 0  0 0 0
0 0 0  0 0 0  0 0 0  0 0 0  0 0 0  0 0 0
0 0 0  0 0 0  0 0 0  0 0 0  0 0 0  0 0 0
0 0 0  0 0 0  0 0 0  0 0 0  0 0 0  0 0 0
0 0 0  0 0 0  0 0 0  0 0 0  0 0 0  0 0 0
96 101 169  92 100 166  92 100 166  95 99 164  96 101 169  95 99 164
90 96 161  103 104 172  95 99 164  96 101 169  90 96 161  100 100 169
95 99 164  103 104 172  102 118 186  100 115 184  90 96 161  103 104 172
103 104 172  112 103 172  103 104 172  100 100 169  102 118 186  112 103 172
100 100 169  95 99 164  100 100 169  103 101 171  95 99 164  103 101 171
95 99 164  103 101 171  95 99 164  100 100 169  103 101 171  103 104 172
95 99 164  100 100 169  107 102 171  96 93 156  103 101 171  103 104 172
107 102 171  107 102 171  103 101 171  112 103 172  104 98 164  95 99 164
107 102 171  96 93 156  107 102 171  112 103 172  104 98 164  103 104 172
95 99 164  112 103 172  112 103 172  96 101 169  103 104 172  112 124 189
100 115 184  98 113 182  93 106 175  91 100 170  98 113 182  97 109 177
87 100 170  86 110 181  94 114 184  87 105 175  109 131 201  87 105 175
87 105 175  84 101 172  87 100 170  81 94 163  109 131 201  87 100 170
77 91 160  93 106 175  85 98 163  77 91 160  87 105 175  102 118 186
85 98 163  93 106 175  79 98 168  84 101 172  79 98 168  75 94 162
87 100 170  84 101 172  79 98 168  79 103 173  79 98 168  87 105 175
93 110 180  93 110 180  93 110 180  93 110 180  87 105 175  87 105 175
102 124 194  90 108 178  87 105 175  91 111 182  93 110 180  112 124 189
97 117 187  89 118 189  91 121 192  98 121 191  94 114 184  98 113 182
100 115 184  125 133 195  98 113 182  100 115 184  112 136 203  98 113 182
90 108 178  102 124 194  102 118 186  94 114 184  102 124 194  101 120 189
98 113 182  102 118 186  101 120 189  102 118 186  102 118 186  94 114 184
94 114 184  98 113 182  102 118 186  102 118 186  102 118 186  112 124 189
97 109 177  102 118 186  97 109 177  112 124 189  112 124 189  103 104 172
103 104 172  103 104 172  100 115 184  92 100 166  103 104 172  103 104 172
103 101 171  100 100 169  103 104 172  112 124 189  103 104 172  0 0 0
0 0 0  0 0 0  0 0 0  0 0 0  0 0 0  0 0 0
0 0 0  0 0 0  0 0 0  0 0 0  0 0 0  0 0 0
0 0 0  0 0 0  0 0 0  0 0 0  0 0 0  0 0 0
0 0 0  0 0 0  0 0 0  0 0 0  0 0 0  0 0 0
0 0 0  0 0 0  0 0 0  0 0 0  0 0 0  0 0 0
0 0 0  0 0 0  0 0 0  0 0 0  0 0 0  0 0 0
100 100 169  95 99 164  92 100 166  96 101 169  112 124 189  90 96 161
100 100 169  88 94 157  103 104 172  103 104 172  96 101 169  100 100 169
100 100 169  103 104 172  103 101 171  95 99 164  100 100 169  103 104 172
107 102 171  112 124 189  103 104 172  103 101 171  103 104 172  112 124 189
118 104 173  112 103 172  100 100 169  103 101 171  112 103 172  112 103 172
112 103 172  104 98 164  103 101 171  107 102 171  107 102 171  95 99 164
107 102 171  100 100 169  112 103 172  100 100 169  107 102 171  100 100 169
112 103 172  107 102 171  104 98 164  100 100 169  100 100 169  131 129 178
112 103 172  107 102 171  107 102 171  102 95 160  112 103 172  103 101 171
95 99 164  103 104 172  112 103 172  96 101 169  96 101 169  95 99 164
97 109 177  92 103 172  93 106 175  97 109 177  98 113 182  84 101 172
87 105 175  98 113 182  96 101 169  90 96 161  92 103 172  81 94 163
87 105 175  84 97 167  85 98 163  87 100 170  73 89 157  85 98 163
81 94 163  77 91 160  84 97 167  87 105 175  85 98 163  98 113 182
87 100 170  79 98 168  94 114 184  75 94 162  79 98 168  81 94 163
84 101 172  79 98 168  84 101 172  79 103 173  79 98 168  87 100 170
93 106 175  87 105 175  90 108 178  84 101 172  93 106 175  94 114 184
91 111 182  91 111 182  86 110 181  93 110 180  94 114 184  87 105 175
100 115 184  93 110 180  94 114 184  102 124 194  94 117 188  101 120 189
98 113 182  112 124 189  101 120 189  90 108 178  100 115 184  100 115 184
102 124 194  112 124 189  87 105 175  101 120 189  93 110 180  102 118 186
112 124 189  97 109 177  101 120 189  102 118 186  93 110 180  97 117 187
98 113 182  101 120 189  98 113 182  102 118 186  125 133 195  92 103 172
100 115 184  102 118 186  90 96 161  112 124 189  118 104 173  103 104 172
103 104 172  103 101 171  100 100 169  88 94 157  118 104 173  112 124 189
95 99 164  96 93 156  103 104 172  96 101 169  96 101 169  0 0 0
0 0 0  0 0 0  0 0 0  0 0 0  0 0 0  0 0 0
0 0 0  0 0 0  0 0 0  0 0 0  0 0 0  0 0 0
0 0 0  0 0 0  0 0 0  0 0 0  0 0 0  0 0 0
0 0 0  0 0 0  0 0 0  0 0 0  0 0 0  0 0 0
0 0 0  0 0 0  0 0 0  0 0 0  0 0 0  0 0 0
0 0 0  0 0 0  0 0 0  0 0 0  0 0 0  0 0 0
96 101 169  90 96 161  90 96 161  103 104 172  95 99 164  96 93 156
95 99 164  95 99 164  103 104 172  90 96 161  96 101 169  103 104 172
100 100 169  90 96 161  103 104 172  103 104 172  112 124 189  100 100 169
100 100 169  103 104 172  103 104 172  112 103 172  103 101 171  118 104 173
107 102 171  112 103 172  95 99 164  103 101 171  102 95 160  100 100 169
103 101 171  100 100 169  107 102 171  103 104 172  100 100 169  112 124 189
103 101 171  100 100 169  112 103 172  103 101 171  100 100 169  104 98 164
95 99 164  112 103 172  95 99 164  96 93 156  96 93 156  103 101 171
107 102 171  102 95 160  96 93 156  112 103 172  112 103 172  93 89 151
93 89 151  104 98 164  98 113 182  103 104 172  103 101 171  135 146 200
103 104 172  112 124 189  100 115 184  102 118 186  97 109 177  81 107 178
82 91 153  120 109 156  227 227 230  154 168 212  74 85 151  90 108 178
87 100 170  93 106 175  81 94 163  85 98 163  87 100 170  97 109 177
85 98 163  84 97 167  85 98 163  92 103 172  87 100 170  84 97 167
81 94 163  87 105 175  98 113 182  74 87 154  75 94 162  81 94 163
73 89 157  90 108 178  84 101 172  79 98 168  84 97 167  87 100 170
84 101 172  90 108 178  87 105 175  93 106 175  98 113 182  90 108 178
91 111 182  93 110 180  98 121 191  87 105 175  84 101 172  94 114 184
91 111 182  87 105 175  93 110 180  101 120 189  101 120 189  97 117 187
97 117 187  102 118 186  100 115 184  102 124 194  93 106 175  98 113 182
112 136 203  105 128 199  87 105 175  98 113 182  93 110 180  98 113 182
93 110 180  97 109 177  100 115 184  100 115 184  102 124 194  105 128 199
97 117 187  97 109 177  112 124 189  97 109 177  102 118 186  93 106 175
112 124 189  102 118 186  90 96 161  96 101 169  95 99 164  103 101 171
103 104 172  96 93 156  112 124 189  112 103 172  100 100 169  81 88 149
82 91 153  88 94 157  95 99 164  92 100 166  82 91 153  0 0 0
0 0 0  0 0 0  0 0 0  0 0 0  0 0 0  0 0 0
0 0 0  0 0 0  0 0 0  0 0 0  0 0 0  0 0 0
0 0 0  0 0 0  0 0 0  0 0 0  0 0 0  0 0 0
0 0 0  0 0 0  0 0 0  0 0 0  0 0 0  0 0 0
0 0 0  0 0 0  0 0 0  0 0 0  0 0 0  0 0 0
0 0 0  0 0 0  0 0 0  0 0 0  0 0 0  0 0 0
125 133 195  112 103 172  103 104 172  103 101 171  103 104 172  100 100 169
103 104 172  100 100 169  90 96 161  103 104 172  118 104 173  100 100 169
103 101 171  100 100 169  103 104 172  103 101 171  100 100 169  100 100 169
103 101 171  112 124 189  112 103 172  100 100 169  100 100 169  107 102 171
112 103 172  107 102 171  104 98 164  103 101 171  103 101 171  100 100 169
103 101 171  103 101 171  103 101 171  112 103 172  103 104 172  112 103 172
103 101 171  107 102 171  103 101 171  100 100 169  118 104 173  103 101 171
100 100 169  107 102 171  104 98 164  107 102 171  107 102 171  100 100 169
104 98 164  104 98 164  112 103 172  104 98 164  87 79 137  136 115 182
165 158 197  102 95 160  95 99 164  112 103 172  96 93 156  112 124 189
104 98 164  112 103 172  103 104 172  95 99 164  91 100 170  93 106 175
103 104 172  103 91 154  165 158 197  112 103 172  83 93 156  87 105 175
85 98 163  85 98 163  85 98 163  81 94 163  96 104 172  92 103 172
87 100 170  85 98 163  76 88 155  74 87 154  93 106 175  87 100 170
77 91 160  87 100 170  93 106 175  84 97 167  84 101 172  81 94 163
84 97 167  87 100 170  79 98 168  87 105 175  79 98 168  84 97 167
93 106 175  87 105 175  81 94 163  102 124 194  87 105 175  84 101 172
90 108 178  94 114 184  93 110 180  100 115 184  101 120 189  94 114 184
87 105 175  101 120 189  93 110 180  90 108 178  101 120 189  90 108 178
114 140 208  102 118 186  93 110 180  98 113 182  98 113 182  94 114 184
112 124 189  98 113 182  100 115 184  100 115 184  92 103 172  93 110 180
91 100 170  125 133 195  135 161 220  112 124 189  98 113 182  100 115 184
96 104 172  112 124 189  112 124 189  96 104 172  97 109 177  103 104 172
97 109 177  112 124 189  103 104 172  103 104 172  118 104 173  103 101 171
100 100 169  102 95 160  112 103 172  96 93 156  82 91 153  83 93 156
88 94 157  74 85 151  66 74 136  78 86 147  73 81 142  0 0 0
0 0 0  0 0 0  0 0 0  0 0 0  0 0 0  0 0 0
0 0 0  0 0 0  0 0 0  0 0 0  0 0 0  0 0 0
0 0 0  0 0 0  0 0 0  0 0 0  0 0 0  0 0 0
0 0 0  0 0 0  0 0 0  0 0 0  0 0 0  0 0 0
0 0 0  0 0 0  0 0 0  0 0 0  0 0 0  0 0 0
0 0 0  0 0 0  0 0 0  0 0 0  0 0 0  0 0 0
100 100 169  90 96 161  103 101 171  100 100 169  103 101 171  102 95 160
95 99 164  100 100 169  96 93 156  95 99 164  103 104 172  103 101 171
107 102 171  107 102 171  95 99 164  103 101 171  118 104 173  107 102 171
95 99 164  118 104 173  125 106 175  107 102 171  112 124 189  95 99 164
107 102 171  112 103 172  103 101 171  103 101 171  107 102 171  104 98 164
112 103 172  103 101 171  95 99 164  90 96 161  103 104 172  100 100 169
100 100 169  103 101 171  100 100 169  112 103 172  107 102 171  104 98 164
100 100 169  102 95 160  104 98 164  107 102 171  112 103 172  107 102 171
96 93 156  112 103 172  107 102 171  115 101 168  131 129 178  144 113 165
202 209 229  96 93 156  103 101 171  107 102 171  112 124 189  125 133 195
93 89 151  100 100 169  103 104 172  88 94 157  92 100 166  96 104 172
103 104 172  81 88 149  77 83 144  74 85 151  81 94 163  77 91 160
85 98 163  85 98 163  91 100 170  85 98 163  87 100 170  85 98 163
77 91 160  87 100 170  96 104 172  87 100 170  73 89 157  75 94 162
87 100 170  81 94 163  81 94 163  77 91 160  84 97 167  87 105 175
85 98 163  85 98 163  81 94 163  87 100 170  84 97 167  93 106 175
93 106 175  84 101 172  84 101 172  84 101 172  87 100 170  93 106 175
93 110 180  79 98 168  90 108 178  87 105 175  90 108 178  84 101 172
87 105 175  90 108 178  98 113 182  93 110 180  93 106 175  100 115 184
101 120 189  98 113 182  93 110 180  98 113 182  101 120 189  100 115 184
98 113 182  87 105 175  93 106 175  91 100 170  87 100 170  93 106 175
96 104 172  98 113 182  97 109 177  100 115 184  95 99 164  131 129 178
125 106 175  125 133 195  97 109 177  100 115 184  131 129 178  125 133 195
95 99 164  97 109 177  103 104 172  104 98 164  112 103 172  107 102 171
107 102 171  96 93 156  104 98 164  96 93 156  81 88 149  81 88 149
81 88 149  74 85 151  77 83 144  73 81 142  69 77 138  0 0 0
0 0 0  0 0 0  0 0 0  0 0 0  0 0 0  0 0 0
0 0 0  0 0 0  0 0 0  0 0 0  0 0 0  0 0 0
0 0 0  0 0 0  0 0 0  0 0 0  0 0 0  0 0 0
0 0 0  0 0 0  0 0 0  0 0 0  0 0 0  0 0 0
0 0 0  0 0 0  0 0 0  0 0 0  0 0 0  0 0 0
0 0 0  0 0 0  0 0 0  0 0 0  0 0 0  0 0 0
103 101 171  93 89 151  100 100 169  100 100 169  95 99 164  100 100 169
95 99 164  112 124 189  103 101 171  112 124 189  100 100 169  100 100 169
112 103 172  95 99 164  100 100 169  100 100 169  103 101 171  100 100 169
107 102 171  107 102 171  102 95 160  104 98 164  112 103 172  104 98 164
112 103 172  103 101 171  103 101 171  103 101 171  95 99 164  102 95 160
112 103 172  100 100 169  103 104 172  100 100 169  112 124 189  95 99 164
103 104 172  100 100 169  100 100 169  95 99 164  103 101 171  102 95 160
107 102 171  102 95 160  110 101 169  110 101 169  104 98 164  107 102 171
107 102 171  104 98 164  102 95 160  101 84 147  173 172 216  129 104 171
120 109 156  102 95 160  100 100 169  96 93 156  125 133 195  112 103 172
95 99 164  83 93 156  103 104 172  97 109 177  88 94 157  90 96 161
90 96 161  84 101 172  87 105 175  84 97 167  85 98 163  85 98 163
93 106 175  77 91 160  81 94 163  81 94 163  85 98 163  85 98 163
81 94 163  81 94 163  81 94 163  92 103 172  92 100 166  85 98 163
77 91 160  81 94 163  85 98 163  84 97 167  81 94 163  75 94 162
85 98 163  92 103 172  98 113 182  75 94 162  84 97 167  85 98 163
84 97 167  84 101 172  84 101 172  93 106 175  100 115 184  85 98 163
102 118 186  97 117 187  97 109 177  87 105 175  93 110 180  102 118 186
93 106 175  93 110 180  100 115 184  112 124 189  112 124 189  98 113 182
101 120 189  109 131 201  98 113 182  100 115 184  102 124 194  98 113 182
93 110 180  109 131 201  102 118 186  98 113 182  98 113 182  112 124 189
125 133 195  100 115 184  97 109 177  92 103 172  100 100 169  182 190 223
135 146 200  107 102 171  103 104 172  135 146 200  131 129 178  118 104 173
107 102 171  95 99 164  112 103 172  112 103 172  107 102 171  100 100 169
102 95 160  110 101 169  96 93 156  88 94 157  77 83 144  73 81 142
78 86 147  73 81 142  81 88 149  74 85 151  77 83 144  0 0 0
0 0 0  0 0 0  0 0 0  0 0 0  0 0 0  0 0 0
0 0 0  0 0 0  0 0 0  0 0 0  0 0 0  0 0 0
0 0 0  0 0 0  0 0 0  0 0 0  0 0 0  0 0 0
0 0 0  0 0 0  0 0 0  0 0 0  0 0 0  0 0 0
0 0 0  0 0 0  0 0 0  0 0 0  0 0 0  0 0 0
0 0 0  0 0 0  0 0 0  0 0 0  0 0 0  0 0 0
102 95 160  100 100 169  100 100 169  104 98 164  100 100 169  102 95 160
104 98 164  103 101 171  100 100 169  112 103 172  107 102 171  112 103 172
107 102 171  112 103 172  118 104 173  107 102 171  104 98 164  107 102 171
112 124 189  112 103 172  112 103 172  125 106 175  107 102 171  107 102 171
112 103 172  103 101 171  107 102 171  104 98 164  103 101 171  104 98 164
95 99 164  103 104 172  103 101 171  112 124 189  100 100 169  100 100 169
112 103 172  100 100 169  103 104 172  107 102 171  104 98 164  107 102 171
104 98 164  103 101 171  110 101 169  96 93 156  102 95 160  104 98 164
110 101 169  102 95 160  125 106 175  102 95 160  102 95 160  118 104 173
104 98 164  95 99 164  100 100 169  103 101 171  93 89 151  88 94 157
100 100 169  88 94 157  103 104 172  103 104 172  90 96 161  88 94 157
87 100 170  84 101 172  79 98 168  92 103 172  81 94 163  83 93 156
112 124 189  85 98 163  83 93 156  85 98 163  85 98 163  77 91 160
76 88 155  76 88 155  85 98 163  82 91 153  74 85 151  81 94 163
81 94 163  76 88 155  73 89 157  77 91 160  81 94 163  85 98 163
97 109 177  74 85 151  85 98 163  75 94 162  84 101 172  84 97 167
87 100 170  93 110 180  81 94 163  125 133 195  135 146 200  77 91 160
93 110 180  93 110 180  97 109 177  98 113 182  102 118 186  102 118 186
112 124 189  102 118 186  101 120 189  100 115 184  112 124 189  90 108 178
112 136 203  129 151 212  102 118 186  93 106 175  97 109 177  102 118 186
98 113 182  100 115 184  102 118 186  125 133 195  85 98 163  97 109 177
96 104 172  97 109 177  100 115 184  100 115 184  112 124 189  125 133 195
112 103 172  125 106 175  107 102 171  112 103 172  102 95 160  104 98 164
112 103 172  112 103 172  112 103 172  96 93 156  93 89 151  93 89 151
86 85 143  96 93 156  82 84 141  73 81 142  82 91 153  77 83 144
74 85 151  64 72 132  81 88 149  74 85 151  69 77 138  0 0 0
0 0 0  0 0 0  0 0 0  0 0 0  0 0 0  0 0 0
0 0 0  0 0 0  0 0 0  0 0 0  0 0 0  0 0 0
0 0 0  0 0 0  0 0 0  0 0 0  0 0 0  0 0 0
0 0 0  0 0 0  0 0 0  0 0 0  0 0 0  0 0 0
0 0 0  0 0 0  0 0 0  0 0 0  0 0 0  0 0 0
0 0 0  0 0 0  0 0 0  0 0 0  0 0 0  0 0 0
102 95 160  104 98 164  95 99 164  100 100 169  100 100 169  96 93 156
112 103 172  103 101 171  104 98 164  100 100 169  104 98 164  103 101 171
104 98 164  100 100 169  107 102 171  112 103 172  112 103 172  107 102 171
107 102 171  107 102 171  107 102 171  107 102 171  112 103 172  112 103 172
104 98 164  107 102 171  107 102 171  107 102 171  107 102 171  118 104 173
100 100 169  103 101 171  102 95 160  103 104 172  107 102 171  104 98 164
103 104 172  100 100 169  102 95 160  107 102 171  104 98 164  104 98 164
96 93 156  110 101 169  104 98 164  131 129 178  102 95 160  104 98 164
112 103 172  109 97 163  131 129 178  104 98 164  112 103 172  103 104 172
103 104 172  95 99 164  100 100 169  107 102 171  100 100 169  95 99 164
88 94 157  88 94 157  90 96 161  88 94 157  88 94 157  92 100 166
85 98 163  83 93 156  82 91 153  88 94 157  92 100 166  92 100 166
81 88 149  85 98 163  83 93 156  85 98 163  85 98 163  74 87 154
87 100 170  91 100 170  74 87 154  74 87 154  81 94 163  92 103 172
76 88 155  81 94 163  87 100 170  77 91 160  81 94 163  81 94 163
85 98 163  87 100 170  102 118 186  81 94 163  87 100 170  87 100 170
87 105 175  93 110 180  92 100 166  97 109 177  98 113 182  87 100 170
94 114 184  98 113 182  84 97 167  97 109 177  87 100 170  97 109 177
102 118 186  102 118 186  102 118 186  112 124 189  102 118 186  84 101 172
94 114 184  97 109 177  97 109 177  102 118 186  93 106 175  102 118 186
97 109 177  93 106 175  96 104 172  112 124 189  97 109 177  93 106 175
102 118 186  96 101 171  97 109 177  112 124 189  103 104 172  97 109 177
90 96 161  125 133 195  131 129 178  100 100 169  81 94 163  112 103 172
125 106 175  118 104 173  96 93 156  118 104 173  125 106 175  86 85 143
125 133 195  93 89 151  78 86 147  88 94 157  66 74 136  73 81 142
69 77 138  66 74 136  96 101 169  66 74 136  74 85 151  0 0 0
0 0 0  0 0 0  0 0 0  0 0 0  0 0 0  0 0 0
0 0 0  0 0 0  0 0 0  0 0 0  0 0 0  0 0 0
0 0 0  0 0 0  0 0 0  0 0 0  0 0 0  0 0 0
0 0 0  0 0 0  0 0 0  0 0 0  0 0 0  0 0 0
0 0 0  0 0 0  0 0 0  0 0 0  0 0 0  0 0 0
0 0 0  0 0 0  0 0 0  0 0 0  0 0 0  0 0 0
102 95 160  104 98 164  107 102 171  103 101 171  107 102 171  102 95 160
112 103 172  104 98 164  104 98 164  107 102 171  104 98 164  107 102 171
110 101 169  102 95 160  107 102 171  107 102 171  136 115 182  136 115 182
102 95 160  107 102 171  104 98 164  112 103 172  112 103 172  104 98 164
112 103 172  107 102 171  107 102 171  110 101 169  107 102 171  107 102 171
100 100 169  102 95 160  104 98 164  112 124 189  112 103 172  100 100 169
103 104 172  112 103 172  110 101 169  110 101 169  107 102 171  104 98 164
102 95 160  104 98 164  104 98 164  109 97 163  110 101 169  118 104 173
104 98 164  104 98 164  103 101 171  107 102 171  103 104 172  100 100 169
100 100 169  100 100 169  95 99 164  90 96 161  87 89 150  96 93 156
95 99 164  88 94 157  83 93 156  88 94 157  88 94 157  83 93 156
88 94 157  88 94 157  88 94 157  88 94 157  83 93 156  92 100 166
83 93 156  85 98 163  85 98 163  83 93 156  83 93 156  82 91 153
76 88 155  85 98 163  78 86 147  97 109 177  82 91 153  85 98 163
82 91 153  83 93 156  83 93 156  85 98 163  82 91 153  81 94 163
77 91 160  87 100 170  85 98 163  74 85 151  85 98 163  98 113 182
87 100 170  75 94 162  93 106 175  96 104 172  85 98 163  98 113 182
87 100 170  97 109 177  98 113 182  112 124 189  97 109 177  102 118 186
100 115 184  92 100 166  125 133 195  112 124 189  112 124 189  100 115 184
102 118 186  97 109 177  92 103 172  97 109 177  98 113 182  97 109 177
97 109 177  96 104 172  103 104 172  95 99 164  112 124 189  96 104 172
98 113 182  98 113 182  100 100 169  92 100 166  81 94 163  112 124 189
103 104 172  107 102 171  107 102 171  102 95 160  96 101 171  104 98 164
95 99 164  103 101 171  96 93 156  112 103 172  103 104 172  82 84 141
100 100 169  86 85 143  88 94 157  69 77 138  82 91 153  82 91 153
69 77 138  90 96 161  73 81 142  66 74 136  78 86 147  0 0 0
0 0 0  0 0 0  0 0 0  0 0 0  0 0 0  0 0 0
0 0 0  0 0 0  0 0 0  0 0 0  0 0 0  0 0 0
0 0 0  0 0 0  0 0 0  0 0 0  0 0 0  0 0 0
0 0 0  0 0 0  0 0 0  0 0 0  0 0 0  0 0 0
0 0 0  0 0 0  0 0 0  0 0 0  0 0 0  0 0 0
0 0 0  0 0 0  0 0 0  0 0 0  0 0 0  0 0 0
112 103 172  107 102 171  96 93 156  104 98 164  107 102 171  103 101 171
118 104 173  112 103 172  102 95 160  103 101 171  104 98 164  107 102 171
112 103 172  112 103 172  112 103 172  103 101 171  118 104 173  118 104 173
107 102 171  125 106 175  107 102 171  107 102 171  107 102 171  125 106 175
112 103 172  107 102 171  112 103 172  107 102 171  112 103 172  100 100 169
104 98 164  107 102 171  103 101 171  100 100 169  103 104 172  103 101 171
103 101 171  112 103 172  104 98 164  104 98 164  110 101 169  93 89 151
110 101 169  125 106 175  136 115 182  104 98 164  107 102 171  104 98 164
102 95 160  102 95 160  104 98 164  110 101 169  104 98 164  104 98 164
95 99 164  90 96 161  100 100 169  88 94 157  81 88 149  96 93 156
95 99 164  88 94 157  83 93 156  96 101 169  90 96 161  87 89 150
95 99 164  96 104 172  81 94 163  90 96 161  83 93 156  81 94 163
77 91 160  82 91 153  81 94 163  76 88 155  74 87 154  85 98 163
76 88 155  74 85 151  82 91 153  88 94 157  81 88 149  83 93 156
85 98 163  76 88 155  74 87 154  76 88 155  82 91 153  77 91 160
76 88 155  85 98 163  84 97 167  87 100 170  75 94 162  92 103 172
92 100 166  87 100 170  93 110 180  102 118 186  93 106 175  98 113 182
92 103 172  96 101 169  97 109 177  97 109 177  93 106 175  112 124 189
97 109 177  112 124 189  102 118 186  125 133 195  96 104 172  90 108 178
102 118 186  135 146 200  145 166 222  112 124 189  87 105 175  98 113 182
112 124 189  103 104 172  103 104 172  96 104 172  97 109 177  97 109 177
96 101 169  100 115 184  98 113 182  81 94 163  100 115 184  103 104 172
118 104 173  103 104 172  112 103 172  100 100 169  107 102 171  131 129 178
112 124 189  96 93 156  102 95 160  69 77 138  77 83 144  77 83 144
69 73 131  77 83 144  69 77 138  66 74 136  81 88 149  74 85 151
66 74 136  69 77 138  66 74 136  73 81 142  66 74 136  0 0 0
0 0 0  0 0 0  0 0 0  0 0 0  0 0 0  0 0 0
0 0 0  0 0 0  0 0 0  0 0 0  0 0 0  0 0 0
0 0 0  0 0 0  0 0 0  0 0 0  0 0 0  0 0 0
0 0 0  0 0 0  0 0 0  0 0 0  0 0 0  0 0 0
0 0 0  0 0 0  0 0 0  0 0 0  0 0 0  0 0 0
0 0 0  0 0 0  0 0 0  0 0 0  0 0 0  0 0 0
107 102 171  102 95 160  118 104 173  110 101 169  110 101 169  112 103 172
107 102 171  110 101 169  110 101 169  118 104 173  110 101 169  110 101 169
112 103 172  110 101 169  118 104 173  118 104 173  104 98 164  118 104 173
112 103 172  118 104 173  112 103 172  107 102 171  112 103 172  112 103 172
115 101 168  104 98 164  125 106 175  118 104 173  104 98 164  110 101 169
110 101 169  102 95 160  110 101 169  102 95 160  110 101 169  112 103 172
103 91 154  118 104 173  110 101 169  104 98 164  109 97 163  102 95 160
109 97 163  109 97 163  115 101 168  109 97 163  109 97 163  118 104 173
102 95 160  104 98 164  96 93 156  104 98 164  104 98 164  103 104 172
100 100 169  95 99 164  90 96 161  81 88 149  88 94 157  88 94 157
87 89 150  88 94 157  90 96 161  88 94 157  87 89 150  96 93 156
96 93 156  96 93 156  78 86 147  88 94 157  78 86 147  95 99 164
88 94 157  83 93 156  85 98 163  74 85 151  78 86 147  83 93 156
82 91 153  82 91 153  78 86 147  78 86 147  73 81 142  73 81 142
83 93 156  81 88 149  82 91 153  83 93 156  88 94 157  82 91 153
85 98 163  81 94 163  74 85 151  92 103 172  92 100 166  85 98 163
81 94 163  92 100 166  102 118 186  102 118 186  93 106 175  93 106 175
98 113 182  90 96 161  112 124 189  92 103 172  97 109 177  96 104 172
112 124 189  125 133 195  102 118 186  102 118 186  98 113 182  98 113 182
98 113 182  102 118 186  98 113 182  112 124 189  100 115 184  97 109 177
103 104 172  90 96 161  103 104 172  100 100 169  112 103 172  103 104 172
100 100 169  125 133 195  103 104 172  100 115 184  103 104 172  100 115 184
103 104 172  95 99 164  103 104 172  112 103 172  125 133 195  102 95 160
104 98 164  104 98 164  93 89 151  78 86 147  73 81 142  78 86 147
73 81 142  78 86 147  77 83 144  69 77 138  73 81 142  69 77 138
73 81 142  69 77 138  69 77 138  69 77 138  69 77 138  0 0 0
0 0 0  0 0 0  0 0 0  0 0 0  0 0 0  0 0 0
0 0 0  0 0 0  0 0 0  0 0 0  0 0 0  0 0 0
0 0 0  0 0 0  0 0 0  0 0 0  0 0 0  0 0 0
0 0 0  0 0 0  0 0 0  0 0 0  0 0 0  0 0 0
0 0 0  0 0 0  0 0 0  0 0 0  0 0 0  0 0 0
0 0 0  0 0 0  0 0 0  0 0 0  0 0 0  0 0 0
107 102 171  110 101 169  102 95 160  109 97 163  112 103 172  110 101 169
110 101 169  104 98 164  109 97 163  118 104 173  96 93 156  112 103 172
110 101 169  104 98 164  112 103 172  112 103 172  112 103 172  118 104 173
118 104 173  118 104 173  110 101 169  112 124 189  107 102 171  110 101 169
125 106 175  107 102 171  112 103 172  110 101 169  112 103 172  104 98 164
102 95 160  112 103 172  110 101 169  107 102 171  112 103 172  107 102 171
112 103 172  110 101 169  104 98 164  109 97 163  102 95 160  115 101 168
118 104 173  109 97 163  115 101 168  115 101 168  109 97 163  112 103 172
109 97 163  125 106 175  104 98 164  102 95 160  104 98 164  90 96 161
90 96 161  96 93 156  95 99 164  86 85 143  87 89 150  104 98 164
88 94 157  78 86 147  87 89 150  87 89 150  87 89 150  87 89 150
95 99 164  90 96 161  88 94 157  83 93 156  83 93 156  96 104 172
82 91 153  74 85 151  85 98 163  90 96 161  78 86 147  82 91 153
74 85 151  73 81 142  83 93 156  83 93 156  85 98 163  73 81 142
73 81 142  74 85 151  78 86 147  90 96 161  88 94 157  81 88 149
83 93 156  92 100 166  76 88 155  85 98 163  83 93 156  91 100 170
85 98 163  93 106 175  96 104 172  112 124 189  92 100 166  92 103 172
97 109 177  96 104 172  103 104 172  98 113 182  97 109 177  112 103 172
112 103 172  95 99 164  103 104 172  103 104 172  100 115 184  97 109 177
96 101 169  97 109 177  97 109 177  92 100 166  96 101 169  103 104 172
97 109 177  103 101 171  112 124 189  103 104 172  103 104 172  103 104 172
103 104 172  96 93 156  100 100 169  100 115 184  92 100 166  90 96 161
125 133 195  102 118 186  92 100 166  96 101 169  112 124 189  125 133 195
93 89 151  96 93 156  77 83 144  73 81 142  69 77 138  66 74 136
69 77 138  73 81 142  69 77 138  73 81 142  69 77 138  69 77 138
69 77 138  73 81 142  78 86 147  66 74 136  73 81 142  0 0 0
0 0 0  0 0 0  0 0 0  0 0 0  0 0 0  0 0 0
0 0 0  0 0 0  0 0 0  0 0 0  0 0 0  0 0 0
0 0 0  0 0 0  0 0 0  0 0 0  0 0 0  0 0 0
0 0 0  0 0 0  0 0 0  0 0 0  0 0 0  0 0 0
0 0 0  0 0 0  0 0 0  0 0 0  0 0 0  0 0 0
0 0 0  0 0 0  0 0 0  0 0 0  0 0 0  0 0 0
104 98 164  104 98 164  104 98 164  109 97 163  104 98 164  110 101 169
110 101 169  115 101 168  136 115 182  125 106 175  110 101 169  118 104 173
110 101 169  118 104 173  118 104 173  110 101 169  112 103 172  112 103 172
118 104 173  136 115 182  104 98 164  136 115 182  125 106 175  112 103 172
112 103 172  110 101 169  118 104 173  109 97 163  109 97 163  125 106 175
110 101 169  110 101 169  109 97 163  112 103 172  118 104 173  104 98 164
102 95 160  109 97 163  115 101 168  103 91 154  115 101 168  118 104 173
113 91 156  103 91 154  115 101 168  109 97 163  118 104 173  103 91 154
109 97 163  104 98 164  93 89 151  96 93 156  90 96 161  88 94 157
87 89 150  104 98 164  112 103 172  96 93 156  96 93 156  107 102 171
96 93 156  82 84 141  112 103 172  96 93 156  88 86 146  90 96 161
87 89 150  87 89 150  88 94 157  78 86 147  78 86 147  81 88 149
77 83 144  76 88 155  78 86 147  88 94 157  81 88 149  78 86 147
74 87 154  74 85 151  73 81 142  66 74 136  81 88 149  82 91 153
78 86 147  78 86 147  78 86 147  73 81 142  78 86 147  82 91 153
83 93 156  83 93 156  90 96 161  82 91 153  85 98 163  83 93 156
85 98 163  92 103 172  87 100 170  92 103 172  96 101 169  96 104 172
92 100 166  90 96 161  98 113 182  97 109 177  103 104 172  112 103 172
118 104 173  112 124 189  112 103 172  103 104 172  103 104 172  96 104 172
97 109 177  112 124 189  96 104 172  112 124 189  95 99 164  103 104 172
96 101 171  103 101 171  100 100 169  103 104 172  100 100 169  103 104 172
95 99 164  103 104 172  103 104 172  97 109 177  90 96 161  92 100 166
112 124 189  92 100 166  83 93 156  96 104 172  83 93 156  118 104 173
77 83 144  73 81 142  64 72 132  73 81 142  69 73 131  88 94 157
73 81 142  81 88 149  69 77 138  69 77 138  69 77 138  77 83 144
69 77 138  66 74 136  66 74 136  64 72 132  83 93 156  0 0 0
0 0 0  0 0 0  0 0 0  0 0 0  0 0 0  0 0 0
0 0 0  0 0 0  0 0 0  0 0 0  0 0 0  0 0 0
0 0 0  0 0 0  0 0 0  0 0 0  0 0 0  0 0 0
0 0 0  0 0 0  0 0 0  0 0 0  0 0 0  0 0 0
0 0 0  0 0 0  0 0 0  0 0 0  0 0 0  0 0 0
0 0 0  0 0 0  0 0 0  0 0 0  0 0 0  0 0 0
102 95 160  118 104 173  110 101 169  118 104 173  125 106 175  110 101 169
118 104 173  118 104 173  118 104 173  109 97 163  110 101 169  118 104 173
110 101 169  125 106 175  112 103 172  125 106 175  112 103 172  112 103 172
112 103 172  112 103 172  112 103 172  110 101 169  102 95 160  118 104 173
125 106 175  118 104 173  110 101 169  118 104 173  125 106 175  102 95 160
109 97 163  109 97 163  109 97 163  110 101 169  136 115 182  102 95 160
110 101 169  109 97 163  118 104 173  102 95 160  125 106 175  115 101 168
109 97 163  110 101 169  109 97 163  109 97 163  103 91 154  115 101 168
102 95 160  102 95 160  102 95 160  93 89 151  87 89 150  96 93 156
104 98 164  88 86 146  93 89 151  93 89 151  86 85 143  86 85 143
87 89 150  87 89 150  77 83 144  107 102 171  86 85 143  88 86 146
87 89 150  88 94 157  86 85 143  82 84 141  83 93 156  82 91 153
81 88 149  78 86 147  78 86 147  73 81 142  81 88 149  81 88 149
77 83 144  73 81 142  73 81 142  73 81 142  78 86 147  78 86 147
73 81 142  73 81 142  81 88 149  88 94 157  81 88 149  81 88 149
82 91 153  85 98 163  83 93 156  85 98 163  92 100 166  85 98 163
85 98 163  85 98 163  87 100 170  87 100 170  84 97 167  96 104 172
97 109 177  96 104 172  100 115 184  103 104 172  103 104 172  103 104 172
131 129 178  154 168 212  102 95 160  95 99 164  103 104 172  88 94 157
103 104 172  96 101 169  100 100 169  118 104 173  95 99 164  90 96 161
112 124 189  107 102 171  103 104 172  103 101 171  103 101 171  96 101 169
100 100 169  96 104 172  96 101 169  100 115 184  96 101 169  96 104 172
90 96 161  81 94 163  84 97 167  83 93 156  81 94 163  88 86 146
77 83 144  69 77 138  77 83 144  77 83 144  73 81 142  77 83 144
66 74 136  69 77 138  66 74 136  77 83 144  69 77 138  66 74 136
66 74 136  69 77 138  66 74 136  66 74 136  69 77 138  0 0 0
0 0 0  0 0 0  0 0 0  0 0 0  0 0 0  0 0 0
0 0 0  0 0 0  0 0 0  0 0 0  0 0 0  0 0 0
0 0 0  0 0 0  0 0 0  0 0 0  0 0 0  0 0 0
0 0 0  0 0 0  0 0 0  0 0 0  0 0 0  0 0 0
0 0 0  0 0 0  0 0 0  0 0 0  0 0 0  0 0 0
0 0 0  0 0 0  0 0 0  0 0 0  0 0 0  0 0 0
118 104 173  118 104 173  110 101 169  110 101 169  118 104 173  118 104 173
112 103 172  104 98 164  118 104 173  125 106 175  118 104 173  125 106 175
125 106 175  118 104 173  125 133 195  136 115 182  112 103 172  125 106 175
110 101 169  125 106 175  118 104 173  125 106 175  125 106 175  125 106 175
112 103 172  118 104 173  118 104 173  118 104 173  109 97 163  115 101 168
109 97 163  109 89 153  103 91 154  109 97 163  109 97 163  109 97 163
118 104 173  109 97 163  103 91 154  109 97 163  109 97 163  115 101 168
109 97 163  115 101 168  102 95 160  102 95 160  103 91 154  125 106 175
109 97 163  96 93 156  102 95 160  102 95 160  93 89 151  96 93 156
96 93 156  86 85 143  93 89 151  88 86 146  87 89 150  96 93 156
86 85 143  88 86 146  96 93 156  82 84 141  86 85 143  87 89 150
96 93 156  88 86 146  88 86 146  88 86 146  87 89 150  77 85 141
77 85 141  88 94 157  81 88 149  77 85 141  78 86 147  77 83 144
73 81 142  90 96 161  77 85 141  77 83 144  77 85 141  69 77 138
77 83 144  78 86 147  73 81 142  78 86 147  81 88 149  78 86 147
78 86 147  82 91 153  83 93 156  83 93 156  83 93 156  82 91 153
88 94 157  88 94 157  97 109 177  97 109 177  90 96 161  96 101 169
95 99 164  96 101 169  90 96 161  103 104 172  103 104 172  100 100 169
112 124 189  112 103 172  100 100 169  96 101 169  100 100 169  112 124 189
103 104 172  103 104 172  103 104 172  95 99 164  103 104 172  112 103 172
103 104 172  112 103 172  103 104 172  103 104 172  112 103 172  103 104 172
100 100 169  103 104 172  92 100 166  96 101 169  103 104 172  90 96 161
90 96 161  92 100 166  92 100 166  90 96 161  92 100 166  90 96 161
77 83 144  82 84 141  96 93 156  63 67 125  81 88 149  64 72 132
77 83 144  69 77 138  78 86 147  73 81 142  66 74 136  82 91 153
73 81 142  69 77 138  78 86 147  78 86 147  73 81 142  0 0 0
0 0 0  0 0 0  0 0 0  0 0 0  0 0 0  0 0 0
0 0 0  0 0 0  0 0 0  0 0 0  0 0 0  0 0 0
0 0 0  0 0 0  0 0 0  0 0 0  0 0 0  0 0 0
0 0 0  0 0 0  0 0 0  0 0 0  0 0 0  0 0 0
0 0 0  0 0 0  0 0 0  0 0 0  0 0 0  0 0 0
0 0 0  0 0 0  0 0 0  0 0 0  0 0 0  0 0 0
109 97 163  115 101 168  118 104 173  118 104 173  110 101 169  118 104 173
118 104 173  112 103 172  110 101 169  118 104 173  125 106 175  118 104 173
118 104 173  118 104 173  112 103 172  110 101 169  118 104 173  109 97 163
112 103 172  104 98 164  110 101 169  118 104 173  118 104 173  115 101 168
110 101 169  110 101 169  136 115 182  112 103 172  109 97 163  112 103 172
115 101 168  115 101 168  109 97 163  115 94 159  125 106 175  115 101 168
113 91 156  109 97 163  109 97 163  115 101 168  118 96 163  115 101 168
115 101 168  103 91 154  103 91 154  103 91 154  109 97 163  102 95 160
93 89 151  104 98 164  96 93 156  93 89 151  96 93 156  96 93 156
81 88 149  90 96 161  87 89 150  86 85 143  88 86 146  87 89 150
87 89 150  81 81 137  96 93 156  88 86 146  87 89 150  88 86 146
81 81 137  87 89 150  86 85 143  86 85 143  87 89 150  87 89 150
87 89 150  81 88 149  77 85 141  77 85 141  77 85 141  73 81 142
75 80 135  82 91 153  77 85 141  73 81 142  77 83 144  73 81 142
69 77 138  77 85 141  77 85 141  77 85 141  81 88 149  78 86 147
81 88 149  77 83 144  82 91 153  78 86 147  83 93 156  88 94 157
90 96 161  95 99 164  118 104 173  120 109 156  109 97 163  104 98 164
96 101 169  96 104 172  103 104 172  103 104 172  95 99 164  107 102 171
103 104 172  95 99 164  103 104 172  95 99 164  90 96 161  100 100 169
95 99 164  100 100 169  112 103 172  112 103 172  103 104 172  103 104 172
100 100 169  95 99 164  103 104 172  107 102 171  95 99 164  103 104 172
103 104 172  96 101 169  90 96 161  90 96 161  92 100 166  81 94 163
103 104 172  82 91 153  85 98 163  82 91 153  88 94 157  82 91 153
69 73 131  75 76 131  95 99 164  73 81 142  66 74 136  69 77 138
73 81 142  73 81 142  73 81 142  69 77 138  73 81 142  82 91 153
82 91 153  64 72 132  73 81 142  90 96 161  64 72 132  0 0 0
0 0 0  0 0 0  0 0 0  0 0 0  0 0 0  0 0 0
0 0 0  0 0 0  0 0 0  0 0 0  0 0 0  0 0 0
0 0 0  0 0 0  0 0 0  0 0 0  0 0 0  0 0 0
0 0 0  0 0 0  0 0 0  0 0 0  0 0 0  0 0 0
0 0 0  0 0 0  0 0 0  0 0 0  0 0 0  0 0 0
0 0 0  0 0 0  0 0 0  0 0 0  0 0 0  0 0 0
102 95 160  112 103 172  136 115 182  125 106 175  109 97 163  115 101 168
125 106 175  115 101 168  125 106 175  118 104 173  118 104 173  118 104 173
125 106 175  118 104 173  125 106 175  125 106 175  118 104 173  118 104 173
110 101 169  136 115 182  131 129 178  118 104 173  110 101 169  110 101 169
118 104 173  112 103 172  112 103 172  115 101 168  109 97 163  109 97 163
109 97 163  115 101 168  109 97 163  115 101 168  115 101 168  125 106 175
118 96 163  115 101 168  103 91 154  113 91 156  115 94 159  109 97 163
103 91 154  109 97 163  109 97 163  103 91 154  93 89 151  102 95 160
103 91 154  104 98 164  96 93 156  96 93 156  96 93 156  93 89 151
88 86 146  88 86 146  88 86 146  82 84 141  87 89 150  86 85 143
88 86 146  86 85 143  88 86 146  96 93 156  79 79 133  75 76 131
86 85 143  86 85 143  82 84 141  87 89 150  87 89 150  82 84 141
82 84 141  77 85 141  73 81 142  77 83 144  73 81 142  77 85 141
73 81 142  64 72 132  69 77 138  75 80 135  66 74 136  73 81 142
78 86 147  77 85 141  69 73 131  81 88 149  82 84 141  73 81 142
73 81 142  83 93 156  82 91 153  81 88 149  88 94 157  90 96 161
95 99 164  102 95 160  120 109 156  158 135 187  144 113 165  118 96 163
95 99 164  103 104 172  90 96 161  103 104 172  112 103 172  100 100 169
95 99 164  95 99 164  103 104 172  112 103 172  100 100 169  95 99 164
95 99 164  95 99 164  100 100 169  95 99 164  90 96 161  95 99 164
88 94 157  112 103 172  100 100 169  95 99 164  100 100 169  90 96 161
103 104 172  95 99 164  96 101 169  92 100 166  96 101 169  90 96 161
95 99 164  95 99 164  82 91 153  88 94 157  82 91 153  77 83 144
69 77 138  73 81 142  69 77 138  73 81 142  64 72 132  74 85 151
64 72 132  83 93 156  69 77 138  77 83 144  69 77 138  73 81 142
64 72 132  74 85 151  66 74 136  73 81 142  69 77 138  0 0 0
0 0 0  0 0 0  0 0 0  0 0 0  0 0 0  0 0 0
0 0 0  0 0 0  0 0 0  0 0 0  0 0 0  0 0 0
0 0 0  0 0 0  0 0 0  0 0 0  0 0 0  0 0 0
0 0 0  0 0 0  0 0 0  0 0 0  0 0 0  0 0 0
0 0 0  0 0 0  0 0 0  0 0 0  0 0 0  0 0 0
0 0 0  0 0 0  0 0 0  0 0 0  0 0 0  0 0 0
136 115 182  118 104 173  115 101 168  118 104 173  118 104 173  118 104 173
118 104 173  118 104 173  125 106 175  118 104 173  118 104 173  136 115 182
125 106 175  125 106 175  115 101 168  125 106 175  115 101 168  115 101 168
110 101 169  125 106 175  165 158 197  118 104 173  118 104 173  118 104 173
125 106 175  110 101 169  118 104 173  115 101 168  115 101 168  102 95 160
125 106 175  115 101 168  113 91 156  115 101 168  102 95 160  118 96 163
118 96 163  125 106 175  109 97 163  118 104 173  109 89 153  103 91 154
115 101 168  118 104 173  103 91 154  102 95 160  109 97 163  103 91 154
93 89 151  93 89 151  102 95 160  93 89 151  93 89 151  93 89 151
87 89 150  87 89 150  93 89 151  86 85 143  86 85 143  86 85 143
88 86 146  87 79 137  86 85 143  79 79 133  93 89 151  109 97 163
93 89 151  93 89 151  82 84 141  81 81 137  77 85 141  77 85 141
82 84 141  77 85 141  82 91 153  75 80 135  77 85 141  75 80 135
69 77 138  73 81 142  73 81 142  66 74 136  77 85 141  75 80 135
69 73 131  77 85 141  75 80 135  81 88 149  77 85 141  73 81 142
78 86 147  82 91 153  78 86 147  81 88 149  81 88 149  87 89 150
88 94 157  109 97 163  158 135 187  206 206 206  192 157 180  115 94 159
95 99 164  92 100 166  100 100 169  104 98 164  103 104 172  95 99 164
90 96 161  95 99 164  95 99 164  95 99 164  95 99 164  95 99 164
103 104 172  103 104 172  95 99 164  88 94 157  104 98 164  95 99 164
104 98 164  118 104 173  100 100 169  100 100 169  95 99 164  95 99 164
98 113 182  95 99 164  95 99 164  96 101 169  88 94 157  83 93 156
88 94 157  90 96 161  78 86 147  90 96 161  77 83 144  73 81 142
77 83 144  66 74 136  69 77 138  64 72 132  73 81 142  88 94 157
64 72 132  69 77 138  69 77 138  73 81 142  78 86 147  69 77 138
77 83 144  73 81 142  66 74 136  64 72 132  77 83 144  0 0 0
0 0 0  0 0 0  0 0 0  0 0 0  0 0 0  0 0 0
0 0 0  0 0 0  0 0 0  0 0 0  0 0 0  0 0 0
0 0 0  0 0 0  0 0 0  0 0 0  0 0 0  0 0 0
0 0 0  0 0 0  0 0 0  0 0 0  0 0 0  0 0 0
0 0 0  0 0 0  0 0 0  0 0 0  0 0 0  0 0 0
0 0 0  0 0 0  0 0 0  0 0 0  0 0 0  0 0 0
118 104 173  115 101 168  109 97 163  118 104 173  118 104 173  118 104 173
125 106 175  118 104 173  118 104 173  118 104 173  125 106 175  136 115 182
112 103 172  125 106 175  136 115 182  115 101 168  118 104 173  125 106 175
118 104 173  125 106 175  158 135 187  103 91 154  125 106 175  115 101 168
109 97 163  118 104 173  115 101 168  115 101 168  115 101 168  118 104 173
118 96 163  115 101 168  136 115 182  103 91 154  118 96 163  124 103 171
123 100 167  113 91 156  115 101 168  109 97 163  103 91 154  103 91 154
103 91 154  109 97 163  103 91 154  103 91 154  103 91 154  101 84 147
93 89 151  88 86 146  88 86 146  88 86 146  93 89 151  88 86 146
86 85 143  88 86 146  93 89 151  81 81 137  86 85 143  86 85 143
87 79 137  86 75 130  87 79 137  79 79 133  110 101 169  131 129 178
79 79 133  79 79 133  82 84 141  88 86 146  75 80 135  82 84 141
86 85 143  75 80 135  87 89 150  69 77 138  69 77 138  69 73 131
75 80 135  75 80 135  75 80 135  69 73 131  75 80 135  69 73 131
64 72 132  75 80 135  75 80 135  69 73 131  77 85 141  73 81 142
73 81 142  77 83 144  82 84 141  81 88 149  87 89 150  90 96 161
93 89 151  109 97 163  144 113 165  192 157 180  158 135 187  115 94 159
95 99 164  90 96 161  96 93 156  95 99 164  112 103 172  103 101 171
96 93 156  95 99 164  96 93 156  95 99 164  107 102 171  104 98 164
87 89 150  96 93 156  96 93 156  96 93 156  100 100 169  93 89 151
88 94 157  96 101 169  88 94 157  103 104 172  95 99 164  96 104 172
95 99 164  90 96 161  90 96 161  112 124 189  81 88 149  88 94 157
88 94 157  82 91 153  81 88 149  81 88 149  73 81 142  69 77 138
69 77 138  73 81 142  69 77 138  64 72 132  69 77 138  77 83 144
69 77 138  66 74 136  73 81 142  60 62 119  82 84 141  118 104 173
68 70 128  66 74 136  69 77 138  69 77 138  66 74 136  0 0 0
0 0 0  0 0 0  0 0 0  0 0 0  0 0 0  0 0 0
0 0 0  0 0 0  0 0 0  0 0 0  0 0 0  0 0 0
0 0 0  0 0 0  0 0 0  0 0 0  0 0 0  0 0 0
0 0 0  0 0 0  0 0 0  0 0 0  0 0 0  0 0 0
0 0 0  0 0 0  0 0 0  0 0 0  0 0 0  0 0 0
0 0 0  0 0 0  0 0 0  0 0 0  0 0 0  0 0 0
118 96 163  118 104 173  136 115 182  115 101 168  125 106 175  109 97 163
136 115 182  115 101 168  136 115 182  136 115 182  125 106 175  109 97 163
125 106 175  109 97 163  115 101 168  118 104 173  118 104 173  125 106 175
115 101 168  118 104 173  118 104 173  115 101 168  125 106 175  136 115 182
136 115 182  136 115 182  115 101 168  115 101 168  109 97 163  115 101 168
125 106 175  118 96 163  124 103 171  132 107 175  115 94 159  105 87 150
118 96 163  115 101 168  105 87 150  109 97 163  109 89 153  115 101 168
103 91 154  109 89 153  103 91 154  109 97 163  103 91 154  93 89 151
88 86 146  102 95 160  93 89 151  88 86 146  87 89 150  86 85 143
82 84 141  86 85 143  86 85 143  87 79 137  86 85 143  81 81 137
93 79 139  100 81 138  158 135 187  86 75 130  69 68 124  79 79 133
79 79 133  79 79 133  81 81 137  72 73 127  75 80 135  72 73 127
69 73 131  75 80 135  63 67 125  77 85 141  75 80 135  75 80 135
75 80 135  66 74 136  77 83 144  69 73 131  104 98 164  75 76 131
69 73 131  69 73 131  75 80 135  69 73 131  75 80 135  75 80 135
77 85 141  69 77 138  75 80 135  82 84 141  88 86 146  96 93 156
81 88 149  87 89 150  123 100 165  120 109 156  123 100 165  102 95 160
90 96 161  88 94 157  96 93 156  96 93 156  93 89 151  96 93 156
100 100 169  100 100 169  96 93 156  104 98 164  95 99 164  103 104 172
87 89 150  96 93 156  87 89 150  88 94 157  88 94 157  88 94 157
95 99 164  88 94 157  81 88 149  90 96 161  96 104 172  95 99 164
83 93 156  88 94 157  95 99 164  81 88 149  81 88 149  90 96 161
81 88 149  88 94 157  77 83 144  73 81 142  78 86 147  66 74 136
69 77 138  75 80 135  73 81 142  66 74 136  73 81 142  64 72 132
69 77 138  73 81 142  69 77 138  64 72 132  103 104 172  131 129 178
68 70 128  73 81 142  76 88 155  73 81 142  69 77 138  0 0 0
0 0 0  0 0 0  0 0 0  0 0 0  0 0 0  0 0 0
0 0 0  0 0 0  0 0 0  0 0 0  0 0 0  0 0 0
0 0 0  0 0 0  0 0 0  0 0 0  0 0 0  0 0 0
0 0 0  0 0 0  0 0 0  0 0 0  0 0 0  0 0 0
0 0 0  0 0 0  0 0 0  0 0 0  0 0 0  0 0 0
0 0 0  0 0 0  0 0 0  0 0 0  0 0 0  0 0 0
109 97 163  125 106 175  125 106 175  118 104 173  125 106 175  118 104 173
125 106 175  118 104 173  118 104 173  118 104 173  118 104 173  158 135 187
136 115 182  109 97 163  125 133 195  125 106 175  125 106 175  136 115 182
136 115 182  125 106 175  115 101 168  136 115 182  136 115 182  118 104 173
158 135 187  118 104 173  136 115 182  115 101 168  125 106 175  125 106 175
115 101 168  115 94 159  115 94 159  118 96 163  118 96 163  113 91 156
118 96 163  103 91 154  113 91 156  115 94 159  109 89 153  115 94 159
101 84 147  109 97 163  113 91 156  103 91 154  96 84 145  103 91 154
96 84 145  88 86 146  93 89 151  81 81 137  81 81 137  93 89 151
86 85 143  86 85 143  81 81 137  87 79 137  86 85 143  81 81 137
78 69 117  91 77 135  131 129 178  81 72 123  75 76 131  93 89 151
79 79 133  81 81 137  82 84 141  75 76 131  75 80 135  75 76 131
75 76 131  75 80 135  75 80 135  75 80 135  75 76 131  75 76 131
75 80 135  69 77 138  68 70 128  68 70 128  60 62 119  75 76 131
75 80 135  75 76 131  63 67 125  77 85 141  75 80 135  75 76 131
75 80 135  75 80 135  77 85 141  81 88 149  86 85 143  75 80 135
96 93 156  87 89 150  109 97 163  103 91 154  93 89 151  96 93 156
96 93 156  87 89 150  96 93 156  93 89 151  96 93 156  104 98 164
93 89 151  96 93 156  96 93 156  96 93 156  96 93 156  103 101 171
88 86 146  102 95 160  87 89 150  96 93 156  93 89 151  87 89 150
100 100 169  95 99 164  103 104 172  90 96 161  95 99 164  82 91 153
90 96 161  95 99 164  103 104 172  73 81 142  81 88 149  82 91 153
81 88 149  78 86 147  82 91 153  74 85 151  73 81 142  69 77 138
73 81 142  66 74 136  66 74 136  69 77 138  66 74 136  77 83 144
77 83 144  66 74 136  73 81 142  73 81 142  69 77 138  60 62 119
69 77 138  64 72 132  64 72 132  69 77 138  66 74 136  0 0 0
0 0 0  0 0 0  0 0 0  0 0 0  0 0 0  0 0 0
0 0 0  0 0 0  0 0 0  0 0 0  0 0 0  0 0 0
0 0 0  0 0 0  0 0 0  0 0 0  0 0 0  0 0 0
0 0 0  0 0 0  0 0 0  0 0 0  0 0 0  0 0 0
0 0 0  0 0 0  0 0 0  0 0 0  0 0 0  0 0 0
0 0 0  0 0 0  0 0 0  0 0 0  0 0 0  0 0 0
115 101 168  118 104 173  115 101 168  118 104 173  115 101 168  125 106 175
136 115 182  115 101 168  115 101 168  118 104 173  118 104 173  136 115 182
115 101 168  118 104 173  165 158 197  118 104 173  125 106 175  136 115 182
136 115 182  115 101 168  136 115 182  136 115 182  115 101 168  136 115 182
125 106 175  136 115 182  118 104 173  118 104 173  136 115 182  118 104 173
115 101 168  118 96 163  109 97 163  125 106 175  118 96 163  118 96 163
118 96 163  96 84 145  103 91 154  105 87 150  115 94 159  115 94 159
113 91 156  105 87 150  101 84 147  96 84 145  96 84 145  96 84 145
96 84 145  88 86 146  87 79 137  87 79 137  93 89 151  86 85 143
79 79 133  86 85 143  81 81 137  87 79 137  79 79 133  81 81 137
75 76 131  91 77 135  71 64 113  86 75 130  75 76 131  79 79 133
79 79 133  86 85 143  72 73 127  72 73 127  72 73 127  72 73 127
75 76 131  75 76 131  75 80 135  63 67 125  72 73 127  63 67 125
72 73 127  63 67 125  63 67 125  88 94 157  77 85 141  63 67 125
68 70 128  68 70 128  68 70 128  81 81 137  69 73 131  75 80 135
81 81 137  69 73 131  77 85 141  75 80 135  87 89 150  88 86 146
87 89 150  88 86 146  96 93 156  96 93 156  83 93 156  87 89 150
96 93 156  96 93 156  96 93 156  102 95 160  93 89 151  96 93 156
93 89 151  96 93 156  112 103 172  96 93 156  81 88 149  93 89 151
87 89 150  87 89 150  93 89 151  87 89 150  88 94 157  88 94 157
87 89 150  78 86 147  103 104 172  90 96 161  88 94 157  90 96 161
81 88 149  88 94 157  112 124 189  81 88 149  81 88 149  81 88 149
77 83 144  77 83 144  73 81 142  73 81 142  73 81 142  66 74 136
66 74 136  77 83 144  64 72 132  69 77 138  69 77 138  66 74 136
69 77 138  69 77 138  64 72 132  64 72 132  74 85 151  69 77 138
74 85 151  64 72 132  74 85 151  66 74 136  78 86 147  0 0 0
0 0 0  0 0 0  0 0 0  0 0 0  0 0 0  0 0 0
0 0 0  0 0 0  0 0 0  0 0 0  0 0 0  0 0 0
0 0 0  0 0 0  0 0 0  0 0 0  0 0 0  0 0 0
0 0 0  0 0 0  0 0 0  0 0 0  0 0 0  0 0 0
0 0 0  0 0 0  0 0 0  0 0 0  0 0 0  0 0 0
0 0 0  0 0 0  0 0 0  0 0 0  0 0 0  0 0 0
124 103 171  123 100 167  125 106 175  125 106 175  115 101 168  115 101 168
115 101 168  125 106 175  136 115 182  125 106 175  125 106 175  132 107 175
125 106 175  136 115 182  115 101 168  125 106 175  125 106 175  136 115 182
125 106 175  118 104 173  125 133 195  118 104 173  125 106 175  136 115 182
136 115 182  125 106 175  125 106 175  118 104 173  125 106 175  125 106 175
118 104 173  109 97 163  125 106 175  132 107 175  101 84 147  105 87 150
105 87 150  109 89 153  103 91 154  103 91 154  101 84 147  103 91 154
103 91 154  109 97 163  87 79 137  103 91 154  96 84 145  96 84 145
87 79 137  102 95 160  88 86 146  87 79 137  88 86 146  82 84 141
82 84 141  87 79 137  75 76 131  79 79 133  86 85 143  93 89 151
79 79 133  86 75 130  87 79 137  69 68 124  79 79 133  86 75 130
75 76 131  69 68 124  72 73 127  79 79 133  68 70 128  67 65 119
63 67 125  72 73 127  63 67 125  68 70 128  69 68 124  75 80 135
63 67 125  68 70 128  60 62 119  131 129 178  120 109 156  63 67 125
82 84 141  81 81 137  67 65 119  67 65 119  75 80 135  68 70 128
68 70 128  75 76 131  81 81 137  75 80 135  82 84 141  86 85 143
82 84 141  86 85 143  87 89 150  87 89 150  87 89 150  86 85 143
87 89 150  87 89 150  93 89 151  96 93 156  88 86 146  96 93 156
93 89 151  88 86 146  93 89 151  88 86 146  96 93 156  87 89 150
86 85 143  93 89 151  87 89 150  87 89 150  88 86 146  87 89 150
95 99 164  77 83 144  82 91 153  88 94 157  90 96 161  83 93 156
74 85 151  81 88 149  77 83 144  81 88 149  82 91 153  87 89 150
77 83 144  78 86 147  78 86 147  73 81 142  64 72 132  69 77 138
69 77 138  66 74 136  66 74 136  73 81 142  69 77 138  66 74 136
66 74 136  73 81 142  73 81 142  66 74 136  64 72 132  69 77 138
66 74 136  73 81 142  64 72 132  78 86 147  73 81 142  0 0 0
0 0 0  0 0 0  0 0 0  0 0 0  0 0 0  0 0 0
0 0 0  0 0 0  0 0 0  0 0 0  0 0 0  0 0 0
0 0 0  0 0 0  0 0 0  0 0 0  0 0 0  0 0 0
0 0 0  0 0 0  0 0 0  0 0 0  0 0 0  0 0 0
0 0 0  0 0 0  0 0 0  0 0 0  0 0 0  0 0 0
0 0 0  0 0 0  0 0 0  0 0 0  0 0 0  0 0 0
123 100 167  118 96 163  123 100 165  125 106 175  115 101 168  118 104 173
125 106 175  118 104 173  124 103 171  132 107 175  136 110 178  136 110 178
132 107 175  125 106 175  118 104 173  136 115 182  132 107 175  136 115 182
136 115 182  136 115 182  118 104 173  136 115 182  136 115 182  125 106 175
136 115 182  118 104 173  136 115 182  118 104 173  118 104 173  115 101 168
115 101 168  115 94 159  115 94 159  105 87 150  101 84 147  101 84 147
103 91 154  115 94 159  93 79 139  103 91 154  109 97 163  96 84 145
87 79 137  96 84 145  96 84 145  88 86 146  86 85 143  93 89 151
93 89 151  88 86 146  86 85 143  102 95 160  81 81 137  81 81 137
87 79 137  87 79 137  87 79 137  86 85 143  72 73 127  81 72 123
81 72 123  72 73 127  72 73 127  79 79 133  93 89 151  72 73 127
75 76 131  72 73 127  72 73 127  67 65 119  69 68 124  67 65 119
63 67 125  72 73 127  67 65 119  69 68 124  72 73 127  69 68 124
60 62 119  63 67 125  60 62 119  55 56 109  50 51 104  72 73 127
72 73 127  82 84 141  67 65 119  72 73 127  72 73 127  63 67 125
75 80 135  75 76 131  81 81 137  81 81 137  75 76 131  81 81 137
86 85 143  86 85 143  88 86 146  81 81 137  82 84 141  93 89 151
88 86 146  88 86 146  93 89 151  93 89 151  103 91 154  93 89 151
96 93 156  93 89 151  102 95 160  96 93 156  86 85 143  88 86 146
93 89 151  93 89 151  87 89 150  88 86 146  88 94 157  90 96 161
81 88 149  77 83 144  88 94 157  87 89 150  95 99 164  82 91 153
90 96 161  95 99 164  77 83 144  77 83 144  81 88 149  82 91 153
73 81 142  69 77 138  73 81 142  69 77 138  74 85 151  69 77 138
64 72 132  69 77 138  66 74 136  73 81 142  73 81 142  76 88 155
81 88 149  69 77 138  66 74 136  69 77 138  73 81 142  64 72 132
66 74 136  69 77 138  66 74 136  66 74 136  73 81 142  0 0 0
0 0 0  0 0 0  0 0 0  0 0 0  0 0 0  0 0 0
0 0 0  0 0 0  0 0 0  0 0 0  0 0 0  0 0 0
0 0 0  0 0 0  0 0 0  0 0 0  0 0 0  0 0 0
0 0 0  0 0 0  0 0 0  0 0 0  0 0 0  0 0 0
0 0 0  0 0 0  0 0 0  0 0 0  0 0 0  0 0 0
0 0 0  0 0 0  0 0 0  0 0 0  0 0 0  0 0 0
123 100 165  136 110 178  118 96 163  123 100 167  124 103 171  125 106 175
115 101 168  124 103 171  136 115 182  123 100 165  125 106 175  124 103 171
136 115 182  136 115 182  132 107 175  132 107 175  136 115 182  125 106 175
125 106 175  136 115 182  112 103 172  136 115 182  136 115 182  118 104 173
125 106 175  125 106 175  118 104 173  110 101 169  118 104 173  125 106 175
118 104 173  103 91 154  109 97 163  103 91 154  115 101 168  102 95 160
103 91 154  103 91 154  158 135 187  103 91 154  96 84 145  120 109 156
118 104 173  96 84 145  72 73 127  96 84 145  87 79 137  81 81 137
81 81 137  75 76 131  87 79 137  81 81 137  79 79 133  87 79 137
93 79 139  86 85 143  86 75 130  72 73 127  87 79 137  81 72 123
72 73 127  72 73 127  67 65 119  87 77 122  103 91 154  69 68 124
72 73 127  67 65 119  67 65 119  69 68 124  69 68 124  82 84 141
62 57 108  72 73 127  67 65 119  67 65 119  67 65 119  67 65 119
60 62 119  67 65 119  69 68 124  69 68 124  67 65 119  69 68 124
67 65 119  67 65 119  62 57 108  69 68 124  69 68 124  69 68 124
75 76 131  72 73 127  75 76 131  82 84 141  75 76 131  86 85 143
88 86 146  93 89 151  86 85 143  86 85 143  88 86 146  93 89 151
86 85 143  96 93 156  102 95 160  103 91 154  96 84 145  86 85 143
93 89 151  88 86 146  88 86 146  93 89 151  88 86 146  88 86 146
88 86 146  87 89 150  93 89 151  81 81 137  81 88 149  87 89 150
87 89 150  96 93 156  93 89 151  87 89 150  87 89 150  77 83 144
95 99 164  95 99 164  73 81 142  77 83 144  73 81 142  69 77 138
73 81 142  73 81 142  69 77 138  74 85 151  73 81 142  66 74 136
66 74 136  66 74 136  64 72 132  73 81 142  63 67 125  92 100 166
83 93 156  66 74 136  73 81 142  66 74 136  73 81 142  69 77 138
64 72 132  69 77 138  69 77 138  64 72 132  69 77 138  0 0 0
0 0 0  0 0 0  0 0 0  0 0 0  0 0 0  0 0 0
0 0 0  0 0 0  0 0 0  0 0 0  0 0 0  0 0 0
0 0 0  0 0 0  0 0 0  0 0 0  0 0 0  0 0 0
0 0 0  0 0 0  0 0 0  0 0 0  0 0 0  0 0 0
0 0 0  0 0 0  0 0 0  0 0 0  0 0 0  0 0 0
0 0 0  0 0 0  0 0 0  0 0 0  0 0 0  0 0 0
123 100 167  124 103 171  123 100 167  124 103 171  118 104 173  125 106 175
123 100 165  125 106 175  123 100 167  132 107 175  125 106 175  124 103 171
125 106 175  136 115 182  132 107 175  136 115 182  136 115 182  109 97 163
136 115 182  136 115 182  136 115 182  125 106 175  118 104 173  125 106 175
118 104 173  118 104 173  136 115 182  118 104 173  118 104 173  115 101 168
109 97 163  115 101 168  115 101 168  109 89 153  103 91 154  103 91 154
109 89 153  106 85 144  115 94 159  101 84 147  93 89 151  120 109 156
131 129 178  109 97 163  87 79 137  87 79 137  86 85 143  82 84 141
81 81 137  86 85 143  81 81 137  75 76 131  79 79 133  86 75 130
75 76 131  87 79 137  69 68 124  72 73 127  81 72 123  86 75 130
75 76 131  69 68 124  78 69 117  78 69 117  71 64 113  81 72 123
65 60 113  67 65 119  67 65 119  67 65 119  54 53 105  87 77 122
66 63 99  54 53 105  54 53 105  44 47 99  58 52 91  44 47 99
58 52 91  58 52 91  54 53 105  47 49 101  54 53 105  62 57 108
67 65 119  69 68 124  72 73 127  58 59 115  69 68 124  69 68 124
72 73 127  72 73 127  79 79 133  72 73 127  75 76 131  79 79 133
81 81 137  86 85 143  79 79 133  81 81 137  81 81 137  87 89 150
88 86 146  93 79 139  86 75 130  96 84 145  93 89 151  86 85 143
87 89 150  93 89 151  86 85 143  96 93 156  86 85 143  87 89 150
82 84 141  82 84 141  86 85 143  82 84 141  86 85 143  82 84 141
81 88 149  77 83 144  73 81 142  125 133 195  95 99 164  82 91 153
77 83 144  87 89 150  77 83 144  81 88 149  73 81 142  77 83 144
69 77 138  73 81 142  77 83 144  66 74 136  66 74 136  64 72 132
78 86 147  66 74 136  69 77 138  66 74 136  64 72 132  69 77 138
64 72 132  66 74 136  73 81 142  66 74 136  64 72 132  69 77 138
64 72 132  69 77 138  69 77 138  69 77 138  69 77 138  0 0 0
0 0 0  0 0 0  0 0 0  0 0 0  0 0 0  0 0 0
0 0 0  0 0 0  0 0 0  0 0 0  0 0 0  0 0 0
0 0 0  0 0 0  0 0 0  0 0 0  0 0 0  0 0 0
0 0 0  0 0 0  0 0 0  0 0 0  0 0 0  0 0 0
0 0 0  0 0 0  0 0 0  0 0 0  0 0 0  0 0 0
0 0 0  0 0 0  0 0 0  0 0 0  0 0 0  0 0 0
123 100 167  123 100 165  123 100 167  132 107 175  115 101 168  125 106 175
115 101 168  132 107 175  129 104 171  136 115 182  129 104 171  158 135 187
158 135 187  109 97 163  125 106 175  136 115 182  136 115 182  115 101 168
136 115 182  125 106 175  132 107 175  125 106 175  118 104 173  115 101 168
110 101 169  118 104 173  125 106 175  118 104 173  115 101 168  118 104 173
109 97 163  109 97 163  109 97 163  115 101 168  101 84 147  101 84 147
93 89 151  93 89 151  93 89 151  104 98 164  102 95 160  101 84 147
93 89 151  88 86 146  86 85 143  86 85 143  79 79 133  86 85 143
87 79 137  81 81 137  88 86 146  82 84 141  75 76 131  86 75 130
79 79 133  79 79 133  67 65 119  75 76 131  75 76 131  78 69 117
79 79 133  81 72 123  67 65 119  78 69 117  71 64 113  71 64 113
54 53 105  62 57 108  62 57 108  54 53 105  58 52 91  58 52 91
50 25 62  50 25 62  20 22 57  20 22 57  50 25 62  20 21 46
20 22 57  20 22 57  20 22 57  58 56 66  58 52 91  58 52 91
58 52 91  62 57 108  62 57 108  65 60 113  71 64 113  65 60 113
69 68 124  69 68 124  75 80 135  81 81 137  75 76 131  88 86 146
81 81 137  79 79 133  88 86 146  81 81 137  86 85 143  86 75 130
120 109 156  197 197 196  111 111 113  93 79 139  96 84 145  93 89 151
86 85 143  93 79 139  101 84 147  93 79 139  87 79 137  93 89 151
88 86 146  81 81 137  88 86 146  82 84 141  81 81 137  88 86 146
88 86 146  82 84 141  75 80 135  87 89 150  87 89 150  88 94 157
77 83 144  73 81 142  69 77 138  82 91 153  81 88 149  69 77 138
77 83 144  69 77 138  66 74 136  73 81 142  78 86 147  73 81 142
64 72 132  64 72 132  78 86 147  103 104 172  64 72 132  64 72 132
69 77 138  64 72 132  69 77 138  69 77 138  66 74 136  66 74 136
63 67 125  64 72 132  64 72 132  64 72 132  66 74 136  0 0 0
0 0 0  0 0 0  0 0 0  0 0 0  0 0 0  0 0 0
0 0 0  0 0 0  0 0 0  0 0 0  0 0 0  0 0 0
0 0 0  0 0 0  0 0 0  0 0 0  0 0 0  0 0 0
0 0 0  0 0 0  0 0 0  0 0 0  0 0 0  0 0 0
0 0 0  0 0 0  0 0 0  0 0 0  0 0 0  0 0 0
0 0 0  0 0 0  0 0 0  0 0 0  0 0 0  0 0 0
123 100 167  124 103 171  136 115 182  129 104 171  123 100 167  125 106 175
123 100 167  124 103 171  129 104 171  124 103 171  136 115 182  124 103 171
136 115 182  125 106 175  136 115 182  136 115 182  136 115 182  136 110 178
136 115 182  136 115 182  136 115 182  125 106 175  136 115 182  125 106 175
136 115 182  118 104 173  118 104 173  118 104 173  109 97 163  109 97 163
110 101 169  109 97 163  109 97 163  105 87 150  103 91 154  105 87 150
101 84 147  101 84 147  93 79 139  102 95 160  81 81 137  81 81 137
88 86 146  86 85 143  87 79 137  86 85 143  88 86 146  81 81 137
79 79 133  79 79 133  72 73 127  79 79 133  75 76 131  79 79 133
69 68 124  69 68 124  72 73 127  78 69 117  67 65 119  72 73 127
67 65 119  71 64 113  71 64 113  76 69 105  58 52 91  50 25 62
20 22 57  20 21 46  22 23 28  22 23 28  22 23 28  22 23 28
8 8 2  8 8 2  8 8 2  8 8 2  8 8 2  8 8 2
8 8 2  8 8 2  8 8 2  8 8 2  8 8 2  22 23 28
22 23 28  22 23 28  22 23 28  20 21 46  20 22 57  50 25 62
66 63 99  78 69 117  67 65 119  72 73 127  72 73 127  93 89 151
81 81 137  69 68 124  81 81 137  82 84 141  87 79 137  93 79 139
106 85 144  131 129 178  106 85 144  113 91 156  120 109 156  96 84 145
93 79 139  87 79 137  93 89 151  96 84 145  93 89 151  86 85 143
79 79 133  75 76 131  86 85 143  81 81 137  87 89 150  77 83 144
86 85 143  69 77 138  87 89 150  69 77 138  73 81 142  69 77 138
73 81 142  69 77 138  73 81 142  69 73 131  90 96 161  88 94 157
73 81 142  69 77 138  73 81 142  69 77 138  69 77 138  64 72 132
66 74 136  69 77 138  63 67 125  69 77 138  69 77 138  64 72 132
66 74 136  69 77 138  64 72 132  69 77 138  69 77 138  63 67 125
63 67 125  66 74 136  60 62 119  69 77 138  60 62 119  0 0 0
0 0 0  0 0 0  0 0 0  0 0 0  0 0 0  0 0 0
0 0 0  0 0 0  0 0 0  0 0 0  0 0 0  0 0 0
0 0 0  0 0 0  0 0 0  0 0 0  0 0 0  0 0 0
0 0 0  0 0 0  0 0 0  0 0 0  0 0 0  0 0 0
0 0 0  0 0 0  0 0 0  0 0 0  0 0 0  0 0 0
0 0 0  0 0 0  0 0 0  0 0 0  0 0 0  0 0 0
132 107 175  132 107 175  136 110 178  132 107 175  132 107 175  123 100 167
132 107 175  136 110 178  129 104 171  136 110 178  136 110 178  125 106 175
136 115 182  136 115 182  136 115 182  136 110 178  158 135 187  136 115 182
136 115 182  136 115 182  136 115 182  136 115 182  125 106 175  115 101 168
115 101 168  115 101 168  118 104 173  109 97 163  115 101 168  103 91 154
103 91 154  113 91 156  115 101 168  109 97 163  105 87 150  103 91 154
103 91 154  93 89 151  109 97 163  79 79 133  125 106 175  165 158 197
79 79 133  93 89 151  88 86 146  87 79 137  88 86 146  87 79 137
86 85 143  81 81 137  79 79 133  79 79 133  72 73 127  75 76 131
79 79 133  69 68 124  81 72 123  65 60 113  67 65 119  71 64 113
58 52 91  58 56 66  50 25 62  20 21 46  20 21 46  22 23 28
8 8 2  3 3 3  3 3 3  0 0 0  0 0 0  0 0 0
0 0 0  0 0 0  0 0 0  0 0 0  0 0 0  0 0 0
0 0 0  0 0 0  0 0 0  0 0 0  0 0 0  0 0 0
0 0 0  0 0 0  3 3 3  8 8 2  22 23 28  22 23 28
20 21 46  50 25 62  58 56 66  58 52 91  71 64 113  72 73 127
75 76 131  72 73 127  79 79 133  79 79 133  79 79 133  79 79 133
100 81 138  100 81 138  100 81 138  96 84 145  120 109 156  96 84 145
98 80 141  93 79 139  87 79 137  96 84 145  105 87 150  79 79 133
81 81 137  81 81 137  87 79 137  72 73 127  79 79 133  81 88 149
88 94 157  69 77 138  64 72 132  69 77 138  73 81 142  73 81 142
77 83 144  73 81 142  69 77 138  69 77 138  81 88 149  81 88 149
73 81 142  73 81 142  73 81 142  69 77 138  74 85 151  64 72 132
74 85 151  69 77 138  73 81 142  64 72 132  64 72 132  64 72 132
66 74 136  69 77 138  64 72 132  69 77 138  66 74 136  63 67 125
64 72 132  64 72 132  63 67 125  63 67 125  63 67 125  0 0 0
0 0 0  0 0 0  0 0 0  0 0 0  0 0 0  0 0 0
0 0 0  0 0 0  0 0 0  0 0 0  0 0 0  0 0 0
0 0 0  0 0 0  0 0 0  0 0 0  0 0 0  0 0 0
0 0 0  0 0 0  0 0 0  0 0 0  0 0 0  0 0 0
0 0 0  0 0 0  0 0 0  0 0 0  0 0 0  0 0 0
0 0 0  0 0 0  0 0 0  0 0 0  0 0 0  0 0 0
129 104 171  129 104 171  123 100 165  123 100 165  136 115 182  124 103 171
125 106 175  129 104 171  136 115 182  132 107 175  136 110 178  124 103 171
136 110 178  136 115 182  136 115 182  136 115 182  136 115 182  123 100 167
125 106 175  125 106 175  115 101 168  118 104 173  125 106 175  136 115 182
115 101 168  115 101 168  115 101 168  124 103 171  109 97 163  109 97 163
102 95 160  109 89 153  109 97 163  102 95 160  109 97 163  103 91 154
96 93 156  103 91 154  102 95 160  79 79 133  135 146 200  202 209 229
131 129 178  69 68 124  86 85 143  86 85 143  87 79 137  79 79 133
79 79 133  79 79 133  79 79 133  93 89 151  75 76 131  69 68 124
72 73 127  69 68 124  69 68 124  62 57 108  58 52 91  58 52 91
20 22 57  22 23 28  3 3 3  1 1 1  0 0 0  0 0 0
0 0 0  0 0 0  0 0 0  0 0 0  0 0 0  0 0 0
0 0 0  0 0 0  0 0 0  0 0 0  0 0 0  0 0 0
0 0 0  0 0 0  0 0 0  0 0 0  0 0 0  0 0 0
0 0 0  0 0 0  0 0 0  0 0 0  0 0 0  0 0 0
0 0 0  3 3 3  22 23 28  50 25 62  58 56 66  66 63 99
75 76 131  72 73 127  75 76 131  72 73 127  79 79 133  81 81 137
87 79 137  79 79 133  87 79 137  100 81 138  106 85 144  93 79 139
103 91 154  87 79 137  86 85 143  87 79 137  75 76 131  93 89 151
75 76 131  96 93 156  93 89 151  88 86 146  75 80 135  81 81 137
77 83 144  73 81 142  77 85 141  77 83 144  66 74 136  73 81 142
66 74 136  64 72 132  69 77 138  77 83 144  64 72 132  66 74 136
69 77 138  74 85 151  66 74 136  66 74 136  74 85 151  73 81 142
69 77 138  64 72 132  85 98 163  74 85 151  64 72 132  69 77 138
64 72 132  69 77 138  64 72 132  64 72 132  64 72 132  64 72 132
64 72 132  64 72 132  66 74 136  58 59 115  69 77 138  0 0 0
0 0 0  0 0 0  0 0 0  0 0 0  0 0 0  0 0 0
0 0 0  0 0 0  0 0 0  0 0 0  0 0 0  0 0 0
0 0 0  0 0 0  0 0 0  0 0 0  0 0 0  0 0 0
0 0 0  0 0 0  0 0 0  0 0 0  0 0 0  0 0 0
0 0 0  0 0 0  0 0 0  0 0 0  0 0 0  0 0 0
0 0 0  0 0 0  0 0 0  0 0 0  0 0 0  0 0 0
132 107 175  132 107 175  132 107 175  129 104 171  132 107 175  124 103 171
129 104 171  129 104 171  136 115 182  132 107 175  132 107 175  132 107 175
136 115 182  136 115 182  136 115 182  136 115 182  136 115 182  136 115 182
124 103 171  124 103 171  115 101 168  125 106 175  115 101 168  125 106 175
115 101 168  115 101 168  124 103 171  109 97 163  115 101 168  109 97 163
102 95 160  103 91 154  103 91 154  102 95 160  103 91 154  103 91 154
103 91 154  103 91 154  88 86 146  96 84 145  86 85 143  102 95 160
103 91 154  81 81 137  93 89 151  87 79 137  88 86 146  88 86 146
81 81 137  72 73 127  81 81 137  81 81 137  69 68 124  72 73 127
72 73 127  65 60 113  67 65 119  58 52 91  20 21 46  8 8 2
3 3 3  3 3 3  1 1 1  0 0 0  0 0 0  0 0 0
0 0 0  0 0 0  0 0 0  0 0 0  0 0 0  0 0 0
0 0 0  0 0 0  0 0 0  0 0 0  0 0 0  0 0 0
0 0 0  0 0 0  0 0 0  0 0 0  0 0 0  0 0 0
0 0 0  0 0 0  0 0 0  0 0 0  0 0 0  0 0 0
0 0 0  1 1 1  3 3 3  3 3 3  8 8 2  22 23 28
58 56 66  66 63 99  72 73 127  72 73 127  79 79 133  82 84 141
72 73 127  75 76 131  79 79 133  81 72 123  81 72 123  86 75 130
86 75 130  93 89 151  88 86 146  79 79 133  87 79 137  75 76 131
75 76 131  72 73 127  75 76 131  75 76 131  86 85 143  69 73 131
73 81 142  69 77 138  69 73 131  69 77 138  73 81 142  77 83 144
69 77 138  69 77 138  69 77 138  69 77 138  64 72 132  69 77 138
64 72 132  69 77 138  69 77 138  73 81 142  63 67 125  64 72 132
69 77 138  64 72 132  64 72 132  63 67 125  66 74 136  64 72 132
64 72 132  63 67 125  66 74 136  64 72 132  63 67 125  64 72 132
69 77 138  60 62 119  64 72 132  64 72 132  64 72 132  0 0 0
0 0 0  0 0 0  0 0 0  0 0 0  0 0 0  0 0 0
0 0 0  0 0 0  0 0 0  0 0 0  0 0 0  0 0 0
0 0 0  0 0 0  0 0 0  0 0 0  0 0 0  0 0 0
0 0 0  0 0 0  0 0 0  0 0 0  0 0 0  0 0 0
0 0 0  0 0 0  0 0 0  0 0 0  0 0 0  0 0 0
0 0 0  0 0 0  0 0 0  0 0 0  0 0 0  0 0 0
123 100 165  129 104 171  136 110 178  132 107 175  123 100 167  132 107 175
129 104 171  136 115 182  136 110 178  132 107 175  132 107 175  136 115 182
158 135 187  136 115 182  136 110 178  132 107 175  132 107 175  136 115 182
136 115 182  136 115 182  115 101 168  125 106 175  115 101 168  125 106 175
125 106 175  115 101 168  103 91 154  115 94 159  103 91 154  103 91 154
102 95 160  109 97 163  103 91 154  109 97 163  103 91 154  103 91 154
105 87 150  93 89 151  96 84 145  93 89 151  103 91 154  77 83 144
81 81 137  81 81 137  86 85 143  79 79 133  81 81 137  82 84 141
75 76 131  79 79 133  75 76 131  72 73 127  72 73 127  75 76 131
78 69 117  58 52 91  50 25 62  22 23 28  8 8 2  0 0 0
0 0 0  0 0 0  0 0 0  0 0 0  0 0 0  0 0 0
0 0 0  0 0 0  0 0 0  0 0 0  0 0 0  0 0 0
0 0 0  0 0 0  0 0 0  0 0 0  0 0 0  0 0 0
0 0 0  0 0 0  0 0 0  0 0 0  0 0 0  0 0 0
0 0 0  0 0 0  0 0 0  0 0 0  0 0 0  0 0 0
0 0 0  0 0 0  0 0 0  0 0 0  1 1 1  3 3 3
22 23 28  20 22 57  58 52 91  71 64 113  79 79 133  86 85 143
69 68 124  79 79 133  79 79 133  87 79 137  79 79 133  75 76 131
72 73 127  81 81 137  72 73 127  72 73 127  75 76 131  67 65 119
69 68 124  69 73 131  69 68 124  68 70 128  75 80 135  82 84 141
73 81 142  69 73 131  64 72 132  73 81 142  69 77 138  77 83 144
69 77 138  73 81 142  64 72 132  73 81 142  81 88 149  95 99 164
88 94 157  66 74 136  73 81 142  69 77 138  77 83 144  69 77 138
66 74 136  66 74 136  66 74 136  69 77 138  64 72 132  64 72 132
69 77 138  73 81 142  63 67 125  73 81 142  64 72 132  64 72 132
64 72 132  64 72 132  64 72 132  60 62 119  64 72 132  0 0 0
0 0 0  0 0 0  0 0 0  0 0 0  0 0 0  0 0 0
0 0 0  0 0 0  0 0 0  0 0 0  0 0 0  0 0 0
0 0 0  0 0 0  0 0 0  0 0 0  0 0 0  0 0 0
0 0 0  0 0 0  0 0 0  0 0 0  0 0 0  0 0 0
0 0 0  0 0 0  0 0 0  0 0 0  0 0 0  0 0 0
0 0 0  0 0 0  0 0 0  0 0 0  0 0 0  0 0 0
129 104 171  132 107 175  132 107 175  136 110 178  123 100 167  129 104 171
132 107 175  136 115 182  136 115 182  129 104 171  132 107 175  136 110 178
136 110 178  158 135 187  136 115 182  158 135 187  136 110 178  124 103 171
136 110 178  158 135 187  115 101 168  125 106 175  125 106 175  136 115 182
109 97 163  103 91 154  113 91 156  109 97 163  109 97 163  113 91 156
109 97 163  105 87 150  102 95 160  109 97 163  96 84 145  103 91 154
103 91 154  96 84 145  96 84 145  96 84 145  88 86 146  86 85 143
86 85 143  88 86 146  81 81 137  79 79 133  88 86 146  72 73 127
75 76 131  72 73 127  93 89 151  93 89 151  65 60 113  71 64 113
58 52 91  20 22 57  8 8 2  3 3 3  0 0 0  0 0 0
0 0 0  0 0 0  0 0 0  0 0 0  0 0 0  0 0 0
0 0 0  0 0 0  0 0 0  0 0 0  0 0 0  0 0 0
0 0 0  0 0 0  0 0 0  0 0 0  0 0 0  0 0 0
0 0 0  0 0 0  0 0 0  0 0 0  0 0 0  0 0 0
0 0 0  0 0 0  0 0 0  0 0 0  0 0 0  0 0 0
0 0 0  0 0 0  0 0 0  0 0 0  0 0 0  0 0 0
0 0 0  8 8 2  20 21 46  58 52 91  71 64 113  79 79 133
72 73 127  79 79 133  72 73 127  72 73 127  69 68 124  72 73 127
75 76 131  75 76 131  72 73 127  75 76 131  72 73 127  75 76 131
86 85 143  60 62 119  63 67 125  69 73 131  68 70 128  77 83 144
69 77 138  69 73 131  75 80 135  77 83 144  78 86 147  66 74 136
66 74 136  77 83 144  64 72 132  66 74 136  112 103 172  69 77 138
76 88 155  82 91 153  66 74 136  64 72 132  69 77 138  64 72 132
64 72 132  66 74 136  63 67 125  69 77 138  64 72 132  66 74 136
66 74 136  66 74 136  66 74 136  63 67 125  64 72 132  63 67 125
63 67 125  64 72 132  63 67 125  63 67 125  63 67 125  0 0 0
0 0 0  0 0 0  0 0 0  0 0 0  0 0 0  0 0 0
0 0 0  0 0 0  0 0 0  0 0 0  0 0 0  0 0 0
0 0 0  0 0 0  0 0 0  0 0 0  0 0 0  0 0 0
0 0 0  0 0 0  0 0 0  0 0 0  0 0 0  0 0 0
0 0 0  0 0 0  0 0 0  0 0 0  0 0 0  0 0 0
0 0 0  0 0 0  0 0 0  0 0 0  0 0 0  0 0 0
138 108 176  129 104 171  136 110 178  138 108 176  129 104 171  158 135 187
158 135 187  132 107 175  136 110 178  136 115 182  136 115 182  132 107 175
136 115 182  136 115 182  158 135 187  158 135 187  136 110 178  124 103 171
132 107 175  125 106 175  125 106 175  124 103 171  115 101 168  115 101 168
109 97 163  115 101 168  118 96 163  109 89 153  124 103 171  125 106 175
109 97 163  96 84 145  103 91 154  115 101 168  103 91 154  101 84 147
109 97 163  101 84 147  96 84 145  103 91 154  88 86 146  81 81 137
86 85 143  86 85 143  79 79 133  75 76 131  86 85 143  81 81 137
72 73 127  72 73 127  79 79 133  79 79 133  87 79 137  58 52 91
20 21 46  3 3 3  1 1 1  0 0 0  0 0 0  0 0 0
0 0 0  0 0 0  0 0 0  0 0 0  0 0 0  0 0 0
0 0 0  0 0 0  0 0 0  0 0 0  0 0 0  0 0 0
0 0 0  0 0 0  0 0 0  0 0 0  0 0 0  0 0 0
0 0 0  0 0 0  0 0 0  0 0 0  0 0 0  0 0 0
0 0 0  0 0 0  0 0 0  0 0 0  0 0 0  0 0 0
0 0 0  0 0 0  0 0 0  0 0 0  0 0 0  0 0 0
0 0 0  1 1 1  3 3 3  22 23 28  58 56 66  71 64 113
67 65 119  67 65 119  69 68 124  69 68 124  72 73 127  72 73 127
69 68 124  69 68 124  75 76 131  69 68 124  72 73 127  69 68 124
75 76 131  81 81 137  75 76 131  60 62 119  75 76 131  63 67 125
75 76 131  75 80 135  77 83 144  69 77 138  69 77 138  69 77 138
69 77 138  73 81 142  69 77 138  69 73 131  63 67 125  64 72 132
66 74 136  64 72 132  69 77 138  69 77 138  64 72 132  66 74 136
66 74 136  64 72 132  66 74 136  64 72 132  69 77 138  66 74 136
63 67 125  69 77 138  63 67 125  64 72 132  66 74 136  60 62 119
58 59 115  66 74 136  60 62 119  60 62 119  66 74 136  0 0 0
0 0 0  0 0 0  0 0 0  0 0 0  0 0 0  0 0 0
0 0 0  0 0 0  0 0 0  0 0 0  0 0 0  0 0 0
0 0 0  0 0 0  0 0 0  0 0 0  0 0 0  0 0 0
0 0 0  0 0 0  0 0 0  0 0 0  0 0 0  0 0 0
0 0 0  0 0 0  0 0 0  0 0 0  0 0 0  0 0 0
0 0 0  0 0 0  0 0 0  0 0 0  0 0 0  0 0 0
129 104 171  138 108 176  138 108 176  138 108 176  158 135 187  136 115 182
138 108 176  158 135 187  132 107 175  138 108 176  138 108 176  136 115 182
136 115 182  136 115 182  136 115 182  138 108 176  129 104 171  132 107 175
136 115 182  125 106 175  124 103 171  125 106 175  118 96 163  115 101 168
115 101 168  115 101 168  105 87 150  125 106 175  136 115 182  115 101 168
103 91 154  115 101 168  135 146 200  101 84 147  93 89 151  101 84 147
103 91 154  93 79 139  96 84 145  86 85 143  87 79 137  87 79 137
87 79 137  75 76 131  75 76 131  79 79 133  79 79 133  67 65 119
93 89 151  87 79 137  69 68 124  58 52 91  66 63 99  20 21 46
8 8 2  1 1 1  0 0 0  0 0 0  0 0 0  0 0 0
0 0 0  0 0 0  0 0 0  0 0 0  0 0 0  0 0 0
0 0 0  0 0 0  0 0 0  0 0 0  0 0 0  0 0 0
0 0 0  0 0 0  0 0 0  0 0 0  0 0 0  0 0 0
0 0 0  0 0 0  0 0 0  0 0 0  0 0 0  0 0 0
0 0 0  0 0 0  0 0 0  0 0 0  0 0 0  0 0 0
0 0 0  0 0 0  0 0 0  0 0 0  0 0 0  0 0 0
0 0 0  0 0 0  0 0 0  3 3 3  22 23 28  50 25 62
65 60 113  75 76 131  69 68 124  67 65 119  67 65 119  72 73 127
69 68 124  69 68 124  67 65 119  75 76 131  72 73 127  60 62 119
72 73 127  72 73 127  72 73 127  67 65 119  81 81 137  69 73 131
63 67 125  77 85 141  81 88 149  73 81 142  73 81 142  77 83 144
73 81 142  73 81 142  73 81 142  73 81 142  69 77 138  66 74 136
60 62 119  69 77 138  77 83 144  64 72 132  69 77 138  73 81 142
63 67 125  64 72 132  64 72 132  63 67 125  64 72 132  64 72 132
63 67 125  66 74 136  63 67 125  66 74 136  64 72 132  60 62 119
64 72 132  73 81 142  63 67 125  63 67 125  64 72 132  0 0 0
0 0 0  0 0 0  0 0 0  0 0 0  0 0 0  0 0 0
0 0 0  0 0 0  0 0 0  0 0 0  0 0 0  0 0 0
0 0 0  0 0 0  0 0 0  0 0 0  0 0 0  0 0 0
0 0 0  0 0 0  0 0 0  0 0 0  0 0 0  0 0 0
0 0 0  0 0 0  0 0 0  0 0 0  0 0 0  0 0 0
0 0 0  0 0 0  0 0 0  0 0 0  0 0 0  0 0 0
138 108 176  136 115 182  138 108 176  158 135 187  138 108 176  138 108 176
136 110 178  158 135 187  136 115 182  136 110 178  138 108 176  136 115 182
136 115 182  129 104 171  136 110 178  136 115 182  132 107 175  136 110 178
136 115 182  125 106 175  115 101 168  136 110 178  118 96 163  125 106 175
115 101 168  115 94 159  109 89 153  113 91 156  115 94 159  109 97 163
101 84 147  136 115 182  125 106 175  105 87 150  102 95 160  96 84 145
96 84 145  96 84 145  87 79 137  88 86 146  81 72 123  86 75 130
87 79 137  87 79 137  69 68 124  79 79 133  81 72 123  72 73 127
72 73 127  72 73 127  71 64 113  58 56 66  20 21 46  3 3 3
0 0 0  0 0 0  0 0 0  0 0 0  0 0 0  0 0 0
0 0 0  0 0 0  0 0 0  0 0 0  0 0 0  0 0 0
0 0 0  0 0 0  0 0 0  0 0 0  0 0 0  0 0 0
0 0 0  0 0 0  0 0 0  0 0 0  0 0 0  0 0 0
0 0 0  0 0 0  0 0 0  0 0 0  0 0 0  0 0 0
0 0 0  0 0 0  0 0 0  0 0 0  0 0 0  0 0 0
0 0 0  0 0 0  0 0 0  0 0 0  0 0 0  0 0 0
0 0 0  0 0 0  0 0 0  0 0 0  3 3 3  8 8 2
58 56 66  58 52 91  67 65 119  79 79 133  72 73 127  67 65 119
78 69 117  69 68 124  69 68 124  86 85 143  67 65 119  67 65 119
69 68 124  68 70 128  72 73 127  75 76 131  68 70 128  75 76 131
69 73 131  69 77 138  77 85 141  64 72 132  64 72 132  68 70 128
69 77 138  69 77 138  73 81 142  64 72 132  74 85 151  73 81 142
69 77 138  69 77 138  66 74 136  69 77 138  69 77 138  64 72 132
64 72 132  64 72 132  63 67 125  69 77 138  64 72 132  64 72 132
64 72 132  66 74 136  64 72 132  64 72 132  63 67 125  60 62 119
66 74 136  78 86 147  60 62 119  63 67 125  63 67 125  0 0 0
0 0 0  0 0 0  0 0 0  0 0 0  0 0 0  0 0 0
0 0 0  0 0 0  0 0 0  0 0 0  0 0 0  0 0 0
0 0 0  0 0 0  0 0 0  0 0 0  0 0 0  0 0 0
0 0 0  0 0 0  0 0 0  0 0 0  0 0 0  0 0 0
0 0 0  0 0 0  0 0 0  0 0 0  0 0 0  0 0 0
0 0 0  0 0 0  0 0 0  0 0 0  0 0 0  0 0 0
138 108 176  136 115 182  138 108 176  138 108 176  138 108 176  136 115 182
136 115 182  136 115 182  136 115 182  136 115 182  158 135 187  138 108 176
136 115 182  136 115 182  136 115 182  132 107 175  132 107 175  136 110 178
132 107 175  124 103 171  132 107 175  118 96 163  136 115 182  136 115 182
115 94 159  115 94 159  123 100 167  115 94 159  103 91 154  115 94 159
109 89 153  105 87 150  98 80 141  105 87 150  103 91 154  101 84 147
96 84 145  93 79 139  87 79 137  86 75 130  103 91 154  69 68 124
81 72 123  79 79 133  75 76 131  72 73 127  81 72 123  81 72 123
86 75 130  71 64 113  58 52 91  20 21 46  1 1 1  0 0 0
0 0 0  0 0 0  0 0 0  0 0 0  0 0 0  0 0 0
0 0 0  0 0 0  0 0 0  0 0 0  0 0 0  0 0 0
0 0 0  0 0 0  0 0 0  0 0 0  0 0 0  0 0 0
0 0 0  0 0 0  0 0 0  0 0 0  0 0 0  0 0 0
0 0 0  0 0 0  0 0 0  0 0 0  0 0 0  0 0 0
0 0 0  0 0 0  0 0 0  0 0 0  0 0 0  0 0 0
0 0 0  0 0 0  0 0 0  0 0 0  0 0 0  0 0 0
0 0 0  0 0 0  0 0 0  0 0 0  0 0 0  1 1 1
8 8 2  50 25 62  65 60 113  69 68 124  75 76 131  69 68 124
67 65 119  67 65 119  69 68 124  60 62 119  65 60 113  72 73 127
72 73 127  69 68 124  81 81 137  82 84 141  68 70 128  81 81 137
81 81 137  64 72 132  69 77 138  78 86 147  66 74 136  81 88 149
81 88 149  81 88 149  66 74 136  69 77 138  78 86 147  63 67 125
73 81 142  78 86 147  64 72 132  69 77 138  69 77 138  69 77 138
64 72 132  63 67 125  66 74 136  60 62 119  64 72 132  73 81 142
64 72 132  63 67 125  64 72 132  63 67 125  63 67 125  66 74 136
64 72 132  60 62 119  64 72 132  69 77 138  60 62 119  0 0 0
0 0 0  0 0 0  0 0 0  0 0 0  0 0 0  0 0 0
0 0 0  0 0 0  0 0 0  0 0 0  0 0 0  0 0 0
0 0 0  0 0 0  0 0 0  0 0 0  0 0 0  0 0 0
0 0 0  0 0 0  0 0 0  0 0 0  0 0 0  0 0 0
0 0 0  0 0 0  0 0 0  0 0 0  0 0 0  0 0 0
0 0 0  0 0 0  0 0 0  0 0 0  0 0 0  0 0 0
138 108 176  138 108 176  158 135 187  158 135 187  136 115 182  158 135 187
158 135 187  158 135 187  158 135 187  138 108 176  138 108 176  138 108 176
138 108 176  138 108 176  136 110 178  132 107 175  129 104 171  124 103 171
132 107 175  123 100 167  129 104 171  124 103 171  136 110 178  123 100 167
115 94 159  113 91 156  115 94 159  123 100 167  115 94 159  118 96 163
165 158 197  109 89 153  101 84 147  101 84 147  98 80 141  98 80 141
86 75 130  86 75 130  87 79 137  87 79 137  106 85 144  86 75 130
75 76 131  69 68 124  79 79 133  79 79 133  86 75 130  71 64 113
67 65 119  58 52 91  20 21 46  8 8 2  0 0 0  0 0 0
0 0 0  0 0 0  0 0 0  0 0 0  0 0 0  0 0 0
0 0 0  0 0 0  0 0 0  0 0 0  0 0 0  0 0 0
0 0 0  0 0 0  0 0 0  0 0 0  0 0 0  0 0 0
0 0 0  0 0 0  0 0 0  0 0 0  0 0 0  0 0 0
0 0 0  0 0 0  0 0 0  0 0 0  0 0 0  0 0 0
0 0 0  0 0 0  0 0 0  0 0 0  0 0 0  0 0 0
0 0 0  0 0 0  0 0 0  0 0 0  0 0 0  0 0 0
0 0 0  0 0 0  0 0 0  0 0 0  0 0 0  0 0 0
3 3 3  22 23 28  50 25 62  62 57 108  67 65 119  69 68 124
65 60 113  67 65 119  72 73 127  67 65 119  72 73 127  86 85 143
72 73 127  69 68 124  75 76 131  63 67 125  69 68 124  81 81 137
81 81 137  64 72 132  66 74 136  82 91 153  66 74 136  69 73 131
77 85 141  69 77 138  66 74 136  77 83 144  64 72 132  69 77 138
69 77 138  64 72 132  64 72 132  63 67 125  66 74 136  69 77 138
69 77 138  63 67 125  64 72 132  64 72 132  69 77 138  74 85 151
64 72 132  64 72 132  63 67 125  64 72 132  64 72 132  63 67 125
64 72 132  63 67 125  64 72 132  64 72 132  69 77 138  0 0 0
0 0 0  0 0 0  0 0 0  0 0 0  0 0 0  0 0 0
0 0 0  0 0 0  0 0 0  0 0 0  0 0 0  0 0 0
0 0 0  0 0 0  0 0 0  0 0 0  0 0 0  0 0 0
0 0 0  0 0 0  0 0 0  0 0 0  0 0 0  0 0 0
0 0 0  0 0 0  0 0 0  0 0 0  0 0 0  0 0 0
0 0 0  0 0 0  0 0 0  0 0 0  0 0 0  0 0 0
138 108 176  158 135 187  138 108 176  158 135 187  136 115 182  138 108 176
158 135 187  138 108 176  158 135 187  158 135 187  138 108 176  138 108 176
136 115 182  136 115 182  138 108 176  132 107 175  136 110 178  129 104 171
136 110 178  124 103 171  136 115 182  123 100 165  123 100 167  115 94 159
115 94 159  115 94 159  123 100 167  113 91 156  123 100 165  105 87 150
109 89 153  105 87 150  103 91 154  105 87 150  101 84 147  102 83 145
93 79 139  96 84 145  96 84 145  86 75 130  71 64 113  81 72 123
75 76 131  86 75 130  81 72 123  67 65 119  86 75 130  86 85 143
58 52 91  20 22 57  8 8 2  0 0 0  0 0 0  0 0 0
0 0 0  0 0 0  0 0 0  0 0 0  0 0 0  0 0 0
0 0 0  0 0 0  0 0 0  0 0 0  0 0 0  0 0 0
0 0 0  0 0 0  0 0 0  0 0 0  0 0 0  0 0 0
0 0 0  0 0 0  0 0 0  0 0 0  0 0 0  0 0 0
0 0 0  0 0 0  0 0 0  0 0 0  0 0 0  0 0 0
0 0 0  0 0 0  0 0 0  0 0 0  0 0 0  0 0 0
0 0 0  0 0 0  0 0 0  0 0 0  0 0 0  0 0 0
0 0 0  0 0 0  0 0 0  0 0 0  0 0 0  0 0 0
0 0 0  3 3 3  22 23 28  58 52 91  65 60 113  65 60 113
72 73 127  69 68 124  67 65 119  67 65 119  68 70 128  67 65 119
67 65 119  69 68 124  72 73 127  79 79 133  75 76 131  75 80 135
69 73 131  63 67 125  69 77 138  75 80 135  77 83 144  69 77 138
64 72 132  69 77 138  69 77 138  69 77 138  69 77 138  64 72 132
69 77 138  69 77 138  69 77 138  66 74 136  73 81 142  64 72 132
69 77 138  64 72 132  64 72 132  64 72 132  64 72 132  66 74 136
64 72 132  63 67 125  64 72 132  63 67 125  64 72 132  64 72 132
63 67 125  66 74 136  64 72 132  64 72 132  64 72 132  0 0 0
0 0 0  0 0 0  0 0 0  0 0 0  0 0 0  0 0 0
0 0 0  0 0 0  0 0 0  0 0 0  0 0 0  0 0 0
0 0 0  0 0 0  0 0 0  0 0 0  0 0 0  0 0 0
0 0 0  0 0 0  0 0 0  0 0 0  0 0 0  0 0 0
0 0 0  0 0 0  0 0 0  0 0 0  0 0 0  0 0 0
0 0 0  0 0 0  0 0 0  0 0 0  0 0 0  0 0 0
158 135 187  158 135 187  158 135 187  136 115 182  136 115 182  158 135 187
158 135 187  138 108 176  158 135 187  138 108 176  158 135 187  136 115 182
138 108 176  136 115 182  136 115 182  136 115 182  136 115 182  136 115 182
129 104 171  132 107 175  132 107 175  132 107 175  118 96 163  109 89 153
123 100 167  109 89 153  123 100 165  115 94 159  113 91 156  123 100 165
115 94 159  109 89 153  109 89 153  96 84 145  102 83 145  93 79 139
91 77 135  81 72 123  81 72 123  96 84 145  86 75 130  79 79 133
81 72 123  81 72 123  81 72 123  65 60 113  81 72 123  78 69 117
50 25 62  8 8 2  1 1 1  0 0 0  0 0 0  0 0 0
0 0 0  0 0 0  0 0 0  0 0 0  0 0 0  0 0 0
0 0 0  0 0 0  0 0 0  0 0 0  0 0 0  0 0 0
0 0 0  0 0 0  0 0 0  0 0 0  0 0 0  0 0 0
0 0 0  0 0 0  0 0 0  0 0 0  0 0 0  0 0 0
0 0 0  0 0 0  0 0 0  0 0 0  0 0 0  0 0 0
0 0 0  0 0 0  0 0 0  0 0 0  0 0 0  0 0 0
0 0 0  0 0 0  0 0 0  0 0 0  0 0 0  0 0 0
0 0 0  0 0 0  0 0 0  0 0 0  0 0 0  0 0 0
0 0 0  0 0 0  3 3 3  20 21 46  58 52 91  67 65 119
65 60 113  69 68 124  69 68 124  60 62 119  67 65 119  72 73 127
75 76 131  69 68 124  82 84 141  81 81 137  69 73 131  73 81 142
69 77 138  87 89 150  81 88 149  73 81 142  69 77 138  82 91 153
69 77 138  66 74 136  66 74 136  77 83 144  78 86 147  66 74 136
73 81 142  69 77 138  66 74 136  64 72 132  73 81 142  64 72 132
64 72 132  64 72 132  69 77 138  64 72 132  66 74 136  66 74 136
63 67 125  63 67 125  64 72 132  63 67 125  64 72 132  66 74 136
64 72 132  63 67 125  64 72 132  64 72 132  64 72 132  0 0 0
0 0 0  0 0 0  0 0 0  0 0 0  0 0 0  0 0 0
0 0 0  0 0 0  0 0 0  0 0 0  0 0 0  0 0 0
0 0 0  0 0 0  0 0 0  0 0 0  0 0 0  0 0 0
0 0 0  0 0 0  0 0 0  0 0 0  0 0 0  0 0 0
0 0 0  0 0 0  0 0 0  0 0 0  0 0 0  0 0 0
0 0 0  0 0 0  0 0 0  0 0 0  0 0 0  0 0 0
136 115 182  138 108 176  158 135 187  136 115 182  138 108 176  158 135 187
158 135 187  136 115 182  158 135 187  138 108 176  158 135 187  136 115 182
136 115 182  136 110 178  129 104 171  158 135 187  129 104 171  129 104 171
136 110 178  132 107 175  123 100 167  132 107 175  132 107 175  123 100 167
123 100 167  115 94 159  109 89 153  115 94 159  118 96 163  109 89 153
118 96 163  105 87 150  102 83 145  105 87 150  91 77 135  91 77 135
86 75 130  91 77 135  81 72 123  86 75 130  86 75 130  81 72 123
78 69 117  72 73 127  78 69 117  81 72 123  71 64 113  58 52 91
20 21 46  3 3 3  1 1 1  0 0 0  0 0 0  0 0 0
0 0 0  0 0 0  0 0 0  0 0 0  0 0 0  0 0 0
0 0 0  0 0 0  0 0 0  0 0 0  0 0 0  0 0 0
0 0 0  0 0 0  0 0 0  0 0 0  0 0 0  0 0 0
0 0 0  0 0 0  0 0 0  0 0 0  0 0 0  0 0 0
0 0 0  0 0 0  0 0 0  0 0 0  0 0 0  0 0 0
0 0 0  0 0 0  0 0 0  0 0 0  0 0 0  0 0 0
0 0 0  0 0 0  0 0 0  0 0 0  0 0 0  0 0 0
0 0 0  0 0 0  0 0 0  0 0 0  0 0 0  0 0 0
0 0 0  0 0 0  1 1 1  3 3 3  50 25 62  62 57 108
67 65 119  65 60 113  67 65 119  69 68 124  67 65 119  79 79 133
96 93 156  72 73 127  72 73 127  68 70 128  81 81 137  77 83 144
69 77 138  78 86 147  78 86 147  69 73 131  69 77 138  64 72 132
64 72 132  69 77 138  69 77 138  66 74 136  63 67 125  64 72 132
66 74 136  69 77 138  66 74 136  69 77 138  64 72 132  69 77 138
73 81 142  63 67 125  66 74 136  69 77 138  66 74 136  63 67 125
64 72 132  64 72 132  66 74 136  66 74 136  64 72 132  64 72 132
60 62 119  64 72 132  64 72 132  64 72 132  63 67 125  0 0 0
0 0 0  0 0 0  0 0 0  0 0 0  0 0 0  0 0 0
0 0 0  0 0 0  0 0 0  0 0 0  0 0 0  0 0 0
0 0 0  0 0 0  0 0 0  0 0 0  0 0 0  0 0 0
0 0 0  0 0 0  0 0 0  0 0 0  0 0 0  0 0 0
0 0 0  0 0 0  0 0 0  0 0 0  0 0 0  0 0 0
0 0 0  0 0 0  0 0 0  0 0 0  0 0 0  0 0 0
138 108 176  158 135 187  136 115 182  158 135 187  158 135 187  136 115 182
158 135 187  138 108 176  138 108 176  138 108 176  138 108 176  136 115 182
136 115 182  136 115 182  136 115 182  136 110 178  136 110 178  136 110 178
136 110 178  129 104 171  123 100 167  118 96 163  113 91 156  113 91 156
129 104 171  118 96 163  113 91 156  118 96 163  113 91 156  109 89 153
109 89 153  105 87 150  102 83 145  98 80 141  100 81 138  91 77 135
86 75 130  86 75 130  81 72 123  69 68 124  81 72 123  78 69 117
67 65 119  78 69 117  78 69 117  71 64 113  62 57 108  20 22 57
8 8 2  0 0 0  0 0 0  0 0 0  0 0 0  0 0 0
0 0 0  0 0 0  0 0 0  0 0 0  0 0 0  0 0 0
0 0 0  0 0 0  0 0 0  0 0 0  0 0 0  0 0 0
0 0 0  0 0 0  0 0 0  0 0 0  0 0 0  0 0 0
0 0 0  0 0 0  0 0 0  0 0 0  0 0 0  0 0 0
0 0 0  0 0 0  0 0 0  0 0 0  0 0 0  0 0 0
0 0 0  0 0 0  0 0 0  0 0 0  0 0 0  0 0 0
0 0 0  0 0 0  0 0 0  0 0 0  0 0 0  0 0 0
0 0 0  0 0 0  0 0 0  0 0 0  0 0 0  0 0 0
0 0 0  0 0 0  0 0 0  0 0 0  20 21 46  58 52 91
81 72 123  65 60 113  67 65 119  72 73 127  69 68 124  67 65 119
78 69 117  69 68 124  82 84 141  60 62 119  87 89 150  87 89 150
69 77 138  64 72 132  69 73 131  73 81 142  73 81 142  64 72 132
66 74 136  77 83 144  66 74 136  66 74 136  77 83 144  66 74 136
64 72 132  69 77 138  69 77 138  64 72 132  66 74 136  64 72 132
63 67 125  66 74 136  66 74 136  69 77 138  64 72 132  63 67 125
63 67 125  66 74 136  66 74 136  64 72 132  64 72 132  64 72 132
63 67 125  64 72 132  69 77 138  78 86 147  66 74 136  0 0 0
0 0 0  0 0 0  0 0 0  0 0 0  0 0 0  0 0 0
0 0 0  0 0 0  0 0 0  0 0 0  0 0 0  0 0 0
0 0 0  0 0 0  0 0 0  0 0 0  0 0 0  0 0 0
0 0 0  0 0 0  0 0 0  0 0 0  0 0 0  0 0 0
0 0 0  0 0 0  0 0 0  0 0 0  0 0 0  0 0 0
0 0 0  0 0 0  0 0 0  0 0 0  0 0 0  0 0 0
138 108 176  158 135 187  158 135 187  158 135 187  158 135 187  158 135 187
158 135 187  136 115 182  138 108 176  158 135 187  158 135 187  136 115 182
136 115 182  136 110 178  136 110 178  136 115 182  132 107 175  158 135 187
129 104 171  123 100 165  123 100 165  123 100 165  123 100 165  113 91 156
123 100 167  129 104 171  115 94 159  118 96 163  109 89 153  105 87 150
113 91 156  158 135 187  100 81 138  91 77 135  93 79 139  91 77 135
86 75 130  81 72 123  81 72 123  81 72 123  78 69 117  71 64 113
81 72 123  87 79 137  71 64 113  62 57 108  58 52 91  22 23 28
1 1 1  0 0 0  0 0 0  0 0 0  0 0 0  0 0 0
0 0 0  0 0 0  0 0 0  0 0 0  0 0 0  0 0 0
0 0 0  0 0 0  0 0 0  0 0 0  0 0 0  0 0 0
0 0 0  0 0 0  0 0 0  0 0 0  0 0 0  0 0 0
0 0 0  0 0 0  0 0 0  0 0 0  0 0 0  0 0 0
0 0 0  0 0 0  0 0 0  0 0 0  0 0 0  0 0 0
0 0 0  0 0 0  0 0 0  0 0 0  0 0 0  0 0 0
0 0 0  0 0 0  0 0 0  0 0 0  0 0 0  0 0 0
0 0 0  0 0 0  0 0 0  0 0 0  0 0 0  0 0 0
0 0 0  0 0 0  0 0 0  0 0 0  8 8 2  20 22 57
65 60 113  67 65 119  67 65 119  65 60 113  69 68 124  67 65 119
75 76 131  72 73 127  75 76 131  75 80 135  69 73 131  69 73 131
75 80 135  69 77 138  69 73 131  75 76 131  69 77 138  69 77 138
63 67 125  73 81 142  92 100 166  77 83 144  66 74 136  64 72 132
69 77 138  69 77 138  64 72 132  64 72 132  69 77 138  64 72 132
69 77 138  69 77 138  66 74 136  63 67 125  66 74 136  64 72 132
66 74 136  64 72 132  66 74 136  63 67 125  64 72 132  73 81 142
78 86 147  73 81 142  63 67 125  60 62 119  64 72 132  0 0 0
0 0 0  0 0 0  0 0 0  0 0 0  0 0 0  0 0 0
0 0 0  0 0 0  0 0 0  0 0 0  0 0 0  0 0 0
0 0 0  0 0 0  0 0 0  0 0 0  0 0 0  0 0 0
0 0 0  0 0 0  0 0 0  0 0 0  0 0 0  0 0 0
0 0 0  0 0 0  0 0 0  0 0 0  0 0 0  0 0 0
0 0 0  0 0 0  0 0 0  0 0 0  0 0 0  0 0 0
158 135 187  158 135 187  136 115 182  158 135 187  158 135 187  158 135 187
136 115 182  138 108 176  136 115 182  136 115 182  138 108 176  136 115 182
158 135 187  136 115 182  136 110 178  136 110 178  132 107 175  136 110 178
132 107 175  136 110 178  136 115 182  129 104 171  129 104 171  118 96 163
115 94 159  118 96 163  113 91 156  113 91 156  115 94 159  109 89 153
106 85 144  91 77 135  106 85 144  100 81 138  91 77 135  98 80 141
105 87 150  93 79 139  78 69 117  81 72 123  78 69 117  78 69 117
71 64 113  78 69 117  62 57 108  58 52 91  50 25 62  8 8 2
0 0 0  0 0 0  0 0 0  0 0 0  0 0 0  0 0 0
0 0 0  0 0 0  0 0 0  0 0 0  0 0 0  0 0 0
0 0 0  0 0 0  0 0 0  0 0 0  0 0 0  0 0 0
0 0 0  0 0 0  0 0 0  0 0 0  0 0 0  0 0 0
0 0 0  0 0 0  0 0 0  0 0 0  0 0 0  0 0 0
0 0 0  0 0 0  0 0 0  0 0 0  0 0 0  0 0 0
0 0 0  0 0 0  0 0 0  0 0 0  0 0 0  0 0 0
0 0 0  0 0 0  0 0 0  0 0 0  0 0 0  0 0 0
0 0 0  0 0 0  0 0 0  0 0 0  0 0 0  0 0 0
0 0 0  0 0 0  0 0 0  0 0 0  3 3 3  22 23 28
71 64 113  65 60 113  65 60 113  69 68 124  72 73 127  58 59 115
79 79 133  75 80 135  72 73 127  69 68 124  77 85 141  68 70 128
69 73 131  69 77 138  69 77 138  77 83 144  69 73 131  64 72 132
77 83 144  69 73 131  64 72 132  64 72 132  66 74 136  66 74 136
66 74 136  69 77 138  66 74 136  69 77 138  66 74 136  66 74 136
76 88 155  69 77 138  64 72 132  66 74 136  64 72 132  73 81 142
64 72 132  74 85 151  64 72 132  76 88 155  63 67 125  64 72 132
73 81 142  83 93 156  66 74 136  64 72 132  66 74 136  0 0 0
0 0 0  0 0 0  0 0 0  0 0 0  0 0 0  0 0 0
0 0 0  0 0 0  0 0 0  0 0 0  0 0 0  0 0 0
0 0 0  0 0 0  0 0 0  0 0 0  0 0 0  0 0 0
0 0 0  0 0 0  0 0 0  0 0 0  0 0 0  0 0 0
0 0 0  0 0 0  0 0 0  0 0 0  0 0 0  0 0 0
0 0 0  0 0 0  0 0 0  0 0 0  0 0 0  0 0 0
158 135 187  158 135 187  158 135 187  158 135 187  158 135 187  158 135 187
158 135 187  158 135 187  158 135 187  138 108 176  136 115 182  136 115 182
129 104 171  129 104 171  136 115 182  136 115 182  136 110 178  136 115 182
136 115 182  118 96 163  129 104 171  118 96 163  118 96 163  118 96 163
123 100 165  113 91 156  113 91 156  115 94 159  109 89 153  105 87 150
109 89 153  106 85 144  100 81 138  91 77 135  91 77 135  86 75 130
86 75 130  91 77 135  81 72 123  78 69 117  71 64 113  81 72 123
81 72 123  78 69 117  65 60 113  58 52 91  22 23 28  3 3 3
0 0 0  0 0 0  0 0 0  0 0 0  0 0 0  0 0 0
0 0 0  0 0 0  0 0 0  0 0 0  0 0 0  0 0 0
0 0 0  0 0 0  0 0 0  0 0 0  0 0 0  0 0 0
0 0 0  0 0 0  0 0 0  0 0 0  0 0 0  0 0 0
0 0 0  0 0 0  0 0 0  0 0 0  0 0 0  0 0 0
0 0 0  0 0 0  0 0 0  0 0 0  0 0 0  0 0 0
0 0 0  0 0 0  0 0 0  0 0 0  0 0 0  0 0 0
0 0 0  0 0 0  0 0 0  0 0 0  0 0 0  0 0 0
0 0 0  0 0 0  0 0 0  0 0 0  0 0 0  0 0 0
0 0 0  0 0 0  0 0 0  0 0 0  0 0 0  22 23 28
50 25 62  54 53 105  62 57 108  67 65 119  69 68 124  67 65 119
67 65 119  63 67 125  68 70 128  88 86 146  72 73 127  81 81 137
75 80 135  69 73 131  63 67 125  66 74 136  64 72 132  66 74 136
82 84 141  64 72 132  73 81 142  82 91 153  73 81 142  69 77 138
69 77 138  69 77 138  77 85 141  69 77 138  66 74 136  66 74 136
69 77 138  66 74 136  64 72 132  69 77 138  64 72 132  74 85 151
64 72 132  64 72 132  66 74 136  69 77 138  64 72 132  66 74 136
60 62 119  60 62 119  77 83 144  60 62 119  64 72 132  0 0 0
0 0 0  0 0 0  0 0 0  0 0 0  0 0 0  0 0 0
0 0 0  0 0 0  0 0 0  0 0 0  0 0 0  0 0 0
0 0 0  0 0 0  0 0 0  0 0 0  0 0 0  0 0 0
0 0 0  0 0 0  0 0 0  0 0 0  0 0 0  0 0 0
0 0 0  0 0 0  0 0 0  0 0 0  0 0 0  0 0 0
0 0 0  0 0 0  0 0 0  0 0 0  0 0 0  0 0 0
158 135 187  158 135 187  158 135 187  158 135 187  158 135 187  158 135 187
158 135 187  138 108 176  138 108 176  136 115 182  138 108 176  136 115 182
132 107 175  129 104 171  132 107 175  123 100 167  129 104 171  136 110 178
124 103 171  124 103 171  123 100 167  118 96 163  118 96 163  115 94 159
115 94 159  123 100 165  115 94 159  113 91 156  115 94 159  113 91 156
98 80 141  100 81 138  91 77 135  100 81 138  100 81 138  86 75 130
86 75 130  81 72 123  86 75 130  86 75 130  71 64 113  78 69 117
71 64 113  71 64 113  62 57 108  50 25 62  3 3 3  3 3 3
0 0 0  0 0 0  0 0 0  0 0 0  0 0 0  0 0 0
0 0 0  0 0 0  0 0 0  0 0 0  0 0 0  0 0 0
0 0 0  0 0 0  0 0 0  0 0 0  0 0 0  0 0 0
0 0 0  0 0 0  0 0 0  0 0 0  0 0 0  0 0 0
0 0 0  0 0 0  0 0 0  0 0 0  0 0 0  0 0 0
0 0 0  0 0 0  0 0 0  0 0 0  0 0 0  0 0 0
0 0 0  0 0 0  0 0 0  0 0 0  0 0 0  0 0 0
0 0 0  0 0 0  0 0 0  0 0 0  0 0 0  0 0 0
0 0 0  0 0 0  0 0 0  0 0 0  0 0 0  0 0 0
0 0 0  0 0 0  0 0 0  0 0 0  0 0 0  8 8 2
20 21 46  58 52 91  72 73 127  67 65 119  69 68 124  69 68 124
86 85 143  69 73 131  63 67 125  96 93 156  75 76 131  82 84 141
69 73 131  75 80 135  75 80 135  73 81 142  69 73 131  77 85 141
73 81 142  64 72 132  73 81 142  73 81 142  64 72 132  66 74 136
66 74 136  69 77 138  63 67 125  63 67 125  69 77 138  64 72 132
66 74 136  73 81 142  66 74 136  63 67 125  69 77 138  60 62 119
76 88 155  66 74 136  66 74 136  64 72 132  69 77 138  73 81 142
63 67 125  64 72 132  64 72 132  63 67 125  66 74 136  0 0 0
0 0 0  0 0 0  0 0 0  0 0 0  0 0 0  0 0 0
0 0 0  0 0 0  0 0 0  0 0 0  0 0 0  0 0 0
0 0 0  0 0 0  0 0 0  0 0 0  0 0 0  0 0 0
0 0 0  0 0 0  0 0 0  0 0 0  0 0 0  0 0 0
0 0 0  0 0 0  0 0 0  0 0 0  0 0 0  0 0 0
0 0 0  0 0 0  0 0 0  0 0 0  0 0 0  0 0 0
158 135 187  138 108 176  158 135 187  158 135 187  136 115 182  158 135 187
158 135 187  136 115 182  138 108 176  123 100 167  138 108 176  136 115 182
129 104 171  136 115 182  158 135 187  132 107 175  124 103 171  132 107 175
123 100 165  123 100 165  132 107 175  123 100 167  113 91 156  115 94 159
118 96 163  106 85 144  109 89 153  113 91 156  106 85 144  100 81 138
102 83 145  100 81 138  100 81 138  100 81 138  100 81 138  106 85 144
78 69 117  81 72 123  81 72 123  78 69 117  81 72 123  71 64 113
71 64 113  54 53 105  58 52 91  20 22 57  1 1 1  0 0 0
0 0 0  0 0 0  0 0 0  0 0 0  0 0 0  0 0 0
0 0 0  0 0 0  0 0 0  0 0 0  0 0 0  0 0 0
0 0 0  0 0 0  0 0 0  0 0 0  0 0 0  0 0 0
0 0 0  0 0 0  0 0 0  0 0 0  0 0 0  0 0 0
0 0 0  0 0 0  0 0 0  0 0 0  0 0 0  0 0 0
0 0 0  0 0 0  0 0 0  0 0 0  0 0 0  0 0 0
0 0 0  0 0 0  0 0 0  0 0 0  0 0 0  0 0 0
0 0 0  0 0 0  0 0 0  0 0 0  0 0 0  0 0 0
0 0 0  0 0 0  0 0 0  0 0 0  0 0 0  0 0 0
0 0 0  0 0 0  0 0 0  0 0 0  0 0 0  3 3 3
8 8 2  58 52 91  69 68 124  67 65 119  67 65 119  67 65 119
69 68 124  72 73 127  68 70 128  72 73 127  75 80 135  68 70 128
68 70 128  69 73 131  69 73 131  64 72 132  69 77 138  66 74 136
69 73 131  66 74 136  66 74 136  64 72 132  69 77 138  78 86 147
66 74 136  66 74 136  73 81 142  69 77 138  69 77 138  69 77 138
64 72 132  64 72 132  64 72 132  63 67 125  97 109 177  82 91 153
63 67 125  64 72 132  66 74 136  69 77 138  64 72 132  64 72 132
66 74 136  64 72 132  66 74 136  66 74 136  60 62 119  0 0 0
0 0 0  0 0 0  0 0 0  0 0 0  0 0 0  0 0 0
0 0 0  0 0 0  0 0 0  0 0 0  0 0 0  0 0 0
0 0 0  0 0 0  0 0 0  0 0 0  0 0 0  0 0 0
0 0 0  0 0 0  0 0 0  0 0 0  0 0 0  0 0 0
0 0 0  0 0 0  0 0 0  0 0 0  0 0 0  0 0 0
0 0 0  0 0 0  0 0 0  0 0 0  0 0 0  0 0 0
138 108 176  158 135 187  158 135 187  138 108 176  158 135 187  158 135 187
129 104 171  136 115 182  138 108 176  138 108 176  129 104 171  129 104 171
123 100 167  123 100 167  129 104 171  123 100 167  124 103 171  129 104 171
132 107 175  118 96 163  113 91 156  113 91 156  136 110 178  115 94 159
115 94 159  123 100 165  113 91 156  106 85 144  115 94 159  106 85 144
100 81 138  106 85 144  100 81 138  100 81 138  91 77 135  113 91 156
100 81 138  78 69 117  81 72 123  78 69 117  71 64 113  62 57 108
78 69 117  71 64 113  58 52 91  20 21 46  0 0 0  0 0 0
0 0 0  0 0 0  0 0 0  0 0 0  0 0 0  0 0 0
0 0 0  0 0 0  0 0 0  0 0 0  0 0 0  0 0 0
0 0 0  0 0 0  0 0 0  0 0 0  0 0 0  0 0 0
0 0 0  0 0 0  0 0 0  0 0 0  0 0 0  0 0 0
0 0 0  0 0 0  0 0 0  0 0 0  0 0 0  0 0 0
0 0 0  0 0 0  0 0 0  0 0 0  0 0 0  0 0 0
0 0 0  0 0 0  0 0 0  0 0 0  0 0 0  0 0 0
0 0 0  0 0 0  0 0 0  0 0 0  0 0 0  0 0 0
0 0 0  0 0 0  0 0 0  0 0 0  0 0 0  0 0 0
0 0 0  0 0 0  0 0 0  0 0 0  0 0 0  1 1 1
3 3 3  50 25 62  54 53 105  65 60 113  69 68 124  67 65 119
65 60 113  69 68 124  69 68 124  63 67 125  81 81 137  63 67 125
69 73 131  68 70 128  75 76 131  69 77 138  69 73 131  75 80 135
66 74 136  69 77 138  73 81 142  69 77 138  69 77 138  73 81 142
66 74 136  66 74 136  64 72 132  64 72 132  64 72 132  66 74 136
66 74 136  64 72 132  77 83 144  64 72 132  69 77 138  73 81 142
66 74 136  64 72 132  66 74 136  69 77 138  64 72 132  66 74 136
66 74 136  64 72 132  64 72 132  66 74 136  64 72 132  0 0 0
0 0 0  0 0 0  0 0 0  0 0 0  0 0 0  0 0 0
0 0 0  0 0 0  0 0 0  0 0 0  0 0 0  0 0 0
0 0 0  0 0 0  0 0 0  0 0 0  0 0 0  0 0 0
0 0 0  0 0 0  0 0 0  0 0 0  0 0 0  0 0 0
0 0 0  0 0 0  0 0 0  0 0 0  0 0 0  0 0 0
0 0 0  0 0 0  0 0 0  0 0 0  0 0 0  0 0 0
158 135 187  158 135 187  158 135 187  158 135 187  138 108 176  138 108 176
136 115 182  138 108 176  136 115 182  136 115 182  129 104 171  136 110 178
124 103 171  123 100 165  124 103 171  123 100 167  123 100 167  129 104 171
138 108 176  129 104 171  129 104 171  123 100 165  123 100 165  123 100 165
109 89 153  109 89 153  123 100 165  115 94 159  113 91 156  113 91 156
106 85 144  106 85 144  113 91 156  100 81 138  100 81 138  87 77 122
81 72 123  87 77 122  86 75 130  81 72 123  71 64 113  62 57 108
71 64 113  71 64 113  50 25 62  22 23 28  0 0 0  0 0 0
0 0 0  0 0 0  0 0 0  0 0 0  0 0 0  0 0 0
0 0 0  0 0 0  0 0 0  1 1 1  8 8 2  42 42 39
42 42 39  42 42 39  31 31 29  8 8 2  3 3 3  0 0 0
0 0 0  0 0 0  0 0 0  0 0 0  0 0 0  0 0 0
0 0 0  0 0 0  0 0 0  0 0 0  0 0 0  0 0 0
0 0 0  0 0 0  0 0 0  0 0 0  0 0 0  0 0 0
0 0 0  0 0 0  0 0 0  0 0 0  0 0 0  0 0 0
8 8 2  22 23 28  42 42 39  51 50 50  42 42 39  31 31 29
8 8 2  0 0 0  0 0 0  0 0 0  0 0 0  0 0 0
0 0 0  0 0 0  0 0 0  0 0 0  0 0 0  0 0 0
1 1 1  50 25 62  58 52 91  65 60 113  69 68 124  69 68 124
67 65 119  72 73 127  67 65 119  75 76 131  69 73 131  68 70 128
69 73 131  63 67 125  68 70 128  75 76 131  68 70 128  75 80 135
75 80 135  64 72 132  69 77 138  75 80 135  69 77 138  64 72 132
69 77 138  69 77 138  63 67 125  64 72 132  66 74 136  73 81 142
66 74 136  66 74 136  66 74 136  73 81 142  64 72 132  64 72 132
66 74 136  69 77 138  77 83 144  64 72 132  66 74 136  69 77 138
60 62 119  64 72 132  66 74 136  63 67 125  63 67 125  0 0 0
0 0 0  0 0 0  0 0 0  0 0 0  0 0 0  0 0 0
0 0 0  0 0 0  0 0 0  0 0 0  0 0 0  0 0 0
0 0 0  0 0 0  0 0 0  0 0 0  0 0 0  0 0 0
0 0 0  0 0 0  0 0 0  0 0 0  0 0 0  0 0 0
0 0 0  0 0 0  0 0 0  0 0 0  0 0 0  0 0 0
0 0 0  0 0 0  0 0 0  0 0 0  0 0 0  0 0 0
158 135 187  136 115 182  158 135 187  138 108 176  173 172 216  136 115 182
138 108 176  136 110 178  132 107 175  129 104 171  129 104 171  132 107 175
129 104 171  124 103 171  136 110 178  124 103 171  118 96 163  123 100 165
129 104 171  136 110 178  129 104 171  123 100 165  123 100 165  115 94 159
113 91 156  106 85 144  123 100 165  129 104 171  118 96 163  109 89 153
109 89 153  106 85 144  106 85 144  87 77 122  100 81 138  91 77 135
78 69 117  86 75 130  91 77 135  62 57 108  78 69 117  71 64 113
62 57 108  58 52 91  20 22 57  8 8 2  0 0 0  0 0 0
0 0 0  0 0 0  0 0 0  0 0 0  0 0 0  0 0 0
0 0 0  0 0 0  0 0 0  8 8 2  51 50 50  128 128 124
165 165 164  165 165 164  128 128 124  51 50 50  8 8 2  0 0 0
0 0 0  0 0 0  0 0 0  0 0 0  0 0 0  0 0 0
0 0 0  0 0 0  0 0 0  0 0 0  0 0 0  0 0 0
0 0 0  0 0 0  0 0 0  0 0 0  0 0 0  0 0 0
0 0 0  0 0 0  0 0 0  0 0 0  0 0 0  0 0 0
31 31 29  81 78 84  152 152 149  165 165 164  142 142 139  100 101 100
31 31 29  1 1 1  0 0 0  0 0 0  0 0 0  0 0 0
0 0 0  0 0 0  0 0 0  0 0 0  0 0 0  0 0 0
0 0 0  20 21 46  58 52 91  67 65 119  67 65 119  67 65 119
75 76 131  72 73 127  67 65 119  81 81 137  75 76 131  68 70 128
68 70 128  72 73 127  75 76 131  63 67 125  77 83 144  75 80 135
69 73 131  66 74 136  81 88 149  66 74 136  69 77 138  66 74 136
64 72 132  63 67 125  64 72 132  64 72 132  66 74 136  64 72 132
64 72 132  73 81 142  66 74 136  77 83 144  66 74 136  66 74 136
66 74 136  64 72 132  64 72 132  69 77 138  66 74 136  66 74 136
82 91 153  64 72 132  63 67 125  60 62 119  63 67 125  0 0 0
0 0 0  0 0 0  0 0 0  0 0 0  0 0 0  0 0 0
0 0 0  0 0 0  0 0 0  0 0 0  0 0 0  0 0 0
0 0 0  0 0 0  0 0 0  0 0 0  0 0 0  0 0 0
0 0 0  0 0 0  0 0 0  0 0 0  0 0 0  0 0 0
0 0 0  0 0 0  0 0 0  0 0 0  0 0 0  0 0 0
0 0 0  0 0 0  0 0 0  0 0 0  0 0 0  0 0 0
158 135 187  138 108 176  158 135 187  129 104 171  158 135 187  138 108 176
123 100 167  129 104 171  123 100 167  123 100 167  129 104 171  123 100 167
129 104 171  115 94 159  118 96 163  123 100 165  132 107 175  132 107 175
123 100 165  132 107 175  115 94 159  123 100 165  118 96 163  113 91 156
109 89 153  100 81 138  106 85 144  100 81 138  100 81 138  106 85 144
100 81 138  91 77 135  100 81 138  100 81 138  100 81 138  86 75 130
87 77 122  78 69 117  71 64 113  87 77 122  71 64 113  71 64 113
62 57 108  71 64 113  20 21 46  3 3 3  0 0 0  0 0 0
0 0 0  0 0 0  0 0 0  0 0 0  0 0 0  0 0 0
0 0 0  1 1 1  8 8 2  100 101 100  175 171 173  206 206 206
227 227 230  221 218 218  206 206 206  175 171 173  89 88 93  22 23 28
1 1 1  0 0 0  0 0 0  0 0 0  0 0 0  0 0 0
0 0 0  0 0 0  0 0 0  0 0 0  0 0 0  0 0 0
0 0 0  0 0 0  0 0 0  0 0 0  0 0 0  0 0 0
0 0 0  0 0 0  0 0 0  0 0 0  8 8 2  51 50 50
128 128 124  197 197 196  221 218 218  227 227 230  221 218 218  197 197 196
142 142 139  67 66 71  0 0 0  0 0 0  0 0 0  0 0 0
0 0 0  0 0 0  0 0 0  0 0 0  0 0 0  0 0 0
0 0 0  20 21 46  58 52 91  62 57 108  62 57 108  72 73 127
67 65 119  67 65 119  72 73 127  79 79 133  79 79 133  75 76 131
68 70 128  75 76 131  82 84 141  69 77 138  69 73 131  69 77 138
87 89 150  77 83 144  66 74 136  69 77 138  73 81 142  69 73 131
73 81 142  66 74 136  66 74 136  69 77 138  73 81 142  66 74 136
64 72 132  69 77 138  64 72 132  64 72 132  66 74 136  81 88 149
73 81 142  64 72 132  69 77 138  69 77 138  64 72 132  66 74 136
95 99 164  69 77 138  63 67 125  60 62 119  75 80 135  0 0 0
0 0 0  0 0 0  0 0 0  0 0 0  0 0 0  0 0 0
0 0 0  0 0 0  0 0 0  0 0 0  0 0 0  0 0 0
0 0 0  0 0 0  0 0 0  0 0 0  0 0 0  0 0 0
0 0 0  0 0 0  0 0 0  0 0 0  0 0 0  0 0 0
0 0 0  0 0 0  0 0 0  0 0 0  0 0 0  0 0 0
0 0 0  0 0 0  0 0 0  0 0 0  0 0 0  0 0 0
158 135 187  138 108 176  136 115 182  136 115 182  138 108 176  138 108 176
129 104 171  129 104 171  123 100 167  123 100 165  123 100 167  113 91 156
123 100 165  118 96 163  123 100 167  129 104 171  136 110 178  129 104 171
123 100 165  113 91 156  118 96 163  118 96 163  109 89 153  106 85 144
109 89 153  113 91 156  100 81 138  100 81 138  100 81 138  91 77 135
100 81 138  81 72 123  106 85 144  113 91 156  100 81 138  78 69 117
86 75 130  71 64 113  78 69 117  71 64 113  71 64 113  66 63 99
62 57 108  58 52 91  22 23 28  3 3 3  0 0 0  0 0 0
0 0 0  0 0 0  0 0 0  0 0 0  0 0 0  0 0 0
0 0 0  8 8 2  51 50 50  175 171 173  236 236 234  253 253 253
253 253 253  253 253 253  253 253 253  249 249 249  165 165 164  67 66 71
8 8 2  0 0 0  0 0 0  0 0 0  0 0 0  0 0 0
0 0 0  0 0 0  0 0 0  0 0 0  0 0 0  0 0 0
0 0 0  0 0 0  0 0 0  0 0 0  0 0 0  0 0 0
0 0 0  0 0 0  0 0 0  0 0 0  22 23 28  128 128 124
206 206 206  253 253 253  253 253 253  253 253 253  253 253 253  253 253 253
206 206 206  128 128 124  22 23 28  3 3 3  0 0 0  0 0 0
0 0 0  0 0 0  0 0 0  0 0 0  0 0 0  0 0 0
0 0 0  22 23 28  50 25 62  67 65 119  65 60 113  81 72 123
67 65 119  62 57 108  93 89 151  72 73 127  60 62 119  60 62 119
69 73 131  68 70 128  75 80 135  69 73 131  82 84 141  78 86 147
75 80 135  75 80 135  75 80 135  63 67 125  64 72 132  73 81 142
81 88 149  69 77 138  64 72 132  69 73 131  77 83 144  69 77 138
63 67 125  69 77 138  69 77 138  66 74 136  66 74 136  66 74 136
66 74 136  64 72 132  64 72 132  77 83 144  77 83 144  69 73 131
63 67 125  63 67 125  63 67 125  55 56 109  112 124 189  0 0 0
0 0 0  0 0 0  0 0 0  0 0 0  0 0 0  0 0 0
0 0 0  0 0 0  0 0 0  0 0 0  0 0 0  0 0 0
0 0 0  0 0 0  0 0 0  0 0 0  0 0 0  0 0 0
0 0 0  0 0 0  0 0 0  0 0 0  0 0 0  0 0 0
0 0 0  0 0 0  0 0 0  0 0 0  0 0 0  0 0 0
0 0 0  0 0 0  0 0 0  0 0 0  0 0 0  0 0 0
138 108 176  138 108 176  158 135 187  136 115 182  129 104 171  129 104 171
123 100 165  124 103 171  132 107 175  123 100 165  129 104 171  123 100 167
118 96 163  124 103 171  118 96 163  129 104 171  132 107 175  123 100 165
129 104 171  118 96 163  113 91 156  113 91 156  106 85 144  109 89 153
100 81 138  106 85 144  100 81 138  91 77 135  100 81 138  100 81 138
86 75 130  91 77 135  100 81 138  87 77 122  87 77 122  78 69 117
78 69 117  78 69 117  71 64 113  62 57 108  62 57 108  58 52 91
66 63 99  58 52 91  22 23 28  0 0 0  0 0 0  0 0 0
0 0 0  0 0 0  0 0 0  0 0 0  0 0 0  0 0 0
0 0 0  31 31 29  128 128 124  206 206 206  253 253 253  253 253 253
253 253 253  253 253 253  253 253 253  253 253 253  221 218 218  142 142 139
22 23 28  0 0 0  0 0 0  0 0 0  0 0 0  0 0 0
0 0 0  0 0 0  0 0 0  0 0 0  0 0 0  0 0 0
0 0 0  0 0 0  0 0 0  0 0 0  0 0 0  0 0 0
0 0 0  0 0 0  0 0 0  1 1 1  42 42 39  206 206 206
249 249 249  253 253 253  253 253 253  253 253 253  253 253 253  253 253 253
253 253 253  179 180 182  51 50 50  8 8 2  0 0 0  0 0 0
0 0 0  0 0 0  0 0 0  0 0 0  0 0 0  0 0 0
0 0 0  22 23 28  50 25 62  71 64 113  65 60 113  62 57 108
67 65 119  72 73 127  72 73 127  69 68 124  75 80 135  68 70 128
69 73 131  63 67 125  135 146 200  75 76 131  68 70 128  69 73 131
69 73 131  75 76 131  69 73 131  88 86 146  69 73 131  82 84 141
64 72 132  63 67 125  73 81 142  75 80 135  64 72 132  64 72 132
73 81 142  69 77 138  63 67 125  66 74 136  69 77 138  64 72 132
69 77 138  88 94 157  64 72 132  66 74 136  64 72 132  75 80 135
63 67 125  68 70 128  63 67 125  60 62 119  69 77 138  0 0 0
0 0 0  0 0 0  0 0 0  0 0 0  0 0 0  0 0 0
0 0 0  0 0 0  0 0 0  0 0 0  0 0 0  0 0 0
0 0 0  0 0 0  0 0 0  0 0 0  0 0 0  0 0 0
0 0 0  0 0 0  0 0 0  0 0 0  0 0 0  0 0 0
0 0 0  0 0 0  0 0 0  0 0 0  0 0 0  0 0 0
0 0 0  0 0 0  0 0 0  0 0 0  0 0 0  0 0 0
138 108 176  138 108 176  129 104 171  138 108 176  138 108 176  136 110 178
124 103 171  115 94 159  124 103 171  124 103 171  129 104 171  124 103 171
123 100 167  124 103 171  118 96 163  123 100 165  115 94 159  115 101 168
132 107 175  136 115 182  115 94 159  123 100 165  96 84 145  105 87 150
98 80 141  98 80 141  102 83 145  98 80 141  100 81 138  100 81 138
91 77 135  86 75 130  81 72 123  81 72 123  87 77 122  86 75 130
71 64 113  87 77 122  71 64 113  78 69 117  62 57 108  66 63 99
66 63 99  58 52 91  22 23 28  0 0 0  0 0 0  0 0 0
0 0 0  0 0 0  0 0 0  0 0 0  0 0 0  0 0 0
0 0 0  51 50 50  165 165 164  227 227 230  253 253 253  253 253 253
253 253 253  253 253 253  253 253 253  253 253 253  236 236 234  175 171 173
22 23 28  0 0 0  0 0 0  0 0 0  0 0 0  0 0 0
0 0 0  0 0 0  0 0 0  0 0 0  0 0 0  0 0 0
0 0 0  0 0 0  0 0 0  0 0 0  0 0 0  0 0 0
0 0 0  0 0 0  0 0 0  22 23 28  67 66 71  221 218 218
253 253 253  253 253 253  253 253 253  253 253 253  253 253 253  253 253 253
253 253 253  197 197 196  89 88 93  22 23 28  0 0 0  0 0 0
0 0 0  0 0 0  0 0 0  0 0 0  0 0 0  0 0 0
0 0 0  22 23 28  50 25 62  62 57 108  67 65 119  67 65 119
67 65 119  69 68 124  72 73 127  63 67 125  69 73 131  75 76 131
68 70 128  60 62 119  63 67 125  69 77 138  77 85 141  69 73 131
69 73 131  69 73 131  69 77 138  75 76 131  75 80 135  75 76 131
73 81 142  73 81 142  64 72 132  64 72 132  73 81 142  69 73 131
66 74 136  69 77 138  64 72 132  77 83 144  69 77 138  73 81 142
69 77 138  73 81 142  69 77 138  69 77 138  69 73 131  73 81 142
63 67 125  69 77 138  63 67 125  63 67 125  60 62 119  0 0 0
0 0 0  0 0 0  0 0 0  0 0 0  0 0 0  0 0 0
0 0 0  0 0 0  0 0 0  0 0 0  0 0 0  0 0 0
0 0 0  0 0 0  0 0 0  0 0 0  0 0 0  0 0 0
0 0 0  0 0 0  0 0 0  0 0 0  0 0 0  0 0 0
0 0 0  0 0 0  0 0 0  0 0 0  0 0 0  0 0 0
0 0 0  0 0 0  0 0 0  0 0 0  0 0 0  0 0 0
138 108 176  136 115 182  132 107 175  129 104 171  129 104 171  132 107 175
158 135 187  113 91 156  129 104 171  129 104 171  123 100 165  115 94 159
123 100 167  118 96 163  123 100 167  115 101 168  125 106 175  118 104 173
124 103 171  132 107 175  123 100 165  123 100 165  101 84 147  102 83 145
102 83 145  98 80 141  98 80 141  93 79 139  91 77 135  86 75 130
78 69 117  91 77 135  78 69 117  87 77 122  78 69 117  71 64 113
78 69 117  71 64 113  71 64 113  71 64 113  58 52 91  58 52 91
58 52 91  58 52 91  22 23 28  0 0 0  0 0 0  0 0 0
0 0 0  0 0 0  0 0 0  0 0 0  0 0 0  0 0 0
0 0 0  42 42 39  152 152 149  221 218 218  253 253 253  253 253 253
253 253 253  253 253 253  253 253 253  253 253 253  227 227 230  165 165 164
22 23 28  0 0 0  0 0 0  0 0 0  0 0 0  0 0 0
0 0 0  0 0 0  0 0 0  0 0 0  0 0 0  0 0 0
0 0 0  0 0 0  0 0 0  0 0 0  0 0 0  0 0 0
0 0 0  0 0 0  0 0 0  8 8 2  58 56 66  221 218 218
253 253 253  253 253 253  253 253 253  253 253 253  253 253 253  253 253 253
253 253 253  191 188 189  81 78 84  22 23 28  0 0 0  0 0 0
0 0 0  0 0 0  0 0 0  0 0 0  0 0 0  0 0 0
0 0 0  8 8 2  20 22 57  79 79 133  67 65 119  67 65 119
67 65 119  67 65 119  79 79 133  67 65 119  67 65 119  69 68 124
69 68 124  68 70 128  72 73 127  69 73 131  69 73 131  75 80 135
68 70 128  68 70 128  82 84 141  72 73 127  75 76 131  69 73 131
69 73 131  77 83 144  66 74 136  69 77 138  69 77 138  69 77 138
64 72 132  64 72 132  81 88 149  73 81 142  64 72 132  69 77 138
64 72 132  66 74 136  64 72 132  63 67 125  69 73 131  60 62 119
64 72 132  63 67 125  63 67 125  63 67 125  60 62 119  0 0 0
0 0 0  0 0 0  0 0 0  0 0 0  0 0 0  0 0 0
0 0 0  0 0 0  0 0 0  0 0 0  0 0 0  0 0 0
0 0 0  0 0 0  0 0 0  0 0 0  0 0 0  0 0 0
0 0 0  0 0 0  0 0 0  0 0 0  0 0 0  0 0 0
0 0 0  0 0 0  0 0 0  0 0 0  0 0 0  0 0 0
0 0 0  0 0 0  0 0 0  0 0 0  0 0 0  0 0 0
129 104 171  138 108 176  129 104 171  136 115 182  129 104 171  132 107 175
123 100 165  136 115 182  132 107 175  132 107 175  123 100 167  125 106 175
136 110 178  118 96 163  136 110 178  113 91 156  124 103 171  115 94 159
115 101 168  132 107 175  118 96 163  115 94 159  118 96 163  102 83 145
109 89 153  93 79 139  86 75 130  93 79 139  96 84 145  86 75 130
86 75 130  86 75 130  81 72 123  86 75 130  78 69 117  71 64 113
78 69 117  78 69 117  65 60 113  62 57 108  66 63 99  62 57 108
58 52 91  58 52 91  22 23 28  0 0 0  0 0 0  0 0 0
0 0 0  0 0 0  0 0 0  0 0 0  0 0 0  0 0 0
0 0 0  31 31 29  111 111 113  206 206 206  253 253 253  253 253 253
253 253 253  253 253 253  253 253 253  253 253 253  206 206 206  128 128 124
8 8 2  0 0 0  0 0 0  0 0 0  0 0 0  0 0 0
0 0 0  0 0 0  0 0 0  0 0 0  0 0 0  0 0 0
0 0 0  0 0 0  0 0 0  0 0 0  0 0 0  0 0 0
0 0 0  0 0 0  0 0 0  1 1 1  42 42 39  197 197 196
243 242 236  253 253 253  253 253 253  253 253 253  253 253 253  253 253 253
249 249 249  165 165 164  42 42 39  8 8 2  0 0 0  0 0 0
0 0 0  0 0 0  0 0 0  0 0 0  0 0 0  0 0 0
0 0 0  8 8 2  20 22 57  62 57 108  65 60 113  67 65 119
65 60 113  67 65 119  131 129 178  191 188 189  87 77 122  72 73 127
68 70 128  75 76 131  72 73 127  79 79 133  69 68 124  68 70 128
72 73 127  69 68 124  79 79 133  75 76 131  86 85 143  68 70 128
75 80 135  69 73 131  69 73 131  69 73 131  64 72 132  66 74 136
69 73 131  66 74 136  66 74 136  64 72 132  63 67 125  69 77 138
69 77 138  66 74 136  63 67 125  69 73 131  60 62 119  64 72 132
63 67 125  60 62 119  63 67 125  60 62 119  60 62 119  0 0 0
0 0 0  0 0 0  0 0 0  0 0 0  0 0 0  0 0 0
0 0 0  0 0 0  0 0 0  0 0 0  0 0 0  0 0 0
0 0 0  0 0 0  0 0 0  0 0 0  0 0 0  0 0 0
0 0 0  0 0 0  0 0 0  0 0 0  0 0 0  0 0 0
0 0 0  0 0 0  0 0 0  0 0 0  0 0 0  0 0 0
0 0 0  0 0 0  0 0 0  0 0 0  0 0 0  0 0 0
132 107 175  132 107 175  132 107 175  123 100 167  136 110 178  136 115 182
118 96 163  129 104 171  123 100 165  129 104 171  115 94 159  118 96 163
124 103 171  118 96 163  124 103 171  125 106 175  115 101 168  123 100 165
115 101 168  115 101 168  105 87 150  105 87 150  115 94 159  105 87 150
105 87 150  101 84 147  96 84 145  93 79 139  93 79 139  78 69 117
91 77 135  86 75 130  81 72 123  71 64 113  78 69 117  78 69 117
71 64 113  71 64 113  62 57 108  71 64 113  66 63 99  62 57 108
58 52 91  58 52 91  22 23 28  0 0 0  0 0 0  0 0 0
0 0 0  0 0 0  0 0 0  0 0 0  0 0 0  0 0 0
0 0 0  8 8 2  31 31 29  165 165 164  236 236 234  253 253 253
253 253 253  253 253 253  253 253 253  249 249 249  152 152 149  51 50 50
8 8 2  0 0 0  0 0 0  0 0 0  0 0 0  0 0 0
0 0 0  0 0 0  0 0 0  0 0 0  0 0 0  0 0 0
0 0 0  0 0 0  0 0 0  0 0 0  0 0 0  0 0 0
0 0 0  0 0 0  0 0 0  0 0 0  22 23 28  100 101 100
197 197 196  253 253 253  253 253 253  253 253 253  253 253 253  253 253 253
197 197 196  111 111 113  8 8 2  1 1 1  0 0 0  0 0 0
0 0 0  0 0 0  0 0 0  0 0 0  0 0 0  0 0 0
0 0 0  8 8 2  20 22 57  62 57 108  62 57 108  65 60 113
71 64 113  50 51 104  131 129 178  191 188 189  76 69 105  65 60 113
68 70 128  79 79 133  72 73 127  75 76 131  79 79 133  67 65 119
68 70 128  79 79 133  72 73 127  87 79 137  72 73 127  75 76 131
79 79 133  87 89 150  63 67 125  75 80 135  75 80 135  63 67 125
75 80 135  69 73 131  69 73 131  69 73 131  69 73 131  63 67 125
69 77 138  63 67 125  69 77 138  69 73 131  63 67 125  63 67 125
63 67 125  68 70 128  68 70 128  60 62 119  60 62 119  0 0 0
0 0 0  0 0 0  0 0 0  0 0 0  0 0 0  0 0 0
0 0 0  0 0 0  0 0 0  0 0 0  0 0 0  0 0 0
0 0 0  0 0 0  0 0 0  0 0 0  0 0 0  0 0 0
0 0 0  0 0 0  0 0 0  0 0 0  0 0 0  0 0 0
0 0 0  0 0 0  0 0 0  0 0 0  0 0 0  0 0 0
0 0 0  0 0 0  0 0 0  0 0 0  0 0 0  0 0 0
136 110 178  138 108 176  123 100 167  132 107 175  124 103 171  129 104 171
123 100 167  124 103 171  124 103 171  123 100 167  124 103 171  123 100 167
118 96 163  136 115 182  113 91 156  124 103 171  115 94 159  102 95 160
109 97 163  118 96 163  115 94 159  105 87 150  98 80 141  101 84 147
102 83 145  96 84 145  93 79 139  102 95 160  75 76 131  91 77 135
86 75 130  81 72 123  71 64 113  91 77 135  81 72 123  71 64 113
62 57 108  71 64 113  62 57 108  62 57 108  66 63 99  58 52 91
58 52 91  58 52 91  22 23 28  0 0 0  0 0 0  0 0 0
0 0 0  0 0 0  0 0 0  0 0 0  0 0 0  0 0 0
0 0 0  1 1 1  8 8 2  81 78 84  152 152 149  206 206 206
236 236 234  227 227 230  197 197 196  152 152 149  81 78 84  8 8 2
1 1 1  0 0 0  0 0 0  0 0 0  0 0 0  0 0 0
0 0 0  0 0 0  0 0 0  0 0 0  0 0 0  0 0 0
0 0 0  0 0 0  0 0 0  0 0 0  0 0 0  0 0 0
0 0 0  0 0 0  0 0 0  0 0 0  8 8 2  42 42 39
111 111 113  179 180 182  221 218 218  236 236 234  221 218 218  191 188 189
111 111 113  51 50 50  0 0 0  0 0 0  0 0 0  0 0 0
0 0 0  0 0 0  0 0 0  0 0 0  0 0 0  0 0 0
0 0 0  8 8 2  20 21 46  62 57 108  62 57 108  62 57 108
71 64 113  55 56 109  65 60 113  66 63 99  54 53 105  81 72 123
68 70 128  67 65 119  67 65 119  69 68 124  75 76 131  69 68 124
75 76 131  75 76 131  72 73 127  87 79 137  69 68 124  96 84 145
93 89 151  75 76 131  75 76 131  75 80 135  81 81 137  75 76 131
69 77 138  68 70 128  63 67 125  63 67 125  69 68 124  75 80 135
69 73 131  60 62 119  68 70 128  68 70 128  60 62 119  60 62 119
60 62 119  63 67 125  63 67 125  60 62 119  64 72 132  0 0 0
0 0 0  0 0 0  0 0 0  0 0 0  0 0 0  0 0 0
0 0 0  0 0 0  0 0 0  0 0 0  0 0 0  0 0 0
0 0 0  0 0 0  0 0 0  0 0 0  0 0 0  0 0 0
0 0 0  0 0 0  0 0 0  0 0 0  0 0 0  0 0 0
0 0 0  0 0 0  0 0 0  0 0 0  0 0 0  0 0 0
0 0 0  0 0 0  0 0 0  0 0 0  0 0 0  0 0 0
132 107 175  132 107 175  132 107 175  132 107 175  124 103 171  132 107 175
123 100 165  136 110 178  136 115 182  136 110 178  123 100 165  115 94 159
136 115 182  123 100 165  109 97 163  118 96 163  118 96 163  109 97 163
113 91 156  118 104 173  115 101 168  105 87 150  113 91 156  101 84 147
109 89 153  88 86 146  93 89 151  131 129 178  87 79 137  75 76 131
87 79 137  81 72 123  78 69 117  71 64 113  86 75 130  71 64 113
71 64 113  71 64 113  62 57 108  58 52 91  58 52 91  66 63 99
66 63 99  58 52 91  22 23 28  0 0 0  0 0 0  0 0 0
0 0 0  0 0 0  0 0 0  0 0 0  0 0 0  0 0 0
0 0 0  0 0 0  0 0 0  8 8 2  51 50 50  128 128 124
175 171 173  165 165 164  128 128 124  42 42 39  8 8 2  0 0 0
0 0 0  0 0 0  0 0 0  0 0 0  0 0 0  0 0 0
0 0 0  0 0 0  0 0 0  0 0 0  0 0 0  0 0 0
0 0 0  0 0 0  0 0 0  0 0 0  0 0 0  0 0 0
0 0 0  0 0 0  0 0 0  0 0 0  0 0 0  0 0 0
31 31 29  81 78 84  152 152 149  175 171 173  152 152 149  89 88 93
31 31 29  1 1 1  0 0 0  0 0 0  0 0 0  0 0 0
0 0 0  0 0 0  0 0 0  0 0 0  0 0 0  0 0 0
0 0 0  8 8 2  20 22 57  54 53 105  62 57 108  62 57 108
62 57 108  62 57 108  55 56 109  60 62 119  65 60 113  69 68 124
69 68 124  67 65 119  69 68 124  67 65 119  69 68 124  67 65 119
81 81 137  69 68 124  81 72 123  87 79 137  69 68 124  96 84 145
120 109 156  67 65 119  96 84 145  87 79 137  81 72 123  75 76 131
67 65 119  69 68 124  58 59 115  63 67 125  63 67 125  60 62 119
66 74 136  69 77 138  69 73 131  60 62 119  63 67 125  63 67 125
60 62 119  69 73 131  68 70 128  63 67 125  60 62 119  0 0 0
0 0 0  0 0 0  0 0 0  0 0 0  0 0 0  0 0 0
0 0 0  0 0 0  0 0 0  0 0 0  0 0 0  0 0 0
0 0 0  0 0 0  0 0 0  0 0 0  0 0 0  0 0 0
0 0 0  0 0 0  0 0 0  0 0 0  0 0 0  0 0 0
0 0 0  0 0 0  0 0 0  0 0 0  0 0 0  0 0 0
0 0 0  0 0 0  0 0 0  0 0 0  0 0 0  0 0 0
129 104 171  129 104 171  123 100 167  123 100 167  136 110 178  132 107 175
125 106 175  124 103 171  129 104 171  118 96 163  136 115 182  123 100 167
132 107 175  115 101 168  115 101 168  115 94 159  113 91 156  105 87 150
115 94 159  105 87 150  102 95 160  103 91 154  105 87 150  105 87 150
105 87 150  93 89 151  96 84 145  96 84 145  96 84 145  87 79 137
86 75 130  86 75 130  81 72 123  71 64 113  71 64 113  71 64 113
71 64 113  62 57 108  71 64 113  78 69 117  58 52 91  58 52 91
66 63 99  58 52 91  22 23 28  0 0 0  0 0 0  0 0 0
0 0 0  0 0 0  0 0 0  0 0 0  0 0 0  0 0 0
0 0 0  0 0 0  0 0 0  1 1 1  8 8 2  22 23 28
31 31 29  31 31 29  22 23 28  8 8 2  1 1 1  0 0 0
0 0 0  0 0 0  0 0 0  0 0 0  0 0 0  0 0 0
0 0 0  0 0 0  0 0 0  0 0 0  0 0 0  0 0 0
0 0 0  0 0 0  0 0 0  0 0 0  0 0 0  0 0 0
0 0 0  0 0 0  0 0 0  0 0 0  0 0 0  0 0 0
3 3 3  8 8 2  22 23 28  31 31 29  22 23 28  8 8 2
3 3 3  0 0 0  0 0 0  0 0 0  0 0 0  0 0 0
0 0 0  0 0 0  0 0 0  0 0 0  0 0 0  0 0 0
0 0 0  8 8 2  20 22 57  54 53 105  62 57 108  54 53 105
62 57 108  65 60 113  62 57 108  62 57 108  65 60 113  55 56 109
67 65 119  67 65 119  69 68 124  72 73 127  67 65 119  69 68 124
69 68 124  79 79 133  79 79 133  81 72 123  87 79 137  81 72 123
96 84 145  87 79 137  72 73 127  69 68 124  86 75 130  100 81 138
78 69 117  75 76 131  69 73 131  63 67 125  63 67 125  60 62 119
58 59 115  77 85 141  63 67 125  58 59 115  75 76 131  63 67 125
60 62 119  60 62 119  68 70 128  60 62 119  58 59 115  0 0 0
0 0 0  0 0 0  0 0 0  0 0 0  0 0 0  0 0 0
0 0 0  0 0 0  0 0 0  0 0 0  0 0 0  0 0 0
0 0 0  0 0 0  0 0 0  0 0 0  0 0 0  0 0 0
0 0 0  0 0 0  0 0 0  0 0 0  0 0 0  0 0 0
0 0 0  0 0 0  0 0 0  0 0 0  0 0 0  0 0 0
0 0 0  0 0 0  0 0 0  0 0 0  0 0 0  0 0 0
136 110 178  129 104 171  132 107 175  136 115 182  129 104 171  118 96 163
132 107 175  125 106 175  129 104 171  115 94 159  136 115 182  124 103 171
125 106 175  125 106 175  113 91 156  125 106 175  113 91 156  118 96 163
118 96 163  103 91 154  102 95 160  102 95 160  103 91 154  103 91 154
93 79 139  96 84 145  93 79 139  75 76 131  87 79 137  96 84 145
96 84 145  91 77 135  86 75 130  71 64 113  71 64 113  71 64 113
71 64 113  62 57 108  62 57 108  76 69 105  58 52 91  58 52 91
66 63 99  50 25 62  22 23 28  0 0 0  0 0 0  0 0 0
0 0 0  0 0 0  0 0 0  0 0 0  0 0 0  0 0 0
0 0 0  0 0 0  0 0 0  0 0 0  0 0 0  0 0 0
0 0 0  0 0 0  0 0 0  0 0 0  0 0 0  0 0 0
0 0 0  0 0 0  0 0 0  0 0 0  0 0 0  0 0 0
0 0 0  0 0 0  0 0 0  0 0 0  0 0 0  0 0 0
0 0 0  0 0 0  0 0 0  0 0 0  0 0 0  0 0 0
0 0 0  0 0 0  0 0 0  0 0 0  0 0 0  0 0 0
0 0 0  0 0 0  0 0 0  0 0 0  0 0 0  0 0 0
0 0 0  0 0 0  0 0 0  0 0 0  0 0 0  0 0 0
0 0 0  0 0 0  0 0 0  0 0 0  0 0 0  0 0 0
0 0 0  3 3 3  20 21 46  54 53 105  62 57 108  62 57 108
54 53 105  54 53 105  62 57 108  65 60 113  58 59 115  65 60 113
58 59 115  67 65 119  67 65 119  69 68 124  67 65 119  69 68 124
72 73 127  75 76 131  93 79 139  86 75 130  87 79 137  81 72 123
81 72 123  78 69 117  86 75 130  91 77 135  81 72 123  100 81 138
105 87 150  67 65 119  60 62 119  63 67 125  82 84 141  68 70 128
63 67 125  75 76 131  60 62 119  63 67 125  58 59 115  68 70 128
63 67 125  60 62 119  55 56 109  58 59 115  58 59 115  0 0 0
0 0 0  0 0 0  0 0 0  0 0 0  0 0 0  0 0 0
0 0 0  0 0 0  0 0 0  0 0 0  0 0 0  0 0 0
0 0 0  0 0 0  0 0 0  0 0 0  0 0 0  0 0 0
0 0 0  0 0 0  0 0 0  0 0 0  0 0 0  0 0 0
0 0 0  0 0 0  0 0 0  0 0 0  0 0 0  0 0 0
0 0 0  0 0 0  0 0 0  0 0 0  0 0 0  0 0 0
132 107 175  132 107 175  136 110 178  136 115 182  123 100 165  138 108 176
129 104 171  124 103 171  125 106 175  158 135 187  136 115 182  129 104 171
123 100 167  118 96 163  115 101 168  115 101 168  109 89 153  115 94 159
103 91 154  109 97 163  103 91 154  105 87 150  103 91 154  101 84 147
96 84 145  93 89 151  93 79 139  87 79 137  87 79 137  93 79 139
87 79 137  87 79 137  78 69 117  78 69 117  78 69 117  65 60 113
71 64 113  71 64 113  58 52 91  58 52 91  66 63 99  58 52 91
58 52 91  50 25 62  22 23 28  0 0 0  0 0 0  0 0 0
0 0 0  0 0 0  0 0 0  0 0 0  0 0 0  0 0 0
0 0 0  0 0 0  0 0 0  0 0 0  0 0 0  0 0 0
0 0 0  0 0 0  0 0 0  0 0 0  0 0 0  0 0 0
0 0 0  0 0 0  0 0 0  0 0 0  0 0 0  0 0 0
0 0 0  0 0 0  0 0 0  0 0 0  0 0 0  0 0 0
0 0 0  0 0 0  0 0 0  0 0 0  0 0 0  0 0 0
0 0 0  0 0 0  0 0 0  0 0 0  0 0 0  0 0 0
0 0 0  0 0 0  0 0 0  0 0 0  0 0 0  0 0 0
0 0 0  0 0 0  0 0 0  0 0 0  0 0 0  0 0 0
0 0 0  0 0 0  0 0 0  0 0 0  0 0 0  0 0 0
0 0 0  3 3 3  20 21 46  58 52 91  58 52 91  54 53 105
62 57 108  71 64 113  54 53 105  62 57 108  65 60 113  58 59 115
58 59 115  67 65 119  67 65 119  67 65 119  75 76 131  69 68 124
71 64 113  81 72 123  81 72 123  86 75 130  86 75 130  86 75 130
100 81 138  86 75 130  78 69 117  81 72 123  86 75 130  100 81 138
109 89 153  67 65 119  60 62 119  55 56 109  58 59 115  60 62 119
69 68 124  58 59 115  60 62 119  68 70 128  58 59 115  55 56 109
60 62 119  63 67 125  58 59 115  55 56 109  60 62 119  0 0 0
0 0 0  0 0 0  0 0 0  0 0 0  0 0 0  0 0 0
0 0 0  0 0 0  0 0 0  0 0 0  0 0 0  0 0 0
0 0 0  0 0 0  0 0 0  0 0 0  0 0 0  0 0 0
0 0 0  0 0 0  0 0 0  0 0 0  0 0 0  0 0 0
0 0 0  0 0 0  0 0 0  0 0 0  0 0 0  0 0 0
0 0 0  0 0 0  0 0 0  0 0 0  0 0 0  0 0 0
132 107 175  132 107 175  129 104 171  118 96 163  123 100 165  193 197 226
165 158 197  118 96 163  124 103 171  158 135 187  165 158 197  123 100 165
132 107 175  118 96 163  109 97 163  109 97 163  109 97 163  115 94 159
115 94 159  103 91 154  96 84 145  109 97 163  96 84 145  96 84 145
103 91 154  96 84 145  96 84 145  96 84 145  93 79 139  86 75 130
86 75 130  86 75 130  86 75 130  81 72 123  71 64 113  71 64 113
62 57 108  62 57 108  71 64 113  65 60 113  58 52 91  58 52 91
50 25 62  20 21 46  8 8 2  0 0 0  0 0 0  0 0 0
0 0 0  0 0 0  0 0 0  0 0 0  0 0 0  0 0 0
0 0 0  0 0 0  0 0 0  0 0 0  0 0 0  0 0 0
0 0 0  0 0 0  0 0 0  0 0 0  0 0 0  0 0 0
0 0 0  0 0 0  0 0 0  0 0 0  0 0 0  0 0 0
0 0 0  0 0 0  0 0 0  0 0 0  0 0 0  0 0 0
0 0 0  0 0 0  0 0 0  0 0 0  0 0 0  0 0 0
0 0 0  0 0 0  0 0 0  0 0 0  0 0 0  0 0 0
0 0 0  0 0 0  0 0 0  0 0 0  0 0 0  0 0 0
0 0 0  0 0 0  0 0 0  0 0 0  0 0 0  0 0 0
0 0 0  0 0 0  0 0 0  0 0 0  0 0 0  0 0 0
0 0 0  0 0 0  22 23 28  50 25 62  58 52 91  58 52 91
62 57 108  65 60 113  54 53 105  62 57 108  65 60 113  65 60 113
67 65 119  72 73 127  69 68 124  67 65 119  86 75 130  65 60 113
106 85 144  144 113 165  87 77 122  91 77 135  100 81 138  81 72 123
100 81 138  78 69 117  81 72 123  81 72 123  81 72 123  81 72 123
65 60 113  67 65 119  67 65 119  72 73 127  65 60 113  60 62 119
55 56 109  58 59 115  60 62 119  58 59 115  60 62 119  63 67 125
58 59 115  55 56 109  60 62 119  58 59 115  50 51 104  0 0 0
0 0 0  0 0 0  0 0 0  0 0 0  0 0 0  0 0 0
0 0 0  0 0 0  0 0 0  0 0 0  0 0 0  0 0 0
0 0 0  0 0 0  0 0 0  0 0 0  0 0 0  0 0 0
0 0 0  0 0 0  0 0 0  0 0 0  0 0 0  0 0 0
0 0 0  0 0 0  0 0 0  0 0 0  0 0 0  0 0 0
0 0 0  0 0 0  0 0 0  0 0 0  0 0 0  0 0 0
136 110 178  132 107 175  136 115 182  158 135 187  123 100 165  129 104 171
158 135 187  129 104 171  132 107 175  123 100 165  129 104 171  129 104 171
136 115 182  115 101 168  118 96 163  123 100 167  115 94 159  109 89 153
109 97 163  113 91 156  115 101 168  113 91 156  93 79 139  96 84 145
93 79 139  96 84 145  96 84 145  86 75 130  87 79 137  87 79 137
86 75 130  81 72 123  81 72 123  71 64 113  78 69 117  71 64 113
71 64 113  62 57 108  62 57 108  62 57 108  58 52 91  66 63 99
50 25 62  8 8 2  3 3 3  0 0 0  0 0 0  0 0 0
0 0 0  0 0 0  0 0 0  0 0 0  0 0 0  0 0 0
0 0 0  0 0 0  0 0 0  0 0 0  0 0 0  0 0 0
0 0 0  0 0 0  0 0 0  0 0 0  0 0 0  0 0 0
0 0 0  0 0 0  0 0 0  0 0 0  0 0 0  0 0 0
0 0 0  0 0 0  0 0 0  0 0 0  0 0 0  0 0 0
0 0 0  0 0 0  0 0 0  0 0 0  0 0 0  0 0 0
0 0 0  0 0 0  0 0 0  0 0 0  0 0 0  0 0 0
0 0 0  0 0 0  0 0 0  0 0 0  0 0 0  0 0 0
0 0 0  0 0 0  0 0 0  0 0 0  0 0 0  0 0 0
0 0 0  0 0 0  0 0 0  0 0 0  0 0 0  0 0 0
0 0 0  0 0 0  8 8 2  20 21 46  58 52 91  62 57 108
71 64 113  65 60 113  62 57 108  62 57 108  62 57 108  65 60 113
65 60 113  69 68 124  65 60 113  65 60 113  65 60 113  78 69 117
86 75 130  100 81 138  78 69 117  91 77 135  100 81 138  87 77 122
71 64 113  81 72 123  91 77 135  81 72 123  78 69 117  67 65 119
69 68 124  67 65 119  87 79 137  69 68 124  58 59 115  60 62 119
67 65 119  58 59 115  55 56 109  58 59 115  55 56 109  60 62 119
55 56 109  55 56 109  60 62 119  60 62 119  55 56 109  0 0 0
0 0 0  0 0 0  0 0 0  0 0 0  0 0 0  0 0 0
0 0 0  0 0 0  0 0 0  0 0 0  0 0 0  0 0 0
0 0 0  0 0 0  0 0 0  0 0 0  0 0 0  0 0 0
0 0 0  0 0 0  0 0 0  0 0 0  0 0 0  0 0 0
0 0 0  0 0 0  0 0 0  0 0 0  0 0 0  0 0 0
0 0 0  0 0 0  0 0 0  0 0 0  0 0 0  0 0 0
136 115 182  129 104 171  136 115 182  132 107 175  136 115 182  123 100 165
138 108 176  165 158 197  123 100 167  129 104 171  129 104 171  123 100 165
136 115 182  118 96 163  118 96 163  123 100 167  118 96 163  115 94 159
113 91 156  113 91 156  98 80 141  115 101 168  109 97 163  93 79 139
101 84 147  96 84 145  96 84 145  93 79 139  86 75 130  86 75 130
87 79 137  86 75 130  78 69 117  71 64 113  71 64 113  71 64 113
71 64 113  65 60 113  71 64 113  62 57 108  62 57 108  58 52 91
20 21 46  3 3 3  0 0 0  0 0 0  0 0 0  0 0 0
0 0 0  0 0 0  0 0 0  0 0 0  0 0 0  0 0 0
0 0 0  0 0 0  0 0 0  0 0 0  0 0 0  0 0 0
0 0 0  0 0 0  0 0 0  0 0 0  0 0 0  0 0 0
0 0 0  0 0 0  0 0 0  0 0 0  0 0 0  0 0 0
0 0 0  0 0 0  0 0 0  0 0 0  0 0 0  0 0 0
0 0 0  0 0 0  0 0 0  0 0 0  0 0 0  0 0 0
0 0 0  0 0 0  0 0 0  0 0 0  0 0 0  0 0 0
0 0 0  0 0 0  0 0 0  0 0 0  0 0 0  0 0 0
0 0 0  0 0 0  0 0 0  0 0 0  0 0 0  0 0 0
0 0 0  0 0 0  0 0 0  0 0 0  0 0 0  0 0 0
0 0 0  0 0 0  3 3 3  8 8 2  50 25 62  54 53 105
71 64 113  71 64 113  62 57 108  54 53 105  65 60 113  65 60 113
67 65 119  71 64 113  65 60 113  71 64 113  65 60 113  78 69 117
78 69 117  78 69 117  81 72 123  91 77 135  78 69 117  86 75 130
87 77 122  106 85 144  71 64 113  78 69 117  81 72 123  72 73 127
65 60 113  67 65 119  67 65 119  54 53 105  55 56 109  58 59 115
58 59 115  50 51 104  63 67 125  60 62 119  58 59 115  55 56 109
55 56 109  55 56 109  50 51 104  55 56 109  50 51 104  0 0 0
0 0 0  0 0 0  0 0 0  0 0 0  0 0 0  0 0 0
0 0 0  0 0 0  0 0 0  0 0 0  0 0 0  0 0 0
0 0 0  0 0 0  0 0 0  0 0 0  0 0 0  0 0 0
0 0 0  0 0 0  0 0 0  0 0 0  0 0 0  0 0 0
0 0 0  0 0 0  0 0 0  0 0 0  0 0 0  0 0 0
0 0 0  0 0 0  0 0 0  0 0 0  0 0 0  0 0 0
136 115 182  136 115 182  136 110 178  123 100 167  136 110 178  132 107 175
124 103 171  136 110 178  132 107 175  136 110 178  132 107 175  123 100 165
136 110 178  123 100 165  118 96 163  115 94 159  118 96 163  105 87 150
115 94 159  115 94 159  103 91 154  102 95 160  96 84 145  103 91 154
96 84 145  93 79 139  87 79 137  86 75 130  87 79 137  86 75 130
86 75 130  81 72 123  81 72 123  78 69 117  71 64 113  71 64 113
65 60 113  62 57 108  62 57 108  58 52 91  62 57 108  50 25 62
22 23 28  1 1 1  0 0 0  0 0 0  0 0 0  0 0 0
0 0 0  0 0 0  0 0 0  0 0 0  0 0 0  0 0 0
0 0 0  0 0 0  0 0 0  0 0 0  0 0 0  0 0 0
0 0 0  0 0 0  0 0 0  0 0 0  0 0 0  0 0 0
0 0 0  0 0 0  0 0 0  0 0 0  0 0 0  0 0 0
0 0 0  0 0 0  0 0 0  0 0 0  0 0 0  0 0 0
0 0 0  0 0 0  0 0 0  0 0 0  0 0 0  0 0 0
0 0 0  0 0 0  0 0 0  0 0 0  0 0 0  0 0 0
0 0 0  0 0 0  0 0 0  0 0 0  0 0 0  0 0 0
0 0 0  0 0 0  0 0 0  0 0 0  0 0 0  0 0 0
0 0 0  0 0 0  0 0 0  0 0 0  0 0 0  0 0 0
0 0 0  0 0 0  0 0 0  3 3 3  20 22 57  58 52 91
58 52 91  62 57 108  78 69 117  62 57 108  62 57 108  65 60 113
65 60 113  65 60 113  67 65 119  67 65 119  71 64 113  71 64 113
86 75 130  81 72 123  81 72 123  78 69 117  78 69 117  81 72 123
81 72 123  87 77 122  78 69 117  81 72 123  81 72 123  72 73 127
69 68 124  72 73 127  67 65 119  67 65 119  67 65 119  50 51 104
50 51 104  58 59 115  55 56 109  55 56 109  60 62 119  55 56 109
55 56 109  55 56 109  58 59 115  50 51 104  55 56 109  0 0 0
0 0 0  0 0 0  0 0 0  0 0 0  0 0 0  0 0 0
0 0 0  0 0 0  0 0 0  0 0 0  0 0 0  0 0 0
0 0 0  0 0 0  0 0 0  0 0 0  0 0 0  0 0 0
0 0 0  0 0 0  0 0 0  0 0 0  0 0 0  0 0 0
0 0 0  0 0 0  0 0 0  0 0 0  0 0 0  0 0 0
0 0 0  0 0 0  0 0 0  0 0 0  0 0 0  0 0 0
132 107 175  123 100 167  136 115 182  132 107 175  136 110 178  136 110 178
136 110 178  129 104 171  136 115 182  136 115 182  124 103 171  129 104 171
132 107 175  118 96 163  129 104 171  109 89 153  124 103 171  103 91 154
103 91 154  125 106 175  109 97 163  101 84 147  109 97 163  101 84 147
96 84 145  87 79 137  96 84 145  96 84 145  91 77 135  86 75 130
87 79 137  67 65 119  81 72 123  81 72 123  71 64 113  65 60 113
62 57 108  71 64 113  71 64 113  62 57 108  58 52 91  20 21 46
3 3 3  0 0 0  0 0 0  0 0 0  0 0 0  0 0 0
0 0 0  0 0 0  0 0 0  0 0 0  0 0 0  0 0 0
0 0 0  0 0 0  0 0 0  0 0 0  0 0 0  0 0 0
0 0 0  0 0 0  0 0 0  0 0 0  0 0 0  0 0 0
0 0 0  0 0 0  0 0 0  0 0 0  0 0 0  0 0 0
0 0 0  0 0 0  0 0 0  0 0 0  0 0 0  0 0 0
0 0 0  0 0 0  0 0 0  0 0 0  0 0 0  0 0 0
0 0 0  0 0 0  0 0 0  0 0 0  0 0 0  0 0 0
0 0 0  0 0 0  0 0 0  0 0 0  0 0 0  0 0 0
0 0 0  0 0 0  0 0 0  0 0 0  0 0 0  0 0 0
0 0 0  0 0 0  0 0 0  0 0 0  0 0 0  0 0 0
0 0 0  0 0 0  0 0 0  3 3 3  22 23 28  50 25 62
62 57 108  65 60 113  58 52 91  81 72 123  71 64 113  62 57 108
65 60 113  62 57 108  65 60 113  62 57 108  78 69 117  86 75 130
65 60 113  78 69 117  78 69 117  78 69 117  78 69 117  86 75 130
78 69 117  78 69 117  81 72 123  78 69 117  65 60 113  67 65 119
65 60 113  67 65 119  62 57 108  81 81 137  65 60 113  54 53 105
72 73 127  60 62 119  58 59 115  50 51 104  47 49 101  50 51 104
58 59 115  50 51 104  50 51 104  55 56 109  44 47 99  0 0 0
0 0 0  0 0 0  0 0 0  0 0 0  0 0 0  0 0 0
0 0 0  0 0 0  0 0 0  0 0 0  0 0 0  0 0 0
0 0 0  0 0 0  0 0 0  0 0 0  0 0 0  0 0 0
0 0 0  0 0 0  0 0 0  0 0 0  0 0 0  0 0 0
0 0 0  0 0 0  0 0 0  0 0 0  0 0 0  0 0 0
0 0 0  0 0 0  0 0 0  0 0 0  0 0 0  0 0 0
136 115 182  136 115 182  158 135 187  136 115 182  132 107 175  132 107 175
158 135 187  132 107 175  132 107 175  136 115 182  124 103 171  118 96 163
129 104 171  123 100 167  115 94 159  118 96 163  109 89 153  115 101 168
105 87 150  93 79 139  105 87 150  101 84 147  103 91 154  96 84 145
86 75 130  93 79 139  91 77 135  86 75 130  93 79 139  81 72 123
86 75 130  81 72 123  81 72 123  65 60 113  71 64 113  78 69 117
71 64 113  62 57 108  71 64 113  58 52 91  50 25 62  22 23 28
0 0 0  0 0 0  0 0 0  0 0 0  0 0 0  0 0 0
0 0 0  0 0 0  0 0 0  0 0 0  0 0 0  0 0 0
0 0 0  0 0 0  0 0 0  0 0 0  0 0 0  0 0 0
0 0 0  0 0 0  0 0 0  0 0 0  0 0 0  0 0 0
0 0 0  0 0 0  0 0 0  0 0 0  0 0 0  0 0 0
0 0 0  0 0 0  0 0 0  0 0 0  0 0 0  0 0 0
0 0 0  0 0 0  0 0 0  0 0 0  0 0 0  0 0 0
0 0 0  0 0 0  0 0 0  0 0 0  0 0 0  0 0 0
0 0 0  0 0 0  0 0 0  0 0 0  0 0 0  0 0 0
0 0 0  0 0 0  0 0 0  0 0 0  0 0 0  0 0 0
0 0 0  0 0 0  0 0 0  0 0 0  0 0 0  0 0 0
0 0 0  0 0 0  0 0 0  1 1 1  3 3 3  20 22 57
58 52 91  54 53 105  65 60 113  71 64 113  66 63 99  62 57 108
65 60 113  67 65 119  62 57 108  106 85 144  78 69 117  71 64 113
71 64 113  91 77 135  78 69 117  71 64 113  78 69 117  81 72 123
62 57 108  81 72 123  71 64 113  71 64 113  65 60 113  69 68 124
67 65 119  62 57 108  65 60 113  67 65 119  69 68 124  69 68 124
55 56 109  54 53 105  55 56 109  50 51 104  55 56 109  55 56 109
55 56 109  55 56 109  50 51 104  44 47 99  50 51 104  0 0 0
0 0 0  0 0 0  0 0 0  0 0 0  0 0 0  0 0 0
0 0 0  0 0 0  0 0 0  0 0 0  0 0 0  0 0 0
0 0 0  0 0 0  0 0 0  0 0 0  0 0 0  0 0 0
0 0 0  0 0 0  0 0 0  0 0 0  0 0 0  0 0 0
0 0 0  0 0 0  0 0 0  0 0 0  0 0 0  0 0 0
0 0 0  0 0 0  0 0 0  0 0 0  0 0 0  0 0 0
136 110 178  158 135 187  129 104 171  132 107 175  136 115 182  136 115 182
132 107 175  123 100 167  129 104 171  129 104 171  124 103 171  136 110 178
136 110 178  124 103 171  115 94 159  123 100 165  124 103 171  123 100 165
109 89 153  96 84 145  101 84 147  87 79 137  96 84 145  103 91 154
86 75 130  103 91 154  93 79 139  87 79 137  81 72 123  78 69 117
87 79 137  81 72 123  71 64 113  71 64 113  71 64 113  62 57 108
71 64 113  71 64 113  58 52 91  58 52 91  20 21 46  8 8 2
0 0 0  0 0 0  0 0 0  0 0 0  0 0 0  0 0 0
0 0 0  0 0 0  0 0 0  0 0 0  0 0 0  0 0 0
0 0 0  0 0 0  0 0 0  0 0 0  0 0 0  0 0 0
0 0 0  0 0 0  0 0 0  0 0 0  0 0 0  0 0 0
0 0 0  0 0 0  0 0 0  0 0 0  0 0 0  0 0 0
0 0 0  0 0 0  0 0 0  0 0 0  0 0 0  0 0 0
0 0 0  0 0 0  0 0 0  0 0 0  0 0 0  0 0 0
0 0 0  0 0 0  0 0 0  0 0 0  0 0 0  0 0 0
0 0 0  0 0 0  0 0 0  0 0 0  0 0 0  0 0 0
0 0 0  0 0 0  0 0 0  0 0 0  0 0 0  0 0 0
0 0 0  0 0 0  0 0 0  0 0 0  0 0 0  0 0 0
0 0 0  0 0 0  0 0 0  0 0 0  0 0 0  22 23 28
58 56 66  62 57 108  78 69 117  62 57 108  62 57 108  71 64 113
65 60 113  78 69 117  71 64 113  87 77 122  81 72 123  71 64 113
81 72 123  71 64 113  71 64 113  62 57 108  71 64 113  71 64 113
62 57 108  81 72 123  106 85 144  62 57 108  65 60 113  72 73 127
54 53 105  78 69 117  96 84 145  58 59 115  58 59 115  54 53 105
58 59 115  55 56 109  50 51 104  50 51 104  55 56 109  50 51 104
47 49 101  50 51 104  47 49 101  50 51 104  44 47 99  0 0 0
0 0 0  0 0 0  0 0 0  0 0 0  0 0 0  0 0 0
0 0 0  0 0 0  0 0 0  0 0 0  0 0 0  0 0 0
0 0 0  0 0 0  0 0 0  0 0 0  0 0 0  0 0 0
0 0 0  0 0 0  0 0 0  0 0 0  0 0 0  0 0 0
0 0 0  0 0 0  0 0 0  0 0 0  0 0 0  0 0 0
0 0 0  0 0 0  0 0 0  0 0 0  0 0 0  0 0 0
136 110 178  123 100 165  136 110 178  136 115 182  123 100 167  132 107 175
136 115 182  123 100 165  132 107 175  123 100 167  123 100 165  129 104 171
118 96 163  115 94 159  123 100 167  109 89 153  118 96 163  113 91 156
109 89 153  105 87 150  103 91 154  101 84 147  93 79 139  96 84 145
93 79 139  87 79 137  96 84 145  87 79 137  101 84 147  86 75 130
81 72 123  71 64 113  81 72 123  86 75 130  65 60 113  71 64 113
62 57 108  62 57 108  66 63 99  58 56 66  8 8 2  3 3 3
0 0 0  0 0 0  0 0 0  0 0 0  0 0 0  0 0 0
0 0 0  0 0 0  0 0 0  0 0 0  0 0 0  0 0 0
0 0 0  0 0 0  0 0 0  0 0 0  0 0 0  0 0 0
0 0 0  0 0 0  0 0 0  0 0 0  0 0 0  0 0 0
0 0 0  0 0 0  0 0 0  0 0 0  0 0 0  0 0 0
0 0 0  0 0 0  0 0 0  0 0 0  0 0 0  0 0 0
0 0 0  0 0 0  0 0 0  0 0 0  0 0 0  0 0 0
0 0 0  0 0 0  0 0 0  0 0 0  0 0 0  0 0 0
0 0 0  0 0 0  0 0 0  0 0 0  0 0 0  0 0 0
0 0 0  0 0 0  0 0 0  0 0 0  0 0 0  0 0 0
0 0 0  0 0 0  0 0 0  0 0 0  0 0 0  0 0 0
0 0 0  0 0 0  0 0 0  0 0 0  0 0 0  8 8 2
20 21 46  58 52 91  54 53 105  65 60 113  71 64 113  87 79 137
62 57 108  62 57 108  65 60 113  71 64 113  71 64 113  71 64 113
71 64 113  78 69 117  86 75 130  78 69 117  62 57 108  71 64 113
71 64 113  62 57 108  62 57 108  62 57 108  65 60 113  60 62 119
62 57 108  62 57 108  69 68 124  54 53 105  58 59 115  50 51 104
67 65 119  50 51 104  50 51 104  50 51 104  55 56 109  50 51 104
47 49 101  50 51 104  50 51 104  50 51 104  95 99 164  0 0 0
0 0 0  0 0 0  0 0 0  0 0 0  0 0 0  0 0 0
0 0 0  0 0 0  0 0 0  0 0 0  0 0 0  0 0 0
0 0 0  0 0 0  0 0 0  0 0 0  0 0 0  0 0 0
0 0 0  0 0 0  0 0 0  0 0 0  0 0 0  0 0 0
0 0 0  0 0 0  0 0 0  0 0 0  0 0 0  0 0 0
0 0 0  0 0 0  0 0 0  0 0 0  0 0 0  0 0 0
115 94 159  136 110 178  129 104 171  129 104 171  129 104 171  158 135 187
173 172 216  129 104 171  123 100 167  123 100 165  129 104 171  129 104 171
123 100 165  115 94 159  115 94 159  118 96 163  109 89 153  109 89 153
109 89 153  105 87 150  98 80 141  101 84 147  93 79 139  96 84 145
91 77 135  81 72 123  86 75 130  96 84 145  96 84 145  81 72 123
81 72 123  81 72 123  81 72 123  81 72 123  71 64 113  71 64 113
71 64 113  71 64 113  58 52 91  20 21 46  3 3 3  0 0 0
0 0 0  0 0 0  0 0 0  0 0 0  0 0 0  0 0 0
0 0 0  0 0 0  0 0 0  0 0 0  0 0 0  0 0 0
0 0 0  22 23 28  67 66 71  81 78 84  81 78 84  67 66 71
51 50 50  22 23 28  3 3 3  1 1 1  0 0 0  0 0 0
0 0 0  0 0 0  0 0 0  0 0 0  0 0 0  0 0 0
0 0 0  0 0 0  0 0 0  0 0 0  0 0 0  0 0 0
0 0 0  0 0 0  0 0 0  0 0 0  0 0 0  0 0 0
0 0 0  0 0 0  0 0 0  0 0 0  0 0 0  0 0 0
0 0 0  3 3 3  8 8 2  31 31 29  58 56 66  67 66 71
81 78 84  67 66 71  42 42 39  8 8 2  0 0 0  0 0 0
0 0 0  0 0 0  0 0 0  0 0 0  0 0 0  0 0 0
0 0 0  0 0 0  0 0 0  0 0 0  0 0 0  3 3 3
22 23 28  50 25 62  58 52 91  71 64 113  62 57 108  62 57 108
71 64 113  71 64 113  62 57 108  78 69 117  65 60 113  78 69 117
71 64 113  71 64 113  62 57 108  71 64 113  62 57 108  71 64 113
65 60 113  78 69 117  67 65 119  71 64 113  65 60 113  65 60 113
67 65 119  65 60 113  55 56 109  55 56 109  58 59 115  58 59 115
65 60 113  44 47 99  69 68 124  55 56 109  55 56 109  50 51 104
55 56 109  58 59 115  50 51 104  44 47 99  120 109 156  0 0 0
0 0 0  0 0 0  0 0 0  0 0 0  0 0 0  0 0 0
0 0 0  0 0 0  0 0 0  0 0 0  0 0 0  0 0 0
0 0 0  0 0 0  0 0 0  0 0 0  0 0 0  0 0 0
0 0 0  0 0 0  0 0 0  0 0 0  0 0 0  0 0 0
0 0 0  0 0 0  0 0 0  0 0 0  0 0 0  0 0 0
0 0 0  0 0 0  0 0 0  0 0 0  0 0 0  0 0 0
100 81 138  123 100 167  118 96 163  118 96 163  136 115 182  132 107 175
123 100 165  115 94 159  129 104 171  132 107 175  118 96 163  118 96 163
118 96 163  113 91 156  109 89 153  101 84 147  105 87 150  96 84 145
105 87 150  96 84 145  98 80 141  98 80 141  91 77 135  93 79 139
93 79 139  91 77 135  87 79 137  87 79 137  78 69 117  86 75 130
81 72 123  81 72 123  86 75 130  87 77 122  120 109 156  62 57 108
65 60 113  71 64 113  50 25 62  22 23 28  3 3 3  0 0 0
0 0 0  0 0 0  0 0 0  0 0 0  0 0 0  0 0 0
0 0 0  0 0 0  0 0 0  0 0 0  0 0 0  0 0 0
8 8 2  58 56 66  152 152 149  191 188 189  191 188 189  165 165 164
128 128 124  81 78 84  42 42 39  22 23 28  8 8 2  3 3 3
0 0 0  0 0 0  0 0 0  0 0 0  0 0 0  0 0 0
0 0 0  0 0 0  0 0 0  0 0 0  0 0 0  0 0 0
0 0 0  0 0 0  0 0 0  0 0 0  0 0 0  0 0 0
0 0 0  0 0 0  0 0 0  0 0 0  1 1 1  8 8 2
22 23 28  31 31 29  51 50 50  100 101 100  142 142 139  175 171 173
191 188 189  175 171 173  111 111 113  31 31 29  3 3 3  0 0 0
0 0 0  0 0 0  0 0 0  0 0 0  0 0 0  0 0 0
0 0 0  0 0 0  0 0 0  0 0 0  0 0 0  0 0 0
8 8 2  58 56 66  58 52 91  62 57 108  71 64 113  71 64 113
71 64 113  71 64 113  65 60 113  71 64 113  71 64 113  71 64 113
81 72 123  81 72 123  62 57 108  54 53 105  81 72 123  91 77 135
71 64 113  65 60 113  54 53 105  65 60 113  65 60 113  65 60 113
62 57 108  60 62 119  60 62 119  55 56 109  54 53 105  55 56 109
50 51 104  50 51 104  47 49 101  50 51 104  50 51 104  44 47 99
55 56 109  50 51 104  44 47 99  44 47 99  44 47 99  0 0 0
0 0 0  0 0 0  0 0 0  0 0 0  0 0 0  0 0 0
0 0 0  0 0 0  0 0 0  0 0 0  0 0 0  0 0 0
0 0 0  0 0 0  0 0 0  0 0 0  0 0 0  0 0 0
0 0 0  0 0 0  0 0 0  0 0 0  0 0 0  0 0 0
0 0 0  0 0 0  0 0 0  0 0 0  0 0 0  0 0 0
0 0 0  0 0 0  0 0 0  0 0 0  0 0 0  0 0 0
76 69 105  129 104 171  123 100 167  113 91 156  129 104 171  113 91 156
106 85 144  118 96 163  118 96 163  113 91 156  118 96 163  115 94 159
118 96 163  118 96 163  113 91 156  136 115 182  98 80 141  93 79 139
96 84 145  96 84 145  91 77 135  98 80 141  96 84 145  86 75 130
87 79 137  91 77 135  86 75 130  86 75 130  81 72 123  93 79 139
81 72 123  71 64 113  71 64 113  78 69 117  87 77 122  62 57 108
78 69 117  71 64 113  20 21 46  3 3 3  1 1 1  0 0 0
0 0 0  0 0 0  0 0 0  0 0 0  0 0 0  0 0 0
0 0 0  0 0 0  0 0 0  0 0 0  0 0 0  0 0 0
58 56 66  142 142 139  236 236 234  243 242 236  243 242 236  236 236 234
227 227 230  221 218 218  197 197 196  142 142 139  81 78 84  22 23 28
3 3 3  0 0 0  0 0 0  0 0 0  0 0 0  0 0 0
0 0 0  0 0 0  0 0 0  0 0 0  0 0 0  0 0 0
0 0 0  0 0 0  0 0 0  0 0 0  0 0 0  0 0 0
0 0 0  0 0 0  0 0 0  0 0 0  8 8 2  51 50 50
111 111 113  175 171 173  206 206 206  227 227 230  236 236 234  243 242 236
243 242 236  236 236 234  221 218 218  81 78 84  22 23 28  0 0 0
0 0 0  0 0 0  0 0 0  0 0 0  0 0 0  0 0 0
0 0 0  0 0 0  0 0 0  0 0 0  0 0 0  0 0 0
3 3 3  22 23 28  50 25 62  66 63 99  71 64 113  62 57 108
62 57 108  62 57 108  65 60 113  62 57 108  71 64 113  71 64 113
78 69 117  65 60 113  71 64 113  62 57 108  65 60 113  71 64 113
62 57 108  62 57 108  78 69 117  54 53 105  55 56 109  58 59 115
67 65 119  60 62 119  55 56 109  55 56 109  50 51 104  55 56 109
67 65 119  47 49 101  44 47 99  47 49 101  50 51 104  55 56 109
55 56 109  44 47 99  58 59 115  55 56 109  20 22 57  0 0 0
0 0 0  0 0 0  0 0 0  0 0 0  0 0 0  0 0 0
0 0 0  0 0 0  0 0 0  0 0 0  0 0 0  0 0 0
0 0 0  0 0 0  0 0 0  0 0 0  0 0 0  0 0 0
0 0 0  0 0 0  0 0 0  0 0 0  0 0 0  0 0 0
0 0 0  0 0 0  0 0 0  0 0 0  0 0 0  0 0 0
0 0 0  0 0 0  0 0 0  0 0 0  0 0 0  0 0 0
58 52 91  123 100 167  118 96 163  123 100 165  113 91 156  118 96 163
118 96 163  113 91 156  118 96 163  123 100 165  123 100 165  118 96 163
123 100 165  109 89 153  115 94 159  115 94 159  106 85 144  115 94 159
105 87 150  105 87 150  93 79 139  93 79 139  96 84 145  101 84 147
91 77 135  91 77 135  96 84 145  87 79 137  86 75 130  86 75 130
86 75 130  81 72 123  81 72 123  78 69 117  71 64 113  62 57 108
71 64 113  58 52 91  22 23 28  0 0 0  0 0 0  0 0 0
0 0 0  0 0 0  0 0 0  0 0 0  0 0 0  0 0 0
0 0 0  0 0 0  0 0 0  0 0 0  0 0 0  0 0 0
89 88 93  191 188 189  253 253 253  253 253 253  253 253 253  253 253 253
253 253 253  253 253 253  249 249 249  221 218 218  179 180 182  142 142 139
81 78 84  42 42 39  8 8 2  0 0 0  0 0 0  0 0 0
0 0 0  0 0 0  0 0 0  0 0 0  0 0 0  0 0 0
0 0 0  0 0 0  0 0 0  0 0 0  0 0 0  0 0 0
0 0 0  1 1 1  22 23 28  58 56 66  111 111 113  152 152 149
197 197 196  227 227 230  253 253 253  253 253 253  253 253 253  253 253 253
253 253 253  253 253 253  243 242 236  128 128 124  42 42 39  0 0 0
0 0 0  0 0 0  0 0 0  0 0 0  0 0 0  0 0 0
0 0 0  0 0 0  0 0 0  0 0 0  0 0 0  0 0 0
1 1 1  3 3 3  20 22 57  66 63 99  71 64 113  62 57 108
71 64 113  71 64 113  71 64 113  81 72 123  78 69 117  71 64 113
86 75 130  71 64 113  62 57 108  71 64 113  65 60 113  62 57 108
44 47 99  103 91 154  131 129 178  44 47 99  58 59 115  55 56 109
72 73 127  69 68 124  54 53 105  54 53 105  50 51 104  55 56 109
55 56 109  54 53 105  68 70 128  50 51 104  44 47 99  55 56 109
44 47 99  50 51 104  50 51 104  47 49 101  20 21 46  0 0 0
0 0 0  0 0 0  0 0 0  0 0 0  0 0 0  0 0 0
0 0 0  0 0 0  0 0 0  0 0 0  0 0 0  0 0 0
0 0 0  0 0 0  0 0 0  0 0 0  0 0 0  0 0 0
0 0 0  0 0 0  0 0 0  0 0 0  0 0 0  0 0 0
0 0 0  0 0 0  0 0 0  0 0 0  0 0 0  0 0 0
0 0 0  0 0 0  0 0 0  0 0 0  0 0 0  0 0 0
20 21 46  113 91 156  109 89 153  115 94 159  105 87 150  113 91 156
115 94 159  109 89 153  113 91 156  115 94 159  106 85 144  115 94 159
113 91 156  109 89 153  105 87 150  105 87 150  106 85 144  102 83 145
96 84 145  93 79 139  96 84 145  91 77 135  93 79 139  109 89 153
98 80 141  86 75 130  86 75 130  81 72 123  91 77 135  93 79 139
78 69 117  86 75 130  78 69 117  78 69 117  78 69 117  78 69 117
58 52 91  20 21 46  8 8 2  0 0 0  0 0 0  0 0 0
0 0 0  0 0 0  0 0 0  0 0 0  0 0 0  0 0 0
0 0 0  0 0 0  0 0 0  0 0 0  0 0 0  0 0 0
111 111 113  206 206 206  253 253 253  253 253 253  253 253 253  253 253 253
253 253 253  253 253 253  253 253 253  253 253 253  253 253 253  236 236 234
179 180 182  100 101 100  51 50 50  22 23 28  8 8 2  0 0 0
0 0 0  0 0 0  0 0 0  0 0 0  0 0 0  0 0 0
0 0 0  0 0 0  0 0 0  0 0 0  0 0 0  3 3 3
22 23 28  42 42 39  81 78 84  142 142 139  221 218 218  249 249 249
253 253 253  253 253 253  253 253 253  253 253 253  253 253 253  253 253 253
253 253 253  253 253 253  243 242 236  142 142 139  58 56 66  0 0 0
0 0 0  0 0 0  0 0 0  0 0 0  0 0 0  0 0 0
0 0 0  0 0 0  0 0 0  0 0 0  0 0 0  0 0 0
0 0 0  0 0 0  22 23 28  50 25 62  62 57 108  62 57 108
65 60 113  71 64 113  62 57 108  87 77 122  87 77 122  62 57 108
65 60 113  65 60 113  62 57 108  62 57 108  62 57 108  58 59 115
50 51 104  54 53 105  47 49 101  54 53 105  58 59 115  55 56 109
55 56 109  55 56 109  58 59 115  55 56 109  50 51 104  55 56 109
50 51 104  55 56 109  50 51 104  50 51 104  50 51 104  55 56 109
47 49 101  47 49 101  44 47 99  47 49 101  22 23 28  0 0 0
0 0 0  0 0 0  0 0 0  0 0 0  0 0 0  0 0 0
0 0 0  0 0 0  0 0 0  0 0 0  0 0 0  0 0 0
0 0 0  0 0 0  0 0 0  0 0 0  0 0 0  0 0 0
0 0 0  0 0 0  0 0 0  0 0 0  0 0 0  0 0 0
0 0 0  0 0 0  0 0 0  0 0 0  0 0 0  0 0 0
0 0 0  0 0 0  0 0 0  0 0 0  0 0 0  0 0 0
3 3 3  109 89 153  109 89 153  109 89 153  118 96 163  118 96 163
113 91 156  113 91 156  102 83 145  102 83 145  113 91 156  118 96 163
106 85 144  106 85 144  102 83 145  102 83 145  113 91 156  105 87 150
93 79 139  93 79 139  98 80 141  96 84 145  87 79 137  91 77 135
91 77 135  103 91 154  93 79 139  98 80 141  93 79 139  98 80 141
86 75 130  86 75 130  86 75 130  81 72 123  86 75 130  78 69 117
58 52 91  22 23 28  1 1 1  0 0 0  0 0 0  0 0 0
0 0 0  0 0 0  0 0 0  0 0 0  0 0 0  0 0 0
0 0 0  0 0 0  0 0 0  0 0 0  0 0 0  0 0 0
111 111 113  206 206 206  253 253 253  253 253 253  253 253 253  253 253 253
253 253 253  253 253 253  253 253 253  253 253 253  253 253 253  253 253 253
249 249 249  227 227 230  179 180 182  100 101 100  31 31 29  0 0 0
0 0 0  0 0 0  0 0 0  0 0 0  0 0 0  0 0 0
0 0 0  0 0 0  0 0 0  0 0 0  0 0 0  8 8 2
67 66 71  152 152 149  221 218 218  243 242 236  249 249 249  253 253 253
253 253 253  253 253 253  253 253 253  253 253 253  253 253 253  253 253 253
253 253 253  253 253 253  243 242 236  152 152 149  67 66 71  0 0 0
0 0 0  0 0 0  0 0 0  0 0 0  0 0 0  0 0 0
0 0 0  0 0 0  0 0 0  0 0 0  0 0 0  0 0 0
0 0 0  0 0 0  8 8 2  20 21 46  76 69 105  76 69 105
66 63 99  62 57 108  62 57 108  62 57 108  62 57 108  54 53 105
54 53 105  54 53 105  54 53 105  62 57 108  54 53 105  58 59 115
55 56 109  55 56 109  58 59 115  79 79 133  60 62 119  60 62 119
87 79 137  55 56 109  55 56 109  54 53 105  50 51 104  50 51 104
50 51 104  44 47 99  55 56 109  50 51 104  50 51 104  44 47 99
47 49 101  58 59 115  50 51 104  47 49 101  3 3 3  0 0 0
0 0 0  0 0 0  0 0 0  0 0 0  0 0 0  0 0 0
0 0 0  0 0 0  0 0 0  0 0 0  0 0 0  0 0 0
0 0 0  0 0 0  0 0 0  0 0 0  0 0 0  0 0 0
0 0 0  0 0 0  0 0 0  0 0 0  0 0 0  0 0 0
0 0 0  0 0 0  0 0 0  0 0 0  0 0 0  0 0 0
0 0 0  0 0 0  0 0 0  0 0 0  0 0 0  0 0 0
0 0 0  78 69 117  109 89 153  113 91 156  109 89 153  113 91 156
115 94 159  113 91 156  113 91 156  106 85 144  113 91 156  101 84 147
98 80 141  102 83 145  113 91 156  115 94 159  113 91 156  101 84 147
93 79 139  102 83 145  98 80 141  98 80 141  103 91 154  96 84 145
91 77 135  105 87 150  91 77 135  86 75 130  86 75 130  86 75 130
86 75 130  103 91 154  78 69 117  71 64 113  93 79 139  66 63 99
20 22 57  8 8 2  0 0 0  0 0 0  0 0 0  0 0 0
0 0 0  0 0 0  0 0 0  0 0 0  0 0 0  0 0 0
0 0 0  0 0 0  0 0 0  0 0 0  0 0 0  0 0 0
111 111 113  206 206 206  253 253 253  253 253 253  253 253 253  253 253 253
253 253 253  253 253 253  253 253 253  253 253 253  253 253 253  253 253 253
253 253 253  249 249 249  236 236 234  197 197 196  152 152 149  89 88 93
31 31 29  8 8 2  0 0 0  0 0 0  0 0 0  0 0 0
0 0 0  0 0 0  0 0 0  22 23 28  67 66 71  128 128 124
179 180 182  221 218 218  249 249 249  253 253 253  253 253 253  253 253 253
253 253 253  253 253 253  253 253 253  253 253 253  253 253 253  253 253 253
253 253 253  253 253 253  243 242 236  142 142 139  58 56 66  0 0 0
0 0 0  0 0 0  0 0 0  0 0 0  0 0 0  0 0 0
0 0 0  0 0 0  0 0 0  0 0 0  0 0 0  0 0 0
0 0 0  0 0 0  3 3 3  22 23 28  58 52 91  76 69 105
106 85 144  58 52 91  71 64 113  71 64 113  62 57 108  62 57 108
54 53 105  62 57 108  62 57 108  62 57 108  55 56 109  54 53 105
58 59 115  55 56 109  60 62 119  58 59 115  58 59 115  58 59 115
55 56 109  55 56 109  54 53 105  54 53 105  47 49 101  50 51 104
50 51 104  55 56 109  67 65 119  50 51 104  47 49 101  50 51 104
55 56 109  44 47 99  44 47 99  20 22 57  0 0 0  0 0 0
0 0 0  0 0 0  0 0 0  0 0 0  0 0 0  0 0 0
0 0 0  0 0 0  0 0 0  0 0 0  0 0 0  0 0 0
0 0 0  0 0 0  0 0 0  0 0 0  0 0 0  0 0 0
0 0 0  0 0 0  0 0 0  0 0 0  0 0 0  0 0 0
0 0 0  0 0 0  0 0 0  0 0 0  0 0 0  0 0 0
0 0 0  0 0 0  0 0 0  0 0 0  0 0 0  0 0 0
0 0 0  58 56 66  109 89 153  118 96 163  113 91 156  105 87 150
109 89 153  102 83 145  113 91 156  106 85 144  100 81 138  106 85 144
98 80 141  102 83 145  106 85 144  113 91 156  98 80 141  102 83 145
102 83 145  96 84 145  103 91 154  93 79 139  91 77 135  96 84 145
91 77 135  93 79 139  86 75 130  81 72 123  93 79 139  86 75 130
78 69 117  86 75 130  71 64 113  71 64 113  81 72 123  58 52 91
22 23 28  3 3 3  0 0 0  0 0 0  0 0 0  0 0 0
0 0 0  0 0 0  0 0 0  0 0 0  0 0 0  0 0 0
0 0 0  0 0 0  0 0 0  0 0 0  0 0 0  0 0 0
100 101 100  197 197 196  253 253 253  253 253 253  253 253 253  253 253 253
253 253 253  253 253 253  253 253 253  253 253 253  253 253 253  253 253 253
253 253 253  253 253 253  253 253 253  253 253 253  236 236 234  179 180 182
111 111 113  67 66 71  42 42 39  22 23 28  3 3 3  1 1 1
8 8 2  31 31 29  51 50 50  89 88 93  152 152 149  221 218 218
249 249 249  253 253 253  253 253 253  253 253 253  253 253 253  253 253 253
253 253 253  253 253 253  253 253 253  253 253 253  253 253 253  253 253 253
253 253 253  253 253 253  243 242 236  142 142 139  51 50 50  0 0 0
0 0 0  0 0 0  0 0 0  0 0 0  0 0 0  0 0 0
0 0 0  0 0 0  0 0 0  0 0 0  0 0 0  0 0 0
0 0 0  0 0 0  0 0 0  8 8 2  50 25 62  58 52 91
100 81 138  66 63 99  62 57 108  65 60 113  54 53 105  62 57 108
54 53 105  54 53 105  62 57 108  55 56 109  55 56 109  55 56 109
55 56 109  55 56 109  47 49 101  50 51 104  55 56 109  54 53 105
55 56 109  55 56 109  67 65 119  47 49 101  47 49 101  55 56 109
55 56 109  55 56 109  47 49 101  50 51 104  44 47 99  50 51 104
50 51 104  47 49 101  50 51 104  20 21 46  0 0 0  0 0 0
0 0 0  0 0 0  0 0 0  0 0 0  0 0 0  0 0 0
0 0 0  0 0 0  0 0 0  0 0 0  0 0 0  0 0 0
0 0 0  0 0 0  0 0 0  0 0 0  0 0 0  0 0 0
0 0 0  0 0 0  0 0 0  0 0 0  0 0 0  0 0 0
0 0 0  0 0 0  0 0 0  0 0 0  0 0 0  0 0 0
0 0 0  0 0 0  0 0 0  0 0 0  0 0 0  0 0 0
0 0 0  22 23 28  123 100 165  115 94 159  105 87 150  113 91 156
118 96 163  102 83 145  106 85 144  100 81 138  100 81 138  106 85 144
115 94 159  106 85 144  98 80 141  109 89 153  109 89 153  98 80 141
98 80 141  86 75 130  93 79 139  96 84 145  87 79 137  103 91 154
93 79 139  87 79 137  86 75 130  93 79 139  86 75 130  87 79 137
78 69 117  93 79 139  87 77 122  86 75 130  71 64 113  50 25 62
1 1 1  0 0 0  0 0 0  0 0 0  0 0 0  0 0 0
0 0 0  0 0 0  0 0 0  0 0 0  0 0 0  0 0 0
0 0 0  0 0 0  0 0 0  0 0 0  0 0 0  0 0 0
100 101 100  197 197 196  253 253 253  253 253 253  253 253 253  253 253 253
253 253 253  253 253 253  253 253 253  253 253 253  253 253 253  253 253 253
253 253 253  253 253 253  253 253 253  253 253 253  253 253 253  253 253 253
243 242 236  197 197 196  128 128 124  58 56 66  8 8 2  8 8 2
31 31 29  100 101 100  175 171 173  227 227 230  249 249 249  253 253 253
253 253 253  253 253 253  253 253 253  253 253 253  253 253 253  253 253 253
253 253 253  253 253 253  253 253 253  253 253 253  253 253 253  253 253 253
253 253 253  253 253 253  243 242 236  128 128 124  51 50 50  0 0 0
0 0 0  0 0 0  0 0 0  0 0 0  0 0 0  0 0 0
0 0 0  0 0 0  0 0 0  0 0 0  0 0 0  0 0 0
0 0 0  0 0 0  0 0 0  3 3 3  22 23 28  58 56 66
58 52 91  66 63 99  71 64 113  62 57 108  58 52 91  65 60 113
62 57 108  47 49 101  54 53 105  54 53 105  54 53 105  47 49 101
55 56 109  60 62 119  55 56 109  55 56 109  58 59 115  58 59 115
58 59 115  47 49 101  54 53 105  55 56 109  44 47 99  60 62 119
50 51 104  54 53 105  50 51 104  55 56 109  44 47 99  47 49 101
44 47 99  44 47 99  44 47 99  3 3 3  0 0 0  0 0 0
0 0 0  0 0 0  0 0 0  0 0 0  0 0 0  0 0 0
0 0 0  0 0 0  0 0 0  0 0 0  0 0 0  0 0 0
0 0 0  0 0 0  0 0 0  0 0 0  0 0 0  0 0 0
0 0 0  0 0 0  0 0 0  0 0 0  0 0 0  0 0 0
0 0 0  0 0 0  0 0 0  0 0 0  0 0 0  0 0 0
0 0 0  0 0 0  0 0 0  0 0 0  0 0 0  0 0 0
0 0 0  0 0 0  76 69 105  109 89 153  109 89 153  106 85 144
106 85 144  109 89 153  123 100 165  113 91 156  100 81 138  100 81 138
123 100 165  113 91 156  98 80 141  105 87 150  101 84 147  105 87 150
98 80 141  93 79 139  96 84 145  96 84 145  91 77 135  109 97 163
93 79 139  86 75 130  91 77 135  86 75 130  87 79 137  91 77 135
81 72 123  100 81 138  86 75 130  78 69 117  58 52 91  22 23 28
0 0 0  0 0 0  0 0 0  0 0 0  0 0 0  0 0 0
0 0 0  0 0 0  0 0 0  0 0 0  0 0 0  0 0 0
0 0 0  0 0 0  0 0 0  0 0 0  0 0 0  0 0 0
89 88 93  191 188 189  253 253 253  253 253 253  253 253 253  253 253 253
253 253 253  253 253 253  253 253 253  253 253 253  253 253 253  253 253 253
253 253 253  253 253 253  253 253 253  253 253 253  253 253 253  253 253 253
253 253 253  236 236 234  221 218 218  191 188 189  165 165 164  165 165 164
179 180 182  197 197 196  227 227 230  249 249 249  253 253 253  253 253 253
253 253 253  253 253 253  253 253 253  253 253 253  253 253 253  253 253 253
253 253 253  253 253 253  253 253 253  253 253 253  253 253 253  253 253 253
253 253 253  253 253 253  243 242 236  128 128 124  51 50 50  0 0 0
0 0 0  0 0 0  0 0 0  0 0 0  0 0 0  0 0 0
0 0 0  0 0 0  0 0 0  0 0 0  0 0 0  0 0 0
0 0 0  0 0 0  0 0 0  1 1 1  3 3 3  20 22 57
76 69 105  66 63 99  66 63 99  71 64 113  54 53 105  54 53 105
54 53 105  54 53 105  50 51 104  54 53 105  55 56 109  50 51 104
54 53 105  55 56 109  55 56 109  54 53 105  55 56 109  55 56 109
47 49 101  60 62 119  55 56 109  55 56 109  47 49 101  54 53 105
55 56 109  44 47 99  58 59 115  68 70 128  50 51 104  44 47 99
44 47 99  44 47 99  19 19 85  0 0 0  0 0 0  0 0 0
0 0 0  0 0 0  0 0 0  0 0 0  0 0 0  0 0 0
0 0 0  0 0 0  0 0 0  0 0 0  0 0 0  0 0 0
0 0 0  0 0 0  0 0 0  0 0 0  0 0 0  0 0 0
0 0 0  0 0 0  0 0 0  0 0 0  0 0 0  0 0 0
0 0 0  0 0 0  0 0 0  0 0 0  0 0 0  0 0 0
0 0 0  0 0 0  0 0 0  0 0 0  0 0 0  0 0 0
0 0 0  0 0 0  31 31 29  106 85 144  109 89 153  106 85 144
106 85 144  106 85 144  102 83 145  105 87 150  113 91 156  106 85 144
106 85 144  109 89 153  100 81 138  91 77 135  102 83 145  109 89 153
96 84 145  93 79 139  93 79 139  91 77 135  96 84 145  96 84 145
98 80 141  96 84 145  87 79 137  86 75 130  86 75 130  86 75 130
86 75 130  78 69 117  86 75 130  78 69 117  20 22 57  8 8 2
0 0 0  0 0 0  0 0 0  0 0 0  0 0 0  0 0 0
0 0 0  0 0 0  0 0 0  0 0 0  0 0 0  0 0 0
0 0 0  0 0 0  0 0 0  0 0 0  0 0 0  0 0 0
89 88 93  179 180 182  253 253 253  253 253 253  253 253 253  253 253 253
253 253 253  253 253 253  253 253 253  253 253 253  253 253 253  253 253 253
253 253 253  253 253 253  253 253 253  253 253 253  253 253 253  253 253 253
253 253 253  253 253 253  253 253 253  253 253 253  249 249 249  249 249 249
253 253 253  253 253 253  253 253 253  253 253 253  253 253 253  253 253 253
253 253 253  253 253 253  253 253 253  253 253 253  253 253 253  253 253 253
253 253 253  253 253 253  253 253 253  253 253 253  253 253 253  253 253 253
253 253 253  253 253 253  243 242 236  128 128 124  42 42 39  0 0 0
0 0 0  0 0 0  0 0 0  0 0 0  0 0 0  0 0 0
0 0 0  0 0 0  0 0 0  0 0 0  0 0 0  0 0 0
0 0 0  0 0 0  0 0 0  0 0 0  0 0 0  22 23 28
66 63 99  78 69 117  58 52 91  62 57 108  54 53 105  54 53 105
47 49 101  50 51 104  54 53 105  55 56 109  47 49 101  50 51 104
50 51 104  47 49 101  55 56 109  50 51 104  58 59 115  55 56 109
50 51 104  55 56 109  50 51 104  58 59 115  50 51 104  50 51 104
44 47 99  44 47 99  44 47 99  55 56 109  55 56 109  44 47 99
44 47 99  50 51 104  22 23 28  0 0 0  0 0 0  0 0 0
0 0 0  0 0 0  0 0 0  0 0 0  0 0 0  0 0 0
0 0 0  0 0 0  0 0 0  0 0 0  0 0 0  0 0 0
0 0 0  0 0 0  0 0 0  0 0 0  0 0 0  0 0 0
0 0 0  0 0 0  0 0 0  0 0 0  0 0 0  0 0 0
0 0 0  0 0 0  0 0 0  0 0 0  0 0 0  0 0 0
0 0 0  0 0 0  0 0 0  0 0 0  0 0 0  0 0 0
0 0 0  0 0 0  0 0 0  78 69 117  106 85 144  98 80 141
123 100 165  109 89 153  98 80 141  100 81 138  106 85 144  109 89 153
109 89 153  98 80 141  105 87 150  102 83 145  102 83 145  96 84 145
93 79 139  93 79 139  93 79 139  93 79 139  93 79 139  91 77 135
93 79 139  91 77 135  96 84 145  86 75 130  86 75 130  81 72 123
86 75 130  81 72 123  71 64 113  66 63 99  22 23 28  0 0 0
0 0 0  0 0 0  0 0 0  0 0 0  0 0 0  0 0 0
0 0 0  0 0 0  0 0 0  0 0 0  0 0 0  0 0 0
0 0 0  0 0 0  0 0 0  0 0 0  0 0 0  0 0 0
89 88 93  179 180 182  253 253 253  253 253 253  253 253 253  253 253 253
253 253 253  253 253 253  253 253 253  253 253 253  253 253 253  253 253 253
253 253 253  253 253 253  253 253 253  253 253 253  253 253 253  253 253 253
253 253 253  253 253 253  253 253 253  253 253 253  253 253 253  253 253 253
253 253 253  253 253 253  253 253 253  253 253 253  253 253 253  253 253 253
253 253 253  253 253 253  253 253 253  253 253 253  253 253 253  253 253 253
253 253 253  253 253 253  253 253 253  253 253 253  253 253 253  253 253 253
253 253 253  253 253 253  243 242 236  111 111 113  42 42 39  0 0 0
0 0 0  0 0 0  0 0 0  0 0 0  0 0 0  0 0 0
0 0 0  0 0 0  0 0 0  0 0 0  0 0 0  0 0 0
0 0 0  0 0 0  0 0 0  0 0 0  0 0 0  8 8 2
20 21 46  78 69 117  62 57 108  58 52 91  54 53 105  54 53 105
44 47 99  62 57 108  54 53 105  54 53 105  54 53 105  50 51 104
55 56 109  54 53 105  50 51 104  58 59 115  65 60 113  44 47 99
50 51 104  47 49 101  55 56 109  54 53 105  47 49 101  50 51 104
58 59 115  55 56 109  44 47 99  47 49 101  47 49 101  47 49 101
47 49 101  44 47 99  0 0 0  0 0 0  0 0 0  0 0 0
0 0 0  0 0 0  0 0 0  0 0 0  0 0 0  0 0 0
0 0 0  0 0 0  0 0 0  0 0 0  0 0 0  0 0 0
0 0 0  0 0 0  0 0 0  0 0 0  0 0 0  0 0 0
0 0 0  0 0 0  0 0 0  0 0 0  0 0 0  0 0 0
0 0 0  0 0 0  0 0 0  0 0 0  0 0 0  0 0 0
0 0 0  0 0 0  0 0 0  0 0 0  0 0 0  0 0 0
0 0 0  0 0 0  0 0 0  22 23 28  109 89 153  106 85 144
106 85 144  106 85 144  109 89 153  106 85 144  113 91 156  98 80 141
105 87 150  105 87 150  105 87 150  98 80 141  93 79 139  96 84 145
105 87 150  93 79 139  96 84 145  96 84 145  102 83 145  93 79 139
91 77 135  93 79 139  93 79 139  86 75 130  86 75 130  86 75 130
91 77 135  86 75 130  58 52 91  50 25 62  8 8 2  0 0 0
0 0 0  0 0 0  0 0 0  0 0 0  0 0 0  0 0 0
0 0 0  0 0 0  0 0 0  0 0 0  0 0 0  0 0 0
0 0 0  0 0 0  0 0 0  0 0 0  0 0 0  0 0 0
100 101 100  191 188 189  253 253 253  253 253 253  253 253 253  253 253 253
253 253 253  253 253 253  253 253 253  253 253 253  253 253 253  253 253 253
253 253 253  253 253 253  253 253 253  253 253 253  253 253 253  253 253 253
253 253 253  253 253 253  253 253 253  253 253 253  253 253 253  253 253 253
253 253 253  253 253 253  253 253 253  253 253 253  253 253 253  253 253 253
253 253 253  253 253 253  253 253 253  253 253 253  253 253 253  253 253 253
253 253 253  253 253 253  253 253 253  253 253 253  253 253 253  253 253 253
253 253 253  253 253 253  243 242 236  128 128 124  51 50 50  0 0 0
0 0 0  0 0 0  0 0 0  0 0 0  0 0 0  0 0 0
0 0 0  0 0 0  0 0 0  0 0 0  0 0 0  0 0 0
0 0 0  0 0 0  0 0 0  0 0 0  0 0 0  3 3 3
22 23 28  50 25 62  58 52 91  58 52 91  50 51 104  47 49 101
47 49 101  54 53 105  47 49 101  67 65 119  67 65 119  47 49 101
50 51 104  55 56 109  50 51 104  50 51 104  58 59 115  44 47 99
50 51 104  55 56 109  47 49 101  47 49 101  55 56 109  47 49 101
82 84 141  47 49 101  50 51 104  47 49 101  44 47 99  44 47 99
44 47 99  4 5 35  0 0 0  0 0 0  0 0 0  0 0 0
0 0 0  0 0 0  0 0 0  0 0 0  0 0 0  0 0 0
0 0 0  0 0 0  0 0 0  0 0 0  0 0 0  0 0 0
0 0 0  0 0 0  0 0 0  0 0 0  0 0 0  0 0 0
0 0 0  0 0 0  0 0 0  0 0 0  0 0 0  0 0 0
0 0 0  0 0 0  0 0 0  0 0 0  0 0 0  0 0 0
0 0 0  0 0 0  0 0 0  0 0 0  0 0 0  0 0 0
0 0 0  0 0 0  0 0 0  0 0 0  66 63 99  105 87 150
106 85 144  106 85 144  102 83 145  100 81 138  106 85 144  102 83 145
102 83 145  98 80 141  96 84 145  105 87 150  101 84 147  101 84 147
109 89 153  98 80 141  101 84 147  93 79 139  96 84 145  105 87 150
93 79 139  87 79 137  86 75 130  93 79 139  91 77 135  93 79 139
86 75 130  81 72 123  58 52 91  22 23 28  3 3 3  0 0 0
0 0 0  0 0 0  0 0 0  0 0 0  0 0 0  0 0 0
0 0 0  0 0 0  0 0 0  0 0 0  0 0 0  0 0 0
0 0 0  0 0 0  0 0 0  0 0 0  0 0 0  0 0 0
111 111 113  206 206 206  253 253 253  253 253 253  253 253 253  253 253 253
253 253 253  253 253 253  253 253 253  253 253 253  253 253 253  253 253 253
253 253 253  253 253 253  253 253 253  253 253 253  253 253 253  253 253 253
253 253 253  253 253 253  253 253 253  253 253 253  253 253 253  253 253 253
253 253 253  253 253 253  253 253 253  253 253 253  253 253 253  253 253 253
253 253 253  253 253 253  253 253 253  253 253 253  253 253 253  253 253 253
253 253 253  253 253 253  253 253 253  253 253 253  253 253 253  253 253 253
253 253 253  253 253 253  243 242 236  142 142 139  58 56 66  0 0 0
0 0 0  0 0 0  0 0 0  0 0 0  0 0 0  0 0 0
0 0 0  0 0 0  0 0 0  0 0 0  0 0 0  0 0 0
0 0 0  0 0 0  0 0 0  0 0 0  0 0 0  0 0 0
8 8 2  20 21 46  58 52 91  54 53 105  58 52 91  54 53 105
54 53 105  47 49 101  47 49 101  47 49 101  50 51 104  54 53 105
50 51 104  44 47 99  54 53 105  55 56 109  54 53 105  55 56 109
54 53 105  55 56 109  55 56 109  50 51 104  47 49 101  44 47 99
44 47 99  44 47 99  54 53 105  54 53 105  44 47 99  47 49 101
20 22 57  0 0 0  0 0 0  0 0 0  0 0 0  0 0 0
0 0 0  0 0 0  0 0 0  0 0 0  0 0 0  0 0 0
0 0 0  0 0 0  0 0 0  0 0 0  0 0 0  0 0 0
0 0 0  0 0 0  0 0 0  0 0 0  0 0 0  0 0 0
0 0 0  0 0 0  0 0 0  0 0 0  0 0 0  0 0 0
0 0 0  0 0 0  0 0 0  0 0 0  0 0 0  0 0 0
0 0 0  0 0 0  0 0 0  0 0 0  0 0 0  0 0 0
0 0 0  0 0 0  0 0 0  0 0 0  8 8 2  102 83 145
102 83 145  106 85 144  98 80 141  109 89 153  113 91 156  98 80 141
105 87 150  105 87 150  98 80 141  102 83 145  101 84 147  101 84 147
91 77 135  101 84 147  96 84 145  93 79 139  105 87 150  93 79 139
96 84 145  91 77 135  91 77 135  105 87 150  93 79 139  81 72 123
78 69 117  87 77 122  50 25 62  0 0 0  0 0 0  0 0 0
0 0 0  0 0 0  0 0 0  0 0 0  0 0 0  0 0 0
0 0 0  0 0 0  0 0 0  0 0 0  0 0 0  0 0 0
0 0 0  0 0 0  0 0 0  0 0 0  0 0 0  1 1 1
128 128 124  227 227 230  253 253 253  253 253 253  253 253 253  253 253 253
253 253 253  253 253 253  253 253 253  253 253 253  253 253 253  253 253 253
253 253 253  253 253 253  253 253 253  253 253 253  253 253 253  253 253 253
253 253 253  253 253 253  253 253 253  253 253 253  253 253 253  253 253 253
253 253 253  253 253 253  253 253 253  253 253 253  253 253 253  253 253 253
253 253 253  253 253 253  253 253 253  253 253 253  253 253 253  253 253 253
253 253 253  253 253 253  253 253 253  253 253 253  253 253 253  253 253 253
253 253 253  253 253 253  249 249 249  175 171 173  81 78 84  0 0 0
0 0 0  0 0 0  0 0 0  0 0 0  0 0 0  0 0 0
0 0 0  0 0 0  0 0 0  0 0 0  0 0 0  0 0 0
0 0 0  0 0 0  0 0 0  0 0 0  0 0 0  0 0 0
3 3 3  22 23 28  58 52 91  58 52 91  44 47 99  54 53 105
54 53 105  47 49 101  44 47 99  47 49 101  50 51 104  44 47 99
54 53 105  54 53 105  47 49 101  54 53 105  67 65 119  50 51 104
44 47 99  50 51 104  47 49 101  44 47 99  55 56 109  50 51 104
55 56 109  55 56 109  50 51 104  44 47 99  50 51 104  44 47 99
3 3 3  0 0 0  0 0 0  0 0 0  0 0 0  0 0 0
0 0 0  0 0 0  0 0 0  0 0 0  0 0 0  0 0 0
0 0 0  0 0 0  0 0 0  0 0 0  0 0 0  0 0 0
0 0 0  0 0 0  0 0 0  0 0 0  0 0 0  0 0 0
0 0 0  0 0 0  0 0 0  0 0 0  0 0 0  0 0 0
0 0 0  0 0 0  0 0 0  0 0 0  0 0 0  0 0 0
0 0 0  0 0 0  0 0 0  0 0 0  0 0 0  0 0 0
0 0 0  0 0 0  0 0 0  0 0 0  0 0 0  20 21 46
100 81 138  106 85 144  98 80 141  115 94 159  109 89 153  102 83 145
101 84 147  98 80 141  113 91 156  102 83 145  102 83 145  101 84 147
91 77 135  105 87 150  101 84 147  98 80 141  105 87 150  101 84 147
93 79 139  96 84 145  91 77 135  91 77 135  86 75 130  86 75 130
86 75 130  58 52 91  20 21 46  0 0 0  0 0 0  0 0 0
0 0 0  0 0 0  0 0 0  0 0 0  0 0 0  0 0 0
0 0 0  0 0 0  0 0 0  0 0 0  0 0 0  0 0 0
0 0 0  0 0 0  0 0 0  0 0 0  3 3 3  8 8 2
152 152 149  249 249 249  253 253 253  253 253 253  253 253 253  253 253 253
253 253 253  253 253 253  253 253 253  253 253 253  253 253 253  253 253 253
253 253 253  253 253 253  253 253 253  253 253 253  253 253 253  253 253 253
253 253 253  253 253 253  253 253 253  253 253 253  253 253 253  253 253 253
253 253 253  253 253 253  253 253 253  253 253 253  253 253 253  253 253 253
253 253 253  253 253 253  253 253 253  253 253 253  253 253 253  253 253 253
253 253 253  253 253 253  253 253 253  253 253 253  253 253 253  253 253 253
253 253 253  253 253 253  249 249 249  206 206 206  100 101 100  0 0 0
0 0 0  0 0 0  0 0 0  0 0 0  0 0 0  0 0 0
0 0 0  0 0 0  0 0 0  0 0 0  0 0 0  0 0 0
0 0 0  0 0 0  0 0 0  0 0 0  0 0 0  0 0 0
1 1 1  3 3 3  20 22 57  58 52 91  58 52 91  50 51 104
50 51 104  44 47 99  54 53 105  47 49 101  47 49 101  47 49 101
55 56 109  50 51 104  54 53 105  50 51 104  55 56 109  47 49 101
50 51 104  50 51 104  55 56 109  47 49 101  50 51 104  47 49 101
55 56 109  44 47 99  47 49 101  44 47 99  44 47 99  22 23 28
0 0 0  0 0 0  0 0 0  0 0 0  0 0 0  0 0 0
0 0 0  0 0 0  0 0 0  0 0 0  0 0 0  0 0 0
0 0 0  0 0 0  0 0 0  0 0 0  0 0 0  0 0 0
0 0 0  0 0 0  0 0 0  0 0 0  0 0 0  0 0 0
0 0 0  0 0 0  0 0 0  0 0 0  0 0 0  0 0 0
0 0 0  0 0 0  0 0 0  0 0 0  0 0 0  0 0 0
0 0 0  0 0 0  0 0 0  0 0 0  0 0 0  0 0 0
0 0 0  0 0 0  0 0 0  0 0 0  0 0 0  0 0 0
87 77 122  91 77 135  115 94 159  102 83 145  102 83 145  105 87 150
105 87 150  98 80 141  109 89 153  103 91 154  96 84 145  113 91 156
115 94 159  96 84 145  98 80 141  96 84 145  101 84 147  96 84 145
98 80 141  96 84 145  91 77 135  100 81 138  91 77 135  86 75 130
86 75 130  50 25 62  8 8 2  0 0 0  0 0 0  0 0 0
0 0 0  0 0 0  0 0 0  0 0 0  0 0 0  0 0 0
0 0 0  0 0 0  0 0 0  0 0 0  0 0 0  0 0 0
0 0 0  0 0 0  0 0 0  0 0 0  8 8 2  51 50 50
175 171 173  253 253 253  253 253 253  253 253 253  253 253 253  253 253 253
253 253 253  253 253 253  253 253 253  253 253 253  253 253 253  253 253 253
253 253 253  253 253 253  253 253 253  253 253 253  253 253 253  253 253 253
253 253 253  253 253 253  253 253 253  253 253 253  253 253 253  253 253 253
253 253 253  253 253 253  253 253 253  253 253 253  253 253 253  253 253 253
253 253 253  253 253 253  253 253 253  253 253 253  253 253 253  253 253 253
253 253 253  253 253 253  253 253 253  253 253 253  253 253 253  253 253 253
253 253 253  253 253 253  253 253 253  236 236 234  128 128 124  8 8 2
1 1 1  0 0 0  0 0 0  0 0 0  0 0 0  0 0 0
0 0 0  0 0 0  0 0 0  0 0 0  0 0 0  0 0 0
0 0 0  0 0 0  0 0 0  0 0 0  0 0 0  0 0 0
0 0 0  1 1 1  20 21 46  50 25 62  47 49 101  50 51 104
44 47 99  47 49 101  44 47 99  47 49 101  44 47 99  50 51 104
44 47 99  55 56 109  50 51 104  44 47 99  44 47 99  44 47 99
50 51 104  50 51 104  44 47 99  55 56 109  58 59 115  50 51 104
50 51 104  50 51 104  44 47 99  44 47 99  20 22 57  0 0 0
0 0 0  0 0 0  0 0 0  0 0 0  0 0 0  0 0 0
0 0 0  0 0 0  0 0 0  0 0 0  0 0 0  0 0 0
0 0 0  0 0 0  0 0 0  0 0 0  0 0 0  0 0 0
0 0 0  0 0 0  0 0 0  0 0 0  0 0 0  0 0 0
0 0 0  0 0 0  0 0 0  0 0 0  0 0 0  0 0 0
0 0 0  0 0 0  0 0 0  0 0 0  0 0 0  0 0 0
0 0 0  0 0 0  0 0 0  0 0 0  0 0 0  0 0 0
0 0 0  0 0 0  0 0 0  0 0 0  0 0 0  0 0 0
1 1 1  66 63 99  113 91 156  101 84 147  109 89 153  101 84 147
105 87 150  105 87 150  105 87 150  101 84 147  103 91 154  109 89 153
105 87 150  101 84 147  93 79 139  105 87 150  93 79 139  93 79 139
98 80 141  91 77 135  93 79 139  102 83 145  86 75 130  81 72 123
76 69 105  20 21 46  1 1 1  0 0 0  0 0 0  0 0 0
0 0 0  0 0 0  0 0 0  0 0 0  0 0 0  0 0 0
0 0 0  0 0 0  0 0 0  0 0 0  0 0 0  0 0 0
0 0 0  0 0 0  0 0 0  0 0 0  22 23 28  111 111 113
197 197 196  253 253 253  253 253 253  253 253 253  253 253 253  253 253 253
253 253 253  253 253 253  253 253 253  253 253 253  253 253 253  253 253 253
253 253 253  253 253 253  253 253 253  253 253 253  253 253 253  253 253 253
253 253 253  253 253 253  253 253 253  253 253 253  253 253 253  253 253 253
253 253 253  253 253 253  253 253 253  253 253 253  253 253 253  253 253 253
253 253 253  253 253 253  253 253 253  253 253 253  253 253 253  253 253 253
253 253 253  253 253 253  253 253 253  253 253 253  253 253 253  253 253 253
253 253 253  253 253 253  253 253 253  253 253 253  165 165 164  42 42 39
8 8 2  0 0 0  0 0 0  0 0 0  0 0 0  0 0 0
0 0 0  0 0 0  0 0 0  0 0 0  0 0 0  0 0 0
0 0 0  0 0 0  0 0 0  0 0 0  0 0 0  0 0 0
0 0 0  0 0 0  22 23 28  20 21 46  44 47 99  44 47 99
44 47 99  54 53 105  47 49 101  47 49 101  47 49 101  47 49 101
54 53 105  44 47 99  50 51 104  50 51 104  54 53 105  44 47 99
54 53 105  55 56 109  44 47 99  58 59 115  44 47 99  55 56 109
44 47 99  50 51 104  44 47 99  50 25 62  0 0 0  0 0 0
0 0 0  0 0 0  0 0 0  0 0 0  0 0 0  0 0 0
0 0 0  0 0 0  0 0 0  0 0 0  0 0 0  0 0 0
0 0 0  0 0 0  0 0 0  0 0 0  0 0 0  0 0 0
0 0 0  0 0 0  0 0 0  0 0 0  0 0 0  0 0 0
0 0 0  0 0 0  0 0 0  0 0 0  0 0 0  0 0 0
0 0 0  0 0 0  0 0 0  0 0 0  0 0 0  0 0 0
0 0 0  0 0 0  0 0 0  0 0 0  0 0 0  0 0 0
0 0 0  0 0 0  0 0 0  0 0 0  0 0 0  0 0 0
0 0 0  3 3 3  86 75 130  109 89 153  102 83 145  105 87 150
113 91 156  98 80 141  105 87 150  113 91 156  101 84 147  102 83 145
98 80 141  102 83 145  101 84 147  96 84 145  93 79 139  109 89 153
102 83 145  96 84 145  93 79 139  91 77 135  106 85 144  78 69 117
50 25 62  22 23 28  0 0 0  0 0 0  0 0 0  0 0 0
0 0 0  0 0 0  0 0 0  0 0 0  0 0 0  0 0 0
0 0 0  0 0 0  0 0 0  0 0 0  0 0 0  0 0 0
0 0 0  0 0 0  0 0 0  0 0 0  42 42 39  175 171 173
227 227 230  253 253 253  253 253 253  253 253 253  253 253 253  253 253 253
253 253 253  253 253 253  253 253 253  253 253 253  253 253 253  253 253 253
253 253 253  253 253 253  253 253 253  253 253 253  253 253 253  253 253 253
253 253 253  253 253 253  253 253 253  253 253 253  253 253 253  253 253 253
253 253 253  253 253 253  253 253 253  253 253 253  253 253 253  253 253 253
253 253 253  253 253 253  253 253 253  253 253 253  253 253 253  253 253 253
253 253 253  253 253 253  253 253 253  253 253 253  253 253 253  253 253 253
253 253 253  253 253 253  253 253 253  253 253 253  191 188 189  100 101 100
22 23 28  0 0 0  0 0 0  0 0 0  0 0 0  0 0 0
0 0 0  0 0 0  0 0 0  0 0 0  0 0 0  0 0 0
0 0 0  0 0 0  0 0 0  0 0 0  0 0 0  0 0 0
0 0 0  0 0 0  1 1 1  22 23 28  44 47 99  44 47 99
44 47 99  54 53 105  44 47 99  50 51 104  47 49 101  55 56 109
50 51 104  47 49 101  47 49 101  50 51 104  55 56 109  50 51 104
55 56 109  50 51 104  50 51 104  50 51 104  50 51 104  44 47 99
54 53 105  50 51 104  44 47 99  3 3 3  0 0 0  0 0 0
0 0 0  0 0 0  0 0 0  0 0 0  0 0 0  0 0 0
0 0 0  0 0 0  0 0 0  0 0 0  0 0 0  0 0 0
0 0 0  0 0 0  0 0 0  0 0 0  0 0 0  0 0 0
0 0 0  0 0 0  0 0 0  0 0 0  0 0 0  0 0 0
0 0 0  0 0 0  0 0 0  0 0 0  0 0 0  0 0 0
0 0 0  0 0 0  0 0 0  0 0 0  0 0 0  0 0 0
0 0 0  0 0 0  0 0 0  0 0 0  0 0 0  0 0 0
0 0 0  0 0 0  0 0 0  0 0 0  0 0 0  0 0 0
0 0 0  0 0 0  8 8 2  91 77 135  115 94 159  105 87 150
105 87 150  105 87 150  109 89 153  109 89 153  105 87 150  105 87 150
93 79 139  101 84 147  109 89 153  96 84 145  101 84 147  105 87 150
91 77 135  91 77 135  96 84 145  91 77 135  87 77 122  66 63 99
22 23 28  3 3 3  0 0 0  0 0 0  0 0 0  0 0 0
0 0 0  0 0 0  0 0 0  0 0 0  0 0 0  0 0 0
0 0 0  0 0 0  0 0 0  0 0 0  0 0 0  0 0 0
0 0 0  0 0 0  0 0 0  8 8 2  67 66 71  206 206 206
249 249 249  253 253 253  253 253 253  253 253 253  253 253 253  253 253 253
253 253 253  253 253 253  253 253 253  253 253 253  253 253 253  253 253 253
253 253 253  253 253 253  253 253 253  253 253 253  253 253 253  253 253 253
253 253 253  253 253 253  253 253 253  253 253 253  253 253 253  253 253 253
253 253 253  253 253 253  253 253 253  253 253 253  253 253 253  253 253 253
253 253 253  253 253 253  253 253 253  253 253 253  253 253 253  253 253 253
253 253 253  253 253 253  253 253 253  253 253 253  253 253 253  253 253 253
253 253 253  253 253 253  253 253 253  253 253 253  221 218 218  152 152 149
22 23 28  0 0 0  0 0 0  0 0 0  0 0 0  0 0 0
0 0 0  0 0 0  0 0 0  0 0 0  0 0 0  0 0 0
0 0 0  0 0 0  0 0 0  0 0 0  0 0 0  0 0 0
0 0 0  0 0 0  0 0 0  4 5 35  20 22 57  58 52 91
47 49 101  44 47 99  47 49 101  44 47 99  44 47 99  44 47 99
47 49 101  47 49 101  44 47 99  50 51 104  44 47 99  47 49 101
50 51 104  50 51 104  55 56 109  58 59 115  55 56 109  44 47 99
55 56 109  44 47 99  3 3 3  0 0 0  0 0 0  0 0 0
0 0 0  0 0 0  0 0 0  0 0 0  0 0 0  0 0 0
0 0 0  0 0 0  0 0 0  0 0 0  0 0 0  0 0 0
0 0 0  0 0 0  0 0 0  0 0 0  0 0 0  0 0 0
0 0 0  0 0 0  0 0 0  0 0 0  0 0 0  0 0 0
0 0 0  0 0 0  0 0 0  0 0 0  0 0 0  0 0 0
0 0 0  0 0 0  0 0 0  0 0 0  0 0 0  0 0 0
0 0 0  0 0 0  0 0 0  0 0 0  0 0 0  0 0 0
0 0 0  0 0 0  0 0 0  0 0 0  0 0 0  0 0 0
0 0 0  0 0 0  0 0 0  8 8 2  86 75 130  113 91 156
102 83 145  118 96 163  105 87 150  98 80 141  109 89 153  109 89 153
102 83 145  102 83 145  118 96 163  102 83 145  100 81 138  98 80 141
109 89 153  105 87 150  98 80 141  91 77 135  81 72 123  58 52 91
3 3 3  1 1 1  0 0 0  0 0 0  0 0 0  0 0 0
0 0 0  0 0 0  0 0 0  0 0 0  0 0 0  0 0 0
0 0 0  0 0 0  0 0 0  0 0 0  0 0 0  0 0 0
0 0 0  0 0 0  0 0 0  31 31 29  100 101 100  236 236 234
253 253 253  253 253 253  253 253 253  253 253 253  253 253 253  253 253 253
253 253 253  253 253 253  253 253 253  253 253 253  253 253 253  253 253 253
253 253 253  253 253 253  253 253 253  253 253 253  253 253 253  253 253 253
253 253 253  253 253 253  253 253 253  253 253 253  253 253 253  253 253 253
253 253 253  253 253 253  253 253 253  253 253 253  253 253 253  253 253 253
253 253 253  253 253 253  253 253 253  253 253 253  253 253 253  253 253 253
253 253 253  253 253 253  253 253 253  253 253 253  253 253 253  253 253 253
253 253 253  253 253 253  253 253 253  253 253 253  249 249 249  197 197 196
42 42 39  8 8 2  0 0 0  0 0 0  0 0 0  0 0 0
0 0 0  0 0 0  0 0 0  0 0 0  0 0 0  0 0 0
0 0 0  0 0 0  0 0 0  0 0 0  0 0 0  0 0 0
0 0 0  0 0 0  0 0 0  3 3 3  22 23 28  44 47 99
44 47 99  44 47 99  47 49 101  44 47 99  44 47 99  50 51 104
44 47 99  47 49 101  50 51 104  47 49 101  50 51 104  50 51 104
44 47 99  50 51 104  44 47 99  55 56 109  44 47 99  44 47 99
50 25 62  3 3 3  0 0 0  0 0 0  0 0 0  0 0 0
0 0 0  0 0 0  0 0 0  0 0 0  0 0 0  0 0 0
0 0 0  0 0 0  0 0 0  0 0 0  0 0 0  0 0 0
0 0 0  0 0 0  0 0 0  0 0 0  0 0 0  0 0 0
0 0 0  0 0 0  0 0 0  0 0 0  0 0 0  0 0 0
0 0 0  0 0 0  0 0 0  0 0 0  0 0 0  0 0 0
0 0 0  0 0 0  0 0 0  0 0 0  0 0 0  0 0 0
0 0 0  0 0 0  0 0 0  0 0 0  0 0 0  0 0 0
0 0 0  0 0 0  0 0 0  0 0 0  0 0 0  0 0 0
0 0 0  0 0 0  0 0 0  0 0 0  3 3 3  66 63 99
105 87 150  101 84 147  98 80 141  102 83 145  101 84 147  102 83 145
102 83 145  105 87 150  98 80 141  98 80 141  102 83 145  106 85 144
93 79 139  102 83 145  91 77 135  106 85 144  66 63 99  50 25 62
3 3 3  0 0 0  0 0 0  0 0 0  0 0 0  0 0 0
0 0 0  0 0 0  0 0 0  0 0 0  0 0 0  0 0 0
0 0 0  0 0 0  0 0 0  0 0 0  0 0 0  0 0 0
0 0 0  0 0 0  0 0 0  67 66 71  152 152 149  243 242 236
253 253 253  253 253 253  253 253 253  253 253 253  253 253 253  253 253 253
253 253 253  253 253 253  253 253 253  253 253 253  253 253 253  253 253 253
253 253 253  253 253 253  253 253 253  253 253 253  253 253 253  253 253 253
253 253 253  253 253 253  253 253 253  253 253 253  253 253 253  253 253 253
253 253 253  253 253 253  253 253 253  253 253 253  253 253 253  253 253 253
253 253 253  253 253 253  253 253 253  253 253 253  253 253 253  253 253 253
253 253 253  253 253 253  253 253 253  253 253 253  253 253 253  253 253 253
253 253 253  253 253 253  253 253 253  253 253 253  253 253 253  221 218 218
81 78 84  22 23 28  0 0 0  0 0 0  0 0 0  0 0 0
0 0 0  0 0 0  0 0 0  0 0 0  0 0 0  0 0 0
0 0 0  0 0 0  0 0 0  0 0 0  0 0 0  0 0 0
0 0 0  0 0 0  0 0 0  1 1 1  3 3 3  50 25 62
44 47 99  44 47 99  44 47 99  44 47 99  47 49 101  50 51 104
44 47 99  50 51 104  44 47 99  47 49 101  54 53 105  47 49 101
47 49 101  54 53 105  44 47 99  44 47 99  44 47 99  50 25 62
3 3 3  0 0 0  0 0 0  0 0 0  0 0 0  0 0 0
0 0 0  0 0 0  0 0 0  0 0 0  0 0 0  0 0 0
0 0 0  0 0 0  0 0 0  0 0 0  0 0 0  0 0 0
0 0 0  0 0 0  0 0 0  0 0 0  0 0 0  0 0 0
0 0 0  0 0 0  0 0 0  0 0 0  0 0 0  0 0 0
0 0 0  0 0 0  0 0 0  0 0 0  0 0 0  0 0 0
0 0 0  0 0 0  0 0 0  0 0 0  0 0 0  0 0 0
0 0 0  0 0 0  0 0 0  0 0 0  0 0 0  0 0 0
0 0 0  0 0 0  0 0 0  0 0 0  0 0 0  0 0 0
0 0 0  0 0 0  0 0 0  0 0 0  0 0 0  0 0 0
58 56 66  105 87 150  102 83 145  109 89 153  98 80 141  109 89 153
102 83 145  102 83 145  98 80 141  106 85 144  106 85 144  113 91 156
100 81 138  93 79 139  91 77 135  106 85 144  50 25 62  22 23 28
1 1 1  0 0 0  0 0 0  0 0 0  0 0 0  0 0 0
0 0 0  0 0 0  0 0 0  0 0 0  0 0 0  0 0 0
0 0 0  0 0 0  0 0 0  0 0 0  0 0 0  0 0 0
0 0 0  0 0 0  0 0 0  100 101 100  206 206 206  249 249 249
253 253 253  253 253 253  253 253 253  253 253 253  253 253 253  253 253 253
253 253 253  253 253 253  253 253 253  253 253 253  253 253 253  253 253 253
253 253 253  253 253 253  253 253 253  253 253 253  253 253 253  253 253 253
253 253 253  253 253 253  253 253 253  253 253 253  253 253 253  253 253 253
253 253 253  253 253 253  253 253 253  253 253 253  253 253 253  253 253 253
253 253 253  253 253 253  253 253 253  253 253 253  253 253 253  253 253 253
253 253 253  253 253 253  253 253 253  253 253 253  253 253 253  253 253 253
253 253 253  253 253 253  253 253 253  253 253 253  253 253 253  236 236 234
128 128 124  51 50 50  0 0 0  0 0 0  0 0 0  0 0 0
0 0 0  0 0 0  0 0 0  0 0 0  0 0 0  0 0 0
0 0 0  0 0 0  0 0 0  0 0 0  0 0 0  0 0 0
0 0 0  0 0 0  0 0 0  0 0 0  3 3 3  20 21 46
50 25 62  47 49 101  47 49 101  44 47 99  44 47 99  47 49 101
55 56 109  44 47 99  44 47 99  44 47 99  47 49 101  47 49 101
44 47 99  50 51 104  50 51 104  44 47 99  20 21 46  0 0 0
0 0 0  0 0 0  0 0 0  0 0 0  0 0 0  0 0 0
0 0 0  0 0 0  0 0 0  0 0 0  0 0 0  0 0 0
0 0 0  0 0 0  0 0 0  0 0 0  0 0 0  0 0 0
0 0 0  0 0 0  0 0 0  0 0 0  0 0 0  0 0 0
0 0 0  0 0 0  0 0 0  0 0 0  0 0 0  0 0 0
0 0 0  0 0 0  0 0 0  0 0 0  0 0 0  0 0 0
0 0 0  0 0 0  0 0 0  0 0 0  0 0 0  0 0 0
0 0 0  0 0 0  0 0 0  0 0 0  0 0 0  0 0 0
0 0 0  0 0 0  0 0 0  0 0 0  0 0 0  0 0 0
0 0 0  0 0 0  0 0 0  0 0 0  0 0 0  0 0 0
0 0 0  22 23 28  78 69 117  132 107 175  106 85 144  109 89 153
106 85 144  105 87 150  109 89 153  109 89 153  105 87 150  100 81 138
106 85 144  100 81 138  106 85 144  87 77 122  50 25 62  3 3 3
0 0 0  0 0 0  0 0 0  0 0 0  0 0 0  0 0 0
0 0 0  0 0 0  0 0 0  0 0 0  0 0 0  0 0 0
0 0 0  0 0 0  0 0 0  0 0 0  0 0 0  0 0 0
0 0 0  1 1 1  8 8 2  128 128 124  243 242 236  253 253 253
253 253 253  253 253 253  253 253 253  253 253 253  253 253 253  253 253 253
253 253 253  253 253 253  253 253 253  253 253 253  253 253 253  253 253 253
253 253 253  253 253 253  253 253 253  253 253 253  253 253 253  253 253 253
253 253 253  253 253 253  253 253 253  253 253 253  253 253 253  253 253 253
253 253 253  253 253 253  253 253 253  253 253 253  253 253 253  253 253 253
253 253 253  253 253 253  253 253 253  253 253 253  253 253 253  253 253 253
253 253 253  253 253 253  253 253 253  253 253 253  253 253 253  253 253 253
253 253 253  253 253 253  253 253 253  253 253 253  253 253 253  243 242 236
179 180 182  81 78 84  0 0 0  0 0 0  0 0 0  0 0 0
0 0 0  0 0 0  0 0 0  0 0 0  0 0 0  0 0 0
0 0 0  0 0 0  0 0 0  0 0 0  0 0 0  0 0 0
0 0 0  0 0 0  0 0 0  0 0 0  3 3 3  22 23 28
50 25 62  44 47 99  44 47 99  44 47 99  47 49 101  47 49 101
44 47 99  47 49 101  54 53 105  50 51 104  44 47 99  47 49 101
47 49 101  54 53 105  44 47 99  8 8 2  0 0 0  0 0 0
0 0 0  0 0 0  0 0 0  0 0 0  0 0 0  0 0 0
0 0 0  0 0 0  0 0 0  0 0 0  0 0 0  0 0 0
0 0 0  0 0 0  0 0 0  0 0 0  0 0 0  0 0 0
0 0 0  0 0 0  0 0 0  0 0 0  0 0 0  0 0 0
0 0 0  0 0 0  0 0 0  0 0 0  0 0 0  0 0 0
0 0 0  0 0 0  0 0 0  0 0 0  0 0 0  0 0 0
0 0 0  0 0 0  0 0 0  0 0 0  0 0 0  0 0 0
0 0 0  0 0 0  0 0 0  0 0 0  0 0 0  0 0 0
0 0 0  0 0 0  0 0 0  0 0 0  0 0 0  0 0 0
0 0 0  0 0 0  0 0 0  0 0 0  0 0 0  0 0 0
0 0 0  0 0 0  0 0 0  50 25 62  78 69 117  115 94 159
109 89 153  109 89 153  106 85 144  100 81 138  106 85 144  100 81 138
106 85 144  100 81 138  86 75 130  58 52 91  22 23 28  0 0 0
0 0 0  0 0 0  0 0 0  0 0 0  0 0 0  0 0 0
0 0 0  0 0 0  0 0 0  0 0 0  0 0 0  0 0 0
0 0 0  0 0 0  0 0 0  0 0 0  0 0 0  0 0 0
0 0 0  8 8 2  42 42 39  152 152 149  253 253 253  253 253 253
253 253 253  253 253 253  253 253 253  253 253 253  253 253 253  253 253 253
253 253 253  253 253 253  253 253 253  253 253 253  253 253 253  253 253 253
253 253 253  253 253 253  253 253 253  253 253 253  253 253 253  253 253 253
253 253 253  253 253 253  253 253 253  253 253 253  253 253 253  253 253 253
253 253 253  253 253 253  253 253 253  253 253 253  253 253 253  253 253 253
253 253 253  253 253 253  253 253 253  253 253 253  253 253 253  253 253 253
253 253 253  253 253 253  253 253 253  253 253 253  253 253 253  253 253 253
253 253 253  253 253 253  253 253 253  253 253 253  253 253 253  249 249 249
236 236 234  100 101 100  0 0 0  0 0 0  0 0 0  0 0 0
0 0 0  0 0 0  0 0 0  0 0 0  0 0 0  0 0 0
0 0 0  0 0 0  0 0 0  0 0 0  0 0 0  0 0 0
0 0 0  0 0 0  0 0 0  0 0 0  0 0 0  3 3 3
20 21 46  47 49 101  44 47 99  44 47 99  44 47 99  44 47 99
44 47 99  44 47 99  54 53 105  47 49 101  44 47 99  44 47 99
44 47 99  20 21 46  0 0 0  0 0 0  0 0 0  0 0 0
0 0 0  0 0 0  0 0 0  0 0 0  0 0 0  0 0 0
0 0 0  0 0 0  0 0 0  0 0 0  0 0 0  0 0 0
0 0 0  0 0 0  0 0 0  0 0 0  0 0 0  0 0 0
0 0 0  0 0 0  0 0 0  0 0 0  0 0 0  0 0 0
0 0 0  0 0 0  0 0 0  0 0 0  0 0 0  0 0 0
0 0 0  0 0 0  0 0 0  0 0 0  0 0 0  0 0 0
0 0 0  0 0 0  0 0 0  0 0 0  0 0 0  0 0 0
0 0 0  0 0 0  0 0 0  0 0 0  0 0 0  0 0 0
0 0 0  0 0 0  0 0 0  0 0 0  0 0 0  0 0 0
0 0 0  0 0 0  0 0 0  0 0 0  0 0 0  0 0 0
0 0 0  0 0 0  0 0 0  0 0 0  0 0 0  50 25 62
87 77 122  106 85 144  106 85 144  100 81 138  109 89 153  106 85 144
100 81 138  106 85 144  78 69 117  50 25 62  22 23 28  0 0 0
0 0 0  0 0 0  0 0 0  0 0 0  0 0 0  0 0 0
0 0 0  0 0 0  0 0 0  0 0 0  0 0 0  0 0 0
0 0 0  0 0 0  0 0 0  0 0 0  0 0 0  0 0 0
0 0 0  8 8 2  89 88 93  191 188 189  253 253 253  253 253 253
253 253 253  253 253 253  253 253 253  253 253 253  253 253 253  253 253 253
253 253 253  253 253 253  253 253 253  253 253 253  253 253 253  253 253 253
253 253 253  253 253 253  253 253 253  253 253 253  253 253 253  253 253 253
253 253 253  253 253 253  253 253 253  253 253 253  253 253 253  253 253 253
253 253 253  253 253 253  253 253 253  253 253 253  253 253 253  253 253 253
253 253 253  253 253 253  253 253 253  253 253 253  253 253 253  253 253 253
253 253 253  253 253 253  253 253 253  253 253 253  253 253 253  253 253 253
253 253 253  253 253 253  253 253 253  253 253 253  253 253 253  253 253 253
249 249 249  142 142 139  31 31 29  3 3 3  0 0 0  0 0 0
0 0 0  0 0 0  0 0 0  0 0 0  0 0 0  0 0 0
0 0 0  0 0 0  0 0 0  0 0 0  0 0 0  0 0 0
0 0 0  0 0 0  0 0 0  0 0 0  0 0 0  1 1 1
20 21 46  44 47 99  47 49 101  47 49 101  47 49 101  44 47 99
47 49 101  44 47 99  44 47 99  44 47 99  44 47 99  20 21 46
0 0 0  0 0 0  0 0 0  0 0 0  0 0 0  0 0 0
0 0 0  0 0 0  0 0 0  0 0 0  0 0 0  0 0 0
0 0 0  0 0 0  0 0 0  0 0 0  0 0 0  0 0 0
0 0 0  0 0 0  0 0 0  0 0 0  0 0 0  0 0 0
0 0 0  0 0 0  0 0 0  0 0 0  0 0 0  0 0 0
0 0 0  0 0 0  0 0 0  0 0 0  0 0 0  0 0 0
0 0 0  0 0 0  0 0 0  0 0 0  0 0 0  0 0 0
0 0 0  0 0 0  0 0 0  0 0 0  0 0 0  0 0 0
0 0 0  0 0 0  0 0 0  0 0 0  0 0 0  0 0 0
0 0 0  0 0 0  0 0 0  0 0 0  0 0 0  0 0 0
0 0 0  0 0 0  0 0 0  0 0 0  0 0 0  0 0 0
0 0 0  0 0 0  0 0 0  0 0 0  0 0 0  0 0 0
0 0 0  22 23 28  63 62 83  78 69 117  106 85 144  106 85 144
100 81 138  91 77 135  78 69 117  22 23 28  3 3 3  0 0 0
0 0 0  0 0 0  0 0 0  0 0 0  0 0 0  0 0 0
0 0 0  0 0 0  0 0 0  0 0 0  0 0 0  0 0 0
0 0 0  0 0 0  0 0 0  0 0 0  0 0 0  0 0 0
0 0 0  22 23 28  142 142 139  221 218 218  253 253 253  253 253 253
253 253 253  253 253 253  253 253 253  253 253 253  253 253 253  253 253 253
253 253 253  253 253 253  253 253 253  253 253 253  253 253 253  253 253 253
253 253 253  253 253 253  253 253 253  253 253 253  253 253 253  253 253 253
253 253 253  253 253 253  253 253 253  253 253 253  253 253 253  253 253 253
253 253 253  253 253 253  253 253 253  253 253 253  253 253 253  253 253 253
253 253 253  253 253 253  253 253 253  253 253 253  253 253 253  253 253 253
253 253 253  253 253 253  253 253 253  253 253 253  253 253 253  253 253 253
253 253 253  253 253 253  253 253 253  253 253 253  253 253 253  253 253 253
253 253 253  165 165 164  67 66 71  8 8 2  0 0 0  0 0 0
0 0 0  0 0 0  0 0 0  0 0 0  0 0 0  0 0 0
0 0 0  0 0 0  0 0 0  0 0 0  0 0 0  0 0 0
0 0 0  0 0 0  0 0 0  0 0 0  0 0 0  0 0 0
4 5 35  20 22 57  44 47 99  44 47 99  44 47 99  44 47 99
55 56 109  50 51 104  20 22 57  8 8 2  0 0 0  0 0 0
0 0 0  0 0 0  0 0 0  0 0 0  0 0 0  0 0 0
0 0 0  0 0 0  0 0 0  0 0 0  0 0 0  0 0 0
0 0 0  0 0 0  0 0 0  0 0 0  0 0 0  0 0 0
0 0 0  0 0 0  0 0 0  0 0 0  0 0 0  0 0 0
0 0 0  0 0 0  0 0 0  0 0 0  0 0 0  0 0 0
0 0 0  0 0 0  0 0 0  0 0 0  0 0 0  0 0 0
0 0 0  0 0 0  0 0 0  0 0 0  0 0 0  0 0 0
0 0 0  0 0 0  0 0 0  0 0 0  0 0 0  0 0 0
0 0 0  0 0 0  0 0 0  0 0 0  0 0 0  0 0 0
0 0 0  0 0 0  0 0 0  0 0 0  0 0 0  0 0 0
0 0 0  0 0 0  0 0 0  0 0 0  0 0 0  0 0 0
0 0 0  0 0 0  0 0 0  0 0 0  0 0 0  0 0 0
0 0 0  0 0 0  0 0 0  0 0 0  8 8 2  50 25 62
58 56 66  66 63 99  58 56 66  22 23 28  8 8 2  3 3 3
0 0 0  0 0 0  0 0 0  0 0 0  0 0 0  0 0 0
0 0 0  0 0 0  0 0 0  0 0 0  0 0 0  0 0 0
0 0 0  0 0 0  0 0 0  0 0 0  0 0 0  0 0 0
1 1 1  31 31 29  191 188 189  243 242 236  253 253 253  253 253 253
253 253 253  253 253 253  253 253 253  253 253 253  253 253 253  253 253 253
253 253 253  253 253 253  253 253 253  253 253 253  253 253 253  253 253 253
253 253 253  253 253 253  253 253 253  253 253 253  253 253 253  253 253 253
253 253 253  253 253 253  253 253 253  253 253 253  253 253 253  253 253 253
253 253 253  253 253 253  253 253 253  253 253 253  253 253 253  253 253 253
253 253 253  253 253 253  253 253 253  253 253 253  253 253 253  253 253 253
253 253 253  253 253 253  253 253 253  253 253 253  253 253 253  253 253 253
253 253 253  253 253 253  253 253 253  253 253 253  253 253 253  253 253 253
253 253 253  197 197 196  111 111 113  8 8 2  0 0 0  0 0 0
0 0 0  0 0 0  0 0 0  0 0 0  0 0 0  0 0 0
0 0 0  0 0 0  0 0 0  0 0 0  0 0 0  0 0 0
0 0 0  0 0 0  0 0 0  0 0 0  0 0 0  3 3 3
3 3 3  20 21 46  50 25 62  20 22 57  13 13 49  4 5 35
3 3 3  0 0 0  0 0 0  0 0 0  0 0 0  0 0 0
0 0 0  0 0 0  0 0 0  0 0 0  0 0 0  0 0 0
0 0 0  0 0 0  0 0 0  0 0 0  0 0 0  0 0 0
0 0 0  0 0 0  0 0 0  0 0 0  0 0 0  0 0 0
0 0 0  0 0 0  0 0 0  0 0 0  0 0 0  0 0 0
0 0 0  0 0 0  0 0 0  0 0 0  0 0 0  0 0 0
0 0 0  0 0 0  0 0 0  0 0 0  0 0 0  0 0 0
0 0 0  0 0 0  0 0 0  0 0 0  0 0 0  0 0 0
0 0 0  0 0 0  0 0 0  0 0 0  0 0 0  0 0 0
0 0 0  0 0 0  0 0 0  0 0 0  0 0 0  0 0 0
0 0 0  0 0 0  0 0 0  0 0 0  0 0 0  0 0 0
0 0 0  0 0 0  0 0 0  0 0 0  0 0 0  0 0 0
0 0 0  0 0 0  0 0 0  0 0 0  0 0 0  0 0 0
0 0 0  0 0 0  0 0 0  0 0 0  0 0 0  0 0 0
0 0 0  0 0 0  0 0 0  0 0 0  0 0 0  0 0 0
0 0 0  0 0 0  0 0 0  0 0 0  0 0 0  0 0 0
0 0 0  0 0 0  0 0 0  0 0 0  0 0 0  0 0 0
0 0 0  0 0 0  0 0 0  0 0 0  0 0 0  0 0 0
0 0 0  0 0 0  0 0 0  0 0 0  0 0 0  0 0 0
0 0 0  0 0 0  0 0 0  0 0 0  0 0 0  0 0 0
0 0 0  0 0 0  0 0 0  0 0 0  0 0 0  0 0 0
0 0 0  0 0 0  0 0 0  0 0 0  0 0 0  0 0 0
0 0 0  0 0 0  0 0 0  0 0 0  0 0 0  0 0 0
0 0 0  0 0 0  0 0 0  0 0 0  0 0 0  0 0 0
0 0 0  0 0 0  0 0 0  0 0 0  0 0 0  0 0 0
0 0 0  0 0 0  0 0 0  0 0 0  0 0 0  0 0 0
0 0 0  0 0 0  0 0 0  0 0 0  0 0 0  0 0 0
0 0 0  0 0 0  0 0 0  0 0 0  0 0 0  0 0 0
0 0 0  0 0 0  0 0 0  0 0 0  0 0 0  0 0 0
0 0 0  0 0 0  0 0 0  0 0 0  0 0 0  0 0 0
0 0 0  0 0 0  0 0 0  0 0 0  0 0 0  0 0 0
0 0 0  0 0 0  0 0 0  0 0 0  0 0 0  0 0 0
0 0 0  0 0 0  0 0 0  0 0 0  0 0 0  0 0 0
0 0 0  0 0 0  0 0 0  0 0 0  0 0 0  0 0 0
0 0 0  0 0 0  0 0 0  0 0 0  0 0 0  0 0 0
0 0 0  0 0 0  0 0 0  0 0 0  0 0 0  0 0 0
0 0 0  0 0 0  0 0 0  0 0 0  0 0 0  0 0 0
0 0 0  0 0 0  0 0 0  0 0 0  0 0 0  0 0 0
0 0 0  0 0 0  0 0 0  0 0 0  0 0 0  0 0 0
0 0 0  0 0 0  0 0 0  0 0 0  0 0 0  0 0 0
0 0 0  0 0 0  0 0 0  0 0 0  0 0 0  0 0 0
0 0 0  0 0 0  0 0 0  0 0 0  0 0 0  0 0 0
0 0 0  0 0 0  0 0 0  0 0 0  0 0 0  0 0 0
0 0 0  0 0 0  0 0 0  0 0 0  0 0 0  0 0 0
0 0 0  0 0 0  0 0 0  0 0 0  0 0 0  0 0 0
0 0 0  0 0 0  0 0 0  0 0 0  0 0 0  0 0 0
0 0 0  0 0 0  0 0 0  0 0 0  0 0 0  0 0 0
0 0 0  0 0 0  0 0 0  0 0 0  0 0 0  0 0 0
0 0 0  0 0 0  0 0 0  0 0 0  0 0 0  0 0 0
0 0 0  0 0 0  0 0 0  0 0 0  0 0 0  0 0 0
0 0 0  0 0 0  0 0 0  0 0 0  0 0 0  0 0 0
0 0 0  0 0 0  0 0 0  0 0 0  0 0 0  0 0 0
0 0 0  0 0 0  0 0 0  0 0 0  0 0 0  0 0 0
0 0 0  0 0 0  0 0 0  0 0 0  0 0 0  0 0 0
0 0 0  0 0 0  0 0 0  0 0 0  0 0 0  0 0 0
0 0 0  0 0 0  0 0 0  0 0 0  0 0 0  0 0 0
0 0 0  0 0 0  0 0 0  0 0 0  0 0 0  0 0 0
0 0 0  0 0 0  0 0 0  0 0 0  0 0 0  0 0 0
0 0 0  0 0 0  0 0 0  0 0 0  0 0 0  0 0 0
0 0 0  0 0 0  0 0 0  0 0 0  0 0 0  0 0 0
0 0 0  0 0 0  0 0 0  0 0 0  0 0 0  0 0 0
0 0 0  0 0 0  0 0 0  0 0 0  0 0 0  0 0 0
0 0 0  0 0 0  0 0 0  0 0 0  0 0 0  0 0 0
0 0 0  0 0 0  0 0 0  0 0 0  0 0 0  0 0 0
0 0 0  0 0 0  0 0 0  0 0 0  0 0 0  0 0 0
0 0 0  0 0 0  0 0 0  0 0 0  0 0 0  0 0 0
0 0 0  0 0 0  0 0 0  0 0 0  0 0 0  0 0 0
0 0 0  0 0 0  0 0 0  0 0 0  0 0 0  0 0 0
0 0 0  0 0 0  0 0 0  0 0 0  0 0 0  0 0 0
0 0 0  0 0 0  0 0 0  0 0 0  0 0 0  0 0 0
0 0 0  0 0 0  0 0 0  0 0 0  0 0 0  0 0 0
0 0 0  0 0 0  0 0 0  0 0 0  0 0 0  0 0 0
0 0 0  0 0 0  0 0 0  0 0 0  0 0 0  0 0 0
0 0 0  0 0 0  0 0 0  0 0 0  0 0 0  0 0 0
0 0 0  0 0 0  0 0 0  0 0 0  0 0 0  0 0 0
0 0 0  0 0 0  0 0 0  0 0 0  0 0 0  0 0 0
0 0 0  0 0 0  0 0 0  0 0 0  0 0 0  0 0 0
0 0 0  0 0 0  0 0 0  0 0 0  0 0 0  0 0 0
0 0 0  0 0 0  0 0 0  0 0 0  0 0 0  0 0 0
0 0 0  0 0 0  0 0 0  0 0 0  0 0 0  0 0 0
0 0 0  0 0 0  0 0 0  0 0 0  0 0 0  0 0 0
0 0 0  0 0 0  0 0 0  0 0 0  0 0 0  0 0 0
0 0 0  0 0 0  0 0 0  0 0 0  0 0 0  0 0 0
0 0 0  0 0 0  0 0 0  0 0 0  0 0 0  0 0 0
0 0 0  0 0 0  0 0 0  0 0 0  0 0 0  0 0 0
0 0 0  0 0 0  0 0 0  0 0 0  0 0 0  0 0 0
0 0 0  0 0 0  0 0 0  0 0 0  0 0 0  0 0 0
0 0 0  0 0 0  0 0 0  0 0 0  0 0 0  0 0 0
0 0 0  0 0 0  0 0 0  0 0 0  0 0 0  0 0 0
0 0 0  0 0 0  0 0 0  0 0 0  0 0 0  0 0 0
0 0 0  0 0 0  0 0 0  0 0 0  0 0 0  0 0 0
0 0 0  0 0 0  0 0 0  0 0 0  0 0 0  0 0 0
0 0 0  0 0 0  0 0 0  0 0 0  0 0 0  0 0 0
0 0 0  0 0 0  0 0 0  0 0 0  0 0 0  0 0 0
0 0 0  0 0 0  0 0 0  0 0 0  0 0 0  0 0 0
0 0 0  0 0 0  0 0 0  0 0 0  0 0 0  0 0 0
0 0 0  0 0 0  0 0 0  0 0 0  0 0 0  0 0 0
0 0 0  0 0 0  0 0 0  0 0 0  0 0 0  0 0 0
0 0 0  0 0 0  0 0 0  0 0 0  0 0 0  0 0 0
0 0 0  0 0 0  0 0 0  0 0 0  0 0 0  0 0 0
0 0 0  0 0 0  0 0 0  0 0 0  0 0 0  0 0 0
0 0 0  0 0 0  0 0 0  0 0 0  0 0 0  0 0 0
0 0 0  0 0 0  0 0 0  0 0 0  0 0 0  0 0 0
0 0 0  0 0 0  0 0 0  0 0 0  0 0 0  0 0 0
0 0 0  0 0 0  0 0 0  0 0 0  0 0 0  0 0 0
0 0 0  0 0 0  0 0 0  0 0 0  0 0 0  0 0 0
0 0 0  0 0 0  0 0 0  0 0 0  0 0 0  0 0 0
0 0 0  0 0 0  0 0 0  0 0 0  0 0 0  0 0 0
0 0 0  0 0 0  0 0 0  0 0 0  0 0 0  0 0 0
0 0 0  0 0 0  0 0 0  0 0 0  0 0 0  0 0 0
0 0 0  0 0 0  0 0 0  0 0 0  0 0 0  0 0 0
0 0 0  0 0 0  0 0 0  0 0 0  0 0 0  0 0 0
0 0 0  0 0 0  0 0 0  0 0 0  0 0 0  0 0 0
0 0 0  0 0 0  0 0 0  0 0 0  0 0 0  0 0 0
0 0 0  0 0 0  0 0 0  0 0 0  0 0 0  0 0 0
0 0 0  0 0 0  0 0 0  0 0 0  0 0 0  0 0 0
0 0 0  0 0 0  0 0 0  0 0 0  0 0 0  0 0 0
0 0 0  0 0 0  0 0 0  0 0 0  0 0 0  0 0 0
0 0 0  0 0 0  0 0 0  0 0 0  0 0 0  0 0 0
0 0 0  0 0 0  0 0 0  0 0 0  0 0 0  0 0 0
0 0 0  0 0 0  0 0 0  0 0 0  0 0 0  0 0 0
0 0 0  0 0 0  0 0 0  0 0 0  0 0 0  0 0 0
0 0 0  0 0 0  0 0 0  0 0 0  0 0 0  0 0 0
0 0 0  0 0 0  0 0 0  0 0 0  0 0 0  0 0 0
0 0 0  0 0 0  0 0 0  0 0 0  0 0 0  0 0 0
0 0 0  0 0 0  0 0 0  0 0 0  0 0 0  0 0 0
0 0 0  0 0 0  0 0 0  0 0 0  0 0 0  0 0 0
0 0 0  0 0 0  0 0 0  0 0 0  0 0 0  0 0 0
0 0 0  0 0 0  0 0 0  0 0 0  0 0 0  0 0 0
0 0 0  0 0 0  0 0 0  0 0 0  0 0 0  0 0 0
0 0 0  0 0 0  0 0 0  0 0 0  0 0 0  0 0 0
0 0 0  0 0 0  0 0 0  0 0 0  0 0 0  0 0 0
0 0 0  0 0 0  0 0 0  0 0 0  0 0 0  0 0 0
0 0 0  0 0 0  0 0 0  0 0 0  0 0 0  0 0 0
0 0 0  0 0 0  0 0 0  0 0 0  0 0 0  0 0 0
0 0 0  0 0 0  0 0 0  0 0 0  0 0 0  0 0 0
0 0 0  0 0 0  0 0 0  0 0 0  0 0 0  0 0 0
0 0 0  0 0 0  0 0 0  0 0 0  0 0 0  0 0 0
0 0 0  0 0 0  0 0 0  0 0 0  0 0 0  0 0 0
0 0 0  0 0 0  0 0 0  0 0 0  0 0 0  0 0 0
0 0 0  0 0 0  0 0 0  0 0 0  0 0 0  0 0 0
0 0 0  0 0 0  0 0 0  0 0 0  0 0 0  0 0 0
0 0 0  0 0 0  0 0 0  0 0 0  0 0 0  0 0 0
0 0 0  0 0 0  0 0 0  0 0 0  0 0 0  0 0 0
0 0 0  0 0 0  0 0 0  0 0 0  0 0 0  0 0 0
0 0 0  0 0 0  0 0 0  0 0 0  0 0 0  0 0 0
0 0 0  0 0 0  0 0 0  0 0 0  0 0 0  0 0 0
0 0 0  0 0 0  0 0 0  0 0 0  0 0 0  0 0 0
0 0 0  0 0 0  0 0 0  0 0 0  0 0 0  0 0 0
0 0 0  0 0 0  0 0 0  0 0 0  0 0 0  0 0 0
0 0 0  0 0 0  0 0 0  0 0 0  0 0 0  0 0 0
0 0 0  0 0 0  0 0 0  0 0 0  0 0 0  0 0 0
0 0 0  0 0 0  0 0 0  0 0 0  0 0 0  0 0 0
0 0 0  0 0 0  0 0 0  0 0 0  0 0 0  0 0 0
0 0 0  0 0 0  0 0 0  0 0 0  0 0 0  0 0 0
0 0 0  0 0 0  0 0 0  0 0 0  0 0 0  0 0 0
0 0 0  0 0 0  0 0 0  0 0 0  0 0 0  0 0 0
0 0 0  0 0 0  0 0 0  0 0 0  0 0 0  0 0 0
0 0 0  0 0 0  0 0 0  0 0 0  0 0 0  0 0 0
0 0 0  0 0 0  0 0 0  0 0 0  0 0 0  0 0 0
0 0 0  0 0 0  0 0 0  0 0 0  0 0 0  0 0 0
0 0 0  0 0 0  0 0 0  0 0 0  0 0 0  0 0 0
0 0 0  0 0 0  0 0 0  0 0 0  0 0 0  0 0 0
0 0 0  0 0 0  0 0 0  0 0 0  0 0 0  0 0 0
0 0 0  0 0 0  0 0 0  0 0 0  0 0 0  0 0 0
0 0 0  0 0 0  0 0 0  0 0 0  0 0 0  0 0 0
0 0 0  0 0 0  0 0 0  0 0 0  0 0 0  0 0 0
0 0 0  0 0 0  0 0 0  0 0 0  0 0 0  0 0 0
0 0 0  0 0 0  0 0 0  0 0 0  0 0 0  0 0 0
0 0 0  0 0 0  0 0 0  0 0 0  0 0 0  0 0 0
0 0 0  0 0 0  0 0 0  0 0 0  0 0 0  0 0 0
0 0 0  0 0 0  0 0 0  0 0 0  0 0 0  0 0 0
0 0 0  0 0 0  0 0 0  0 0 0  0 0 0  0 0 0
0 0 0  0 0 0  0 0 0  0 0 0  0 0 0  0 0 0
0 0 0  0 0 0  0 0 0  0 0 0  0 0 0  0 0 0
0 0 0  0 0 0  0 0 0  0 0 0  0 0 0  0 0 0
0 0 0  0 0 0  0 0 0  0 0 0  0 0 0  0 0 0
0 0 0  0 0 0  0 0 0  0 0 0  0 0 0  0 0 0
0 0 0  0 0 0  0 0 0  0 0 0  0 0 0  0 0 0
0 0 0  0 0 0  0 0 0  0 0 0  0 0 0  0 0 0
0 0 0  0 0 0  0 0 0  0 0 0  0 0 0  0 0 0
0 0 0  0 0 0  0 0 0  0 0 0  0 0 0  0 0 0
0 0 0  0 0 0  0 0 0  0 0 0  0 0 0  0 0 0
0 0 0  0 0 0  0 0 0  0 0 0  0 0 0  0 0 0
0 0 0  0 0 0  0 0 0  0 0 0  0 0 0  0 0 0
0 0 0  0 0 0  0 0 0  0 0 0  0 0 0  0 0 0
0 0 0  0 0 0  0 0 0  0 0 0  0 0 0  0 0 0
0 0 0  0 0 0  0 0 0  0 0 0  0 0 0  0 0 0
0 0 0  0 0 0  0 0 0  0 0 0  0 0 0  0 0 0
0 0 0  0 0 0  0 0 0  0 0 0  0 0 0  0 0 0
0 0 0  0 0 0  0 0 0  0 0 0  0 0 0  0 0 0
0 0 0  0 0 0  0 0 0  0 0 0  0 0 0  0 0 0
0 0 0  0 0 0  0 0 0  0 0 0  0 0 0  0 0 0
0 0 0  0 0 0  0 0 0  0 0 0  0 0 0  0 0 0
0 0 0  0 0 0  0 0 0  0 0 0  0 0 0  0 0 0
0 0 0  0 0 0  0 0 0  0 0 0  0 0 0  0 0 0
0 0 0  0 0 0  0 0 0  0 0 0  0 0 0  0 0 0
0 0 0  0 0 0  0 0 0  0 0 0  0 0 0  0 0 0
0 0 0  0 0 0  0 0 0  0 0 0  0 0 0  0 0 0
